<?xml version="1.0" encoding="UTF-8"?>
<map version="1.10" tiledversion="1.12.1" orientation="orthogonal" renderorder="right-down" width="30" height="20" tilewidth="16" tileheight="16" infinite="1" nextlayerid="4" nextobjectid="10">
 <tileset firstgid="1" source="../Atlas.tsx"/>
 <layer id="1" name="Main" width="30" height="20">
  <properties>
   <property name="layer" type="int" value="0"/>
  </properties>
  <data encoding="csv">
   <chunk x="-48" y="-32" width="16" height="16">
0,0,0,0,0,0,0,0,0,0,0,0,0,0,0,0,
0,0,0,0,0,0,0,0,0,0,0,0,0,0,0,0,
0,0,0,0,0,0,0,0,0,0,0,0,0,0,0,0,
688,688,688,688,688,688,688,688,688,688,688,688,688,688,688,688,
688,688,688,688,688,688,688,688,688,688,688,688,688,688,688,688,
688,688,688,688,688,688,688,688,688,688,688,688,688,688,688,688,
688,688,688,688,688,688,688,688,688,688,688,688,688,688,688,688,
688,688,688,688,688,688,688,688,688,688,688,688,688,688,688,688,
688,688,688,688,688,688,688,688,688,688,688,688,688,688,688,688,
688,688,688,688,688,688,688,688,688,688,688,688,688,688,688,688,
688,688,688,688,688,688,688,688,688,688,688,688,688,688,688,688,
688,688,688,688,688,688,688,688,688,688,688,688,688,688,688,688,
688,688,688,688,688,688,688,688,688,688,688,688,688,688,688,688,
688,688,688,688,688,688,688,688,688,688,688,688,688,688,688,688,
688,688,688,688,688,688,688,688,688,688,688,688,688,688,688,688,
688,688,688,688,688,688,688,688,688,688,688,688,688,688,688,688
</chunk>
   <chunk x="-32" y="-32" width="16" height="16">
0,0,0,0,0,0,0,0,0,0,0,0,0,0,0,0,
0,0,0,0,0,0,0,0,0,0,0,0,0,0,0,0,
0,0,0,0,0,0,0,0,0,0,0,0,0,0,0,0,
688,688,688,688,688,688,688,688,688,688,688,688,688,688,688,688,
688,688,688,688,688,688,688,688,688,688,688,688,688,688,688,688,
688,688,688,688,688,688,688,688,688,688,688,688,688,688,688,688,
688,688,688,688,688,688,688,688,688,688,688,688,688,688,688,688,
688,688,688,688,688,688,688,688,688,688,688,688,688,688,688,688,
688,688,688,688,688,688,688,688,688,688,688,688,688,688,688,688,
688,688,688,688,688,688,688,688,688,688,688,688,688,688,688,688,
688,688,688,688,688,688,688,688,688,688,688,688,688,688,688,688,
688,688,688,688,688,688,688,688,688,688,688,688,688,688,688,688,
688,688,688,688,688,688,688,688,688,688,688,688,688,688,688,688,
688,688,688,688,688,688,688,688,688,688,688,688,688,688,688,688,
688,688,688,688,688,688,688,688,688,688,688,688,688,688,688,688,
688,688,688,688,688,688,688,688,688,688,688,688,688,688,688,688
</chunk>
   <chunk x="-16" y="-32" width="16" height="16">
0,0,0,0,0,0,0,0,0,0,0,0,0,0,0,0,
0,0,0,0,0,0,0,0,0,0,0,0,0,0,0,0,
0,0,0,0,0,0,0,0,0,0,0,0,0,0,0,0,
688,688,688,688,688,688,688,688,688,688,688,688,688,688,688,688,
688,688,688,688,688,688,688,688,688,688,688,688,688,688,688,688,
688,688,688,688,688,688,688,688,688,688,688,688,688,688,688,688,
688,688,688,688,688,688,688,688,688,688,688,688,688,688,688,688,
688,688,688,688,688,688,688,688,688,688,688,688,688,688,688,688,
688,688,688,688,688,688,688,688,688,688,688,688,688,688,688,688,
688,688,688,688,688,688,688,688,688,688,688,688,688,688,688,688,
688,688,688,688,688,688,688,688,688,688,688,688,688,688,688,688,
688,688,688,688,688,688,688,688,688,688,688,688,688,688,688,688,
688,688,688,688,688,688,688,688,688,688,688,688,688,688,688,688,
688,688,688,688,688,688,688,688,688,688,688,688,688,688,688,688,
688,688,688,688,688,688,688,688,688,688,688,688,688,688,688,688,
688,688,688,688,688,688,688,688,688,688,688,688,688,688,688,688
</chunk>
   <chunk x="0" y="-32" width="16" height="16">
0,0,0,0,0,0,0,0,0,0,0,0,0,0,0,0,
0,0,0,0,0,0,0,0,0,0,0,0,0,0,0,0,
0,0,0,0,0,0,0,0,0,0,0,0,0,0,0,0,
688,688,688,688,688,688,688,688,688,688,688,688,688,688,688,688,
688,688,688,688,688,688,688,688,688,688,688,688,688,688,688,688,
688,688,688,688,688,688,688,688,688,688,688,688,688,688,688,688,
688,688,688,688,688,688,688,688,688,688,688,688,688,688,688,688,
688,688,688,688,688,688,688,688,688,688,688,688,688,688,688,688,
688,688,688,688,688,688,688,688,688,688,688,688,688,688,688,688,
688,688,688,688,688,688,688,688,688,688,688,688,688,688,688,688,
688,688,688,688,688,688,688,688,688,688,688,688,688,688,688,688,
688,688,688,688,688,688,688,688,688,688,688,688,688,688,688,688,
688,688,688,688,688,688,688,688,688,688,688,688,688,688,688,688,
688,688,688,688,688,688,688,688,688,688,688,688,688,688,688,688,
688,688,688,688,688,688,688,688,688,688,688,688,688,688,688,688,
688,688,688,688,688,688,688,688,688,688,688,688,688,688,688,688
</chunk>
   <chunk x="16" y="-32" width="16" height="16">
0,0,0,0,0,0,0,0,0,0,0,0,0,0,0,0,
0,0,0,0,0,0,0,0,0,0,0,0,0,0,0,0,
0,0,0,0,0,0,0,0,0,0,0,0,0,0,0,0,
688,688,688,688,688,688,688,688,688,688,688,688,688,688,688,688,
688,688,688,688,688,688,688,688,688,688,688,688,688,688,688,688,
688,688,688,688,688,688,688,688,688,688,688,688,688,688,688,688,
688,688,688,688,688,688,688,688,688,688,688,688,688,688,688,688,
688,688,688,688,688,688,688,688,688,688,688,688,688,688,688,688,
688,688,688,688,688,688,688,688,688,688,688,688,688,688,688,688,
688,688,688,688,688,688,688,688,688,688,688,688,688,688,688,688,
688,688,688,688,688,688,688,688,688,688,688,688,688,688,688,688,
688,688,688,688,688,688,688,688,688,688,688,688,688,688,688,688,
688,688,688,688,688,688,688,688,688,688,688,688,688,688,688,688,
688,688,688,688,688,688,688,688,688,688,688,688,688,688,688,688,
688,688,688,688,688,688,688,688,688,688,688,688,688,688,688,688,
688,688,688,688,688,688,688,688,688,688,688,688,688,688,688,688
</chunk>
   <chunk x="32" y="-32" width="16" height="16">
0,0,0,0,0,0,0,0,0,0,0,0,0,0,0,0,
0,0,0,0,0,0,0,0,0,0,0,0,0,0,0,0,
0,0,0,0,0,0,0,0,0,0,0,0,0,0,0,0,
688,688,688,688,688,688,688,688,688,0,0,0,0,0,0,0,
688,688,688,688,688,688,688,688,688,0,0,0,0,0,0,0,
688,688,688,688,688,688,688,688,688,0,0,0,0,0,0,0,
688,688,688,688,688,688,688,688,688,0,0,0,0,0,0,0,
688,688,688,688,688,688,688,688,688,0,0,0,0,0,0,0,
688,688,688,688,688,688,688,688,688,0,0,0,0,0,0,0,
688,688,688,688,688,688,688,688,688,0,0,0,0,0,0,0,
688,688,688,688,688,688,688,688,688,0,0,0,0,0,0,0,
688,688,688,688,688,688,688,688,688,0,0,0,0,0,0,0,
688,688,688,688,688,688,688,688,688,0,0,0,0,0,0,0,
688,688,688,688,688,688,688,688,688,0,0,0,0,0,0,0,
688,688,688,688,688,688,688,688,688,0,0,0,0,0,0,0,
688,688,688,688,688,688,688,688,688,0,0,0,0,0,0,0
</chunk>
   <chunk x="-48" y="-16" width="16" height="16">
688,688,688,688,688,688,688,688,688,688,688,688,688,688,688,688,
688,688,688,688,688,688,688,688,688,688,688,688,688,688,688,688,
688,688,688,688,688,688,688,688,688,688,688,688,688,688,688,688,
688,688,688,688,688,688,688,688,688,688,688,688,688,688,688,688,
688,688,688,688,688,688,688,688,688,688,688,688,688,688,688,688,
688,688,688,688,688,688,688,688,688,688,688,688,688,688,688,688,
688,688,688,688,688,688,688,688,688,688,688,688,688,688,688,688,
688,688,688,688,688,688,688,688,688,688,688,688,688,688,688,688,
688,688,688,688,688,688,688,688,688,688,688,688,688,688,688,688,
688,688,688,688,688,688,688,688,688,688,688,688,688,688,688,688,
688,688,688,688,688,688,688,688,688,688,688,688,688,688,688,688,
688,688,688,688,688,688,688,688,688,688,688,688,688,688,688,688,
688,688,688,688,688,688,688,688,688,688,688,688,688,688,688,688,
688,688,688,688,688,688,688,688,688,688,688,688,688,688,688,688,
688,688,688,688,688,688,688,688,688,688,688,688,688,688,688,688,
688,688,688,688,688,688,688,688,688,688,688,688,688,688,688,688
</chunk>
   <chunk x="-32" y="-16" width="16" height="16">
688,688,688,688,688,688,688,688,688,688,688,688,688,688,688,688,
688,688,688,688,688,688,688,688,688,688,688,688,688,688,688,688,
688,688,688,688,688,688,688,688,688,688,688,688,688,688,688,688,
688,688,688,688,688,688,688,688,688,688,688,688,688,688,688,688,
688,688,688,688,688,688,688,688,688,688,688,688,688,688,688,688,
688,688,688,688,688,688,688,688,688,688,688,688,688,688,688,688,
688,688,688,688,688,688,688,688,688,688,688,688,688,688,688,688,
688,688,688,688,688,688,688,688,688,688,688,688,688,688,688,688,
688,688,688,688,688,688,688,688,688,688,688,688,688,688,688,688,
688,688,688,688,688,688,688,688,688,688,688,688,688,688,688,688,
688,688,688,688,688,688,688,688,688,688,688,688,688,688,688,688,
688,688,688,688,688,688,688,688,688,688,688,688,688,688,688,688,
688,688,688,688,688,688,688,688,688,688,688,688,688,688,688,688,
688,688,688,688,688,688,688,688,688,688,688,688,688,688,688,688,
688,688,688,688,688,688,688,688,688,688,688,688,688,688,688,688,
688,688,688,688,688,688,688,688,688,688,688,688,688,688,688,688
</chunk>
   <chunk x="-16" y="-16" width="16" height="16">
688,688,688,688,688,688,688,688,688,688,688,688,688,688,688,688,
688,688,688,688,688,688,688,688,688,688,688,688,688,688,688,688,
688,688,688,688,688,688,688,688,688,688,688,688,688,688,688,688,
688,688,688,688,688,688,688,688,688,688,688,688,688,688,688,688,
688,688,688,688,688,688,688,688,688,688,688,688,688,688,688,688,
688,688,688,688,688,688,688,688,688,688,688,688,688,688,688,688,
688,688,688,688,688,688,688,688,688,688,688,688,688,688,688,688,
688,688,688,688,688,688,688,688,688,688,688,688,688,688,688,688,
688,688,688,688,688,688,688,688,688,688,688,688,688,688,688,688,
688,688,688,688,688,688,688,688,688,690,736,736,736,736,736,736,
688,688,688,688,688,688,688,688,688,689,0,0,0,0,0,0,
688,688,688,688,688,688,688,688,688,689,0,0,0,0,0,0,
688,688,688,688,688,688,688,688,688,689,0,759,760,761,762,763,
688,688,688,688,688,688,688,688,688,689,0,807,808,809,810,811,
688,688,688,688,688,688,688,688,688,689,0,855,856,857,858,859,
688,688,688,688,688,688,688,688,688,689,0,903,904,905,906,907
</chunk>
   <chunk x="0" y="-16" width="16" height="16">
688,688,688,688,688,688,688,688,688,688,688,688,688,688,688,688,
688,688,688,688,688,688,688,688,688,688,688,688,688,688,688,688,
688,688,688,688,688,688,688,688,688,688,688,688,688,688,688,688,
688,688,688,688,688,688,688,688,688,688,688,688,688,688,688,688,
688,688,688,688,688,688,688,688,688,688,688,688,688,688,688,688,
688,688,688,688,688,688,688,688,688,688,688,688,688,688,688,688,
688,688,688,688,688,688,688,688,688,688,688,688,688,688,688,688,
688,688,688,688,688,688,688,688,688,688,688,688,688,688,688,688,
688,688,688,688,688,688,688,688,688,688,688,688,688,688,688,688,
736,736,736,736,736,736,736,736,736,736,736,691,688,688,688,688,
0,0,0,0,0,0,0,0,0,0,0,687,688,688,688,688,
0,0,0,0,0,0,0,0,0,0,0,687,688,688,688,688,
764,765,766,767,960,0,0,0,0,0,0,687,688,688,688,688,
812,813,814,815,1008,0,0,0,0,0,0,687,688,688,688,688,
860,861,862,863,1056,0,0,0,0,0,0,687,688,688,688,688,
908,909,910,911,1104,0,0,0,0,0,0,687,688,688,688,688
</chunk>
   <chunk x="16" y="-16" width="16" height="16">
688,688,688,688,688,688,688,688,688,688,688,688,688,688,688,688,
688,688,688,688,688,688,688,688,688,688,688,688,688,688,688,688,
688,688,688,688,688,688,688,688,688,688,688,688,688,688,688,688,
688,688,688,688,688,688,688,688,688,688,688,688,688,688,688,688,
688,688,688,688,688,688,688,688,688,688,688,688,688,688,688,688,
688,688,688,688,688,688,688,688,688,688,688,688,688,688,688,688,
688,688,688,688,688,688,688,688,688,688,688,688,688,688,688,688,
688,688,688,688,688,688,688,688,688,688,688,688,688,688,688,688,
688,688,688,688,688,688,688,688,688,688,688,688,688,688,688,688,
688,688,688,688,688,688,688,688,688,688,688,688,688,688,688,688,
688,688,688,688,688,688,688,688,688,688,688,688,688,688,688,688,
688,688,688,688,688,688,688,688,688,688,688,688,688,688,688,688,
688,688,688,688,688,688,688,688,688,688,688,688,688,688,688,688,
688,688,688,688,688,688,688,688,688,688,688,688,688,688,688,688,
688,688,688,688,688,688,688,688,688,688,688,688,688,688,688,688,
688,688,688,688,688,688,688,688,688,688,688,688,688,688,688,688
</chunk>
   <chunk x="32" y="-16" width="16" height="16">
688,688,688,688,688,688,688,688,688,0,0,0,0,0,0,0,
688,688,688,688,688,688,688,688,688,0,0,0,0,0,0,0,
688,688,688,688,688,688,688,688,688,0,0,0,0,0,0,0,
688,688,688,688,688,688,688,688,688,0,0,0,0,0,0,0,
688,688,688,688,688,688,688,688,688,0,0,0,0,0,0,0,
688,688,688,688,688,688,688,688,688,0,0,0,0,0,0,0,
688,688,688,688,688,688,688,688,688,0,0,0,0,0,0,0,
688,688,688,688,688,688,688,688,688,0,0,0,0,0,0,0,
688,688,688,688,688,688,688,688,688,0,0,0,0,0,0,0,
688,688,688,688,688,688,688,688,688,0,0,0,0,0,0,0,
688,688,688,688,688,688,688,688,688,0,0,0,0,0,0,0,
688,688,688,688,688,688,688,688,688,0,0,0,0,0,0,0,
688,688,688,688,688,688,688,688,688,0,0,0,0,0,0,0,
688,688,688,688,688,688,688,688,688,0,0,0,0,0,0,0,
688,688,688,688,688,688,688,688,688,0,0,0,0,0,0,0,
688,688,688,688,688,688,688,688,688,0,0,0,0,0,0,0
</chunk>
   <chunk x="-48" y="0" width="16" height="16">
688,688,688,688,688,688,688,688,688,688,688,688,688,688,688,688,
688,688,688,688,688,688,688,688,688,688,688,688,688,688,688,688,
688,688,688,688,688,688,688,688,688,688,688,688,688,688,688,688,
688,688,688,688,688,688,688,688,688,688,688,688,688,688,688,688,
688,688,688,688,688,688,688,688,688,688,688,688,688,688,688,688,
688,688,688,688,688,688,688,688,688,688,688,688,688,688,688,688,
688,688,688,688,688,688,688,688,688,688,688,688,688,688,688,688,
688,688,688,688,688,688,688,688,688,688,688,688,688,688,688,688,
688,688,688,688,688,688,688,688,688,688,688,688,688,688,688,688,
688,688,688,688,688,688,688,688,688,688,688,688,688,688,688,688,
688,688,688,688,688,688,688,688,688,688,688,688,688,688,688,688,
688,688,688,688,688,688,688,688,688,688,688,688,688,688,688,688,
688,688,688,688,688,688,688,688,688,688,688,688,688,688,688,688,
688,688,688,688,688,688,688,688,688,688,688,688,688,688,688,688,
688,688,688,688,688,688,688,688,688,688,688,688,688,688,688,688,
688,688,688,688,688,688,688,688,688,688,688,688,688,688,688,688
</chunk>
   <chunk x="-32" y="0" width="16" height="16">
688,688,688,688,688,688,688,688,688,688,688,688,688,688,688,688,
688,688,688,688,688,688,688,688,688,688,688,688,688,688,688,688,
688,688,688,688,688,688,688,688,688,688,688,688,688,688,688,688,
688,688,688,688,688,688,688,688,688,688,688,688,688,688,688,688,
688,688,688,688,688,688,688,688,688,688,688,688,688,688,688,688,
688,688,688,688,688,688,688,688,688,688,688,688,688,688,688,688,
688,688,688,688,688,688,688,688,688,688,688,688,688,688,688,688,
688,688,688,688,688,688,688,688,688,688,688,688,688,688,688,688,
688,688,688,688,688,688,688,688,688,688,688,688,688,688,688,688,
688,688,688,688,688,688,688,688,688,688,688,688,688,688,688,688,
688,688,688,688,688,688,688,688,688,688,688,688,688,688,688,688,
688,688,688,688,688,688,688,688,688,688,688,688,688,688,688,688,
688,688,688,688,688,688,688,688,688,688,688,688,688,688,688,688,
688,688,688,688,688,688,688,688,688,688,688,688,688,688,688,688,
688,688,688,688,688,688,688,688,688,688,688,688,688,688,688,688,
688,688,688,688,688,688,688,688,688,688,688,688,688,688,688,688
</chunk>
   <chunk x="-16" y="0" width="16" height="16">
688,688,688,688,688,688,688,688,688,738,640,640,640,640,640,640,
688,688,688,688,688,688,688,688,688,688,688,688,688,688,688,688,
688,688,688,688,688,688,688,688,688,688,688,688,688,688,688,688,
688,688,688,688,688,688,688,688,688,688,688,688,688,688,688,688,
688,688,688,688,688,688,688,688,688,688,688,688,688,688,688,688,
688,688,688,688,688,688,688,688,688,688,688,688,688,688,688,688,
688,688,688,688,688,688,688,688,688,688,688,688,688,688,688,688,
688,688,688,688,688,688,688,688,688,688,688,688,688,688,688,688,
688,688,688,688,688,688,688,688,688,688,688,688,688,688,688,688,
688,688,688,688,688,688,688,688,688,688,688,688,688,688,688,688,
688,688,688,688,688,688,688,688,688,688,688,688,688,688,688,688,
688,688,688,688,688,688,688,688,688,688,688,688,688,688,688,688,
688,688,688,688,688,688,688,688,688,688,688,688,688,688,688,688,
688,688,688,688,688,688,688,688,688,688,688,688,688,688,688,688,
688,688,688,688,688,688,688,688,688,688,688,688,688,688,688,688,
688,688,688,688,688,688,688,688,688,688,688,688,688,688,688,688
</chunk>
   <chunk x="0" y="0" width="16" height="16">
640,640,640,640,640,640,640,640,640,640,640,739,688,688,688,688,
688,688,688,688,688,688,688,688,688,688,688,688,688,688,688,688,
688,688,688,688,688,688,688,688,688,688,688,688,688,688,688,688,
688,688,688,688,688,688,688,688,688,688,688,688,688,688,688,688,
688,688,688,688,688,688,688,688,688,688,688,688,688,688,688,688,
688,688,688,688,688,688,688,688,688,688,688,688,688,688,688,688,
688,688,688,688,688,688,688,688,688,688,688,688,688,688,688,688,
688,688,688,688,688,688,688,688,688,688,688,688,688,688,688,688,
688,688,688,688,688,688,688,688,688,688,688,688,688,688,688,688,
688,688,688,688,688,688,688,688,688,688,688,688,688,688,688,688,
688,688,688,688,688,688,688,688,688,688,688,688,688,688,688,688,
688,688,688,688,688,688,688,688,688,688,688,688,688,688,688,688,
688,688,688,688,688,688,688,688,688,688,688,688,688,688,688,688,
688,688,688,688,688,688,688,688,688,688,688,688,688,688,688,688,
688,688,688,688,688,688,688,688,688,688,688,688,688,688,688,688,
688,688,688,688,688,688,688,688,688,688,688,688,688,688,688,688
</chunk>
   <chunk x="16" y="0" width="16" height="16">
688,688,688,688,688,688,688,688,688,688,688,688,688,688,688,688,
688,688,688,688,688,688,688,688,688,688,688,688,688,688,688,688,
688,688,688,688,688,688,688,688,688,688,688,688,688,688,688,688,
688,688,688,688,688,688,688,688,688,688,688,688,688,688,688,688,
688,688,688,688,688,688,688,688,688,688,688,688,688,688,688,688,
688,688,688,688,688,688,688,688,688,688,688,688,688,688,688,688,
688,688,688,688,688,688,688,688,688,688,688,688,688,688,688,688,
688,688,688,688,688,688,688,688,688,688,688,688,688,688,688,688,
688,688,688,688,688,688,688,688,688,688,688,688,688,688,688,688,
688,688,688,688,688,688,688,688,688,688,688,688,688,688,688,688,
688,688,688,688,688,688,688,688,688,688,688,688,688,688,688,688,
688,688,688,688,688,688,688,688,688,688,688,688,688,688,688,688,
688,688,688,688,688,688,688,688,688,688,688,688,688,688,688,688,
688,688,688,688,688,688,688,688,688,688,688,688,688,688,688,688,
688,688,688,688,688,688,688,688,688,688,688,688,688,688,688,688,
688,688,688,688,688,688,688,688,688,688,688,688,688,688,688,688
</chunk>
   <chunk x="32" y="0" width="16" height="16">
688,688,688,688,688,688,688,688,688,0,0,0,0,0,0,0,
688,688,688,688,688,688,688,688,688,0,0,0,0,0,0,0,
688,688,688,688,688,688,688,688,688,0,0,0,0,0,0,0,
688,688,688,688,688,688,688,688,688,0,0,0,0,0,0,0,
688,688,688,688,688,688,688,688,688,0,0,0,0,0,0,0,
688,688,688,688,688,688,688,688,688,0,0,0,0,0,0,0,
688,688,688,688,688,688,688,688,688,0,0,0,0,0,0,0,
688,688,688,688,688,688,688,688,688,0,0,0,0,0,0,0,
688,688,688,688,688,688,688,688,688,0,0,0,0,0,0,0,
688,688,688,688,688,688,688,688,688,0,0,0,0,0,0,0,
688,688,688,688,688,688,688,688,688,0,0,0,0,0,0,0,
688,688,688,688,688,688,688,688,688,0,0,0,0,0,0,0,
688,688,688,688,688,688,688,688,688,0,0,0,0,0,0,0,
688,688,688,688,688,688,688,688,688,0,0,0,0,0,0,0,
688,688,688,688,688,688,688,688,688,0,0,0,0,0,0,0,
688,688,688,688,688,688,688,688,688,0,0,0,0,0,0,0
</chunk>
   <chunk x="-48" y="16" width="16" height="16">
688,688,688,688,688,688,688,688,688,688,688,688,688,688,688,688,
688,688,688,688,688,688,688,688,688,688,688,688,688,688,688,688,
688,688,688,688,688,688,688,688,688,688,688,688,688,688,688,688,
688,688,688,688,688,688,688,688,688,688,688,688,688,688,688,688,
0,0,0,0,0,0,0,0,0,0,0,0,0,0,0,0,
0,0,0,0,0,0,0,0,0,0,0,0,0,0,0,0,
0,0,0,0,0,0,0,0,0,0,0,0,0,0,0,0,
0,0,0,0,0,0,0,0,0,0,0,0,0,0,0,0,
0,0,0,0,0,0,0,0,0,0,0,0,0,0,0,0,
0,0,0,0,0,0,0,0,0,0,0,0,0,0,0,0,
0,0,0,0,0,0,0,0,0,0,0,0,0,0,0,0,
0,0,0,0,0,0,0,0,0,0,0,0,0,0,0,0,
0,0,0,0,0,0,0,0,0,0,0,0,0,0,0,0,
0,0,0,0,0,0,0,0,0,0,0,0,0,0,0,0,
0,0,0,0,0,0,0,0,0,0,0,0,0,0,0,0,
0,0,0,0,0,0,0,0,0,0,0,0,0,0,0,0
</chunk>
   <chunk x="-32" y="16" width="16" height="16">
688,688,688,688,688,688,688,688,688,688,688,688,688,688,688,688,
688,688,688,688,688,688,688,688,688,688,688,688,688,688,688,688,
688,688,688,688,688,688,688,688,688,688,688,688,688,688,688,688,
688,688,688,688,688,688,688,688,688,688,688,688,688,688,688,688,
0,0,0,0,0,0,0,0,0,0,0,0,0,0,0,0,
0,0,0,0,0,0,0,0,0,0,0,0,0,0,0,0,
0,0,0,0,0,0,0,0,0,0,0,0,0,0,0,0,
0,0,0,0,0,0,0,0,0,0,0,0,0,0,0,0,
0,0,0,0,0,0,0,0,0,0,0,0,0,0,0,0,
0,0,0,0,0,0,0,0,0,0,0,0,0,0,0,0,
0,0,0,0,0,0,0,0,0,0,0,0,0,0,0,0,
0,0,0,0,0,0,0,0,0,0,0,0,0,0,0,0,
0,0,0,0,0,0,0,0,0,0,0,0,0,0,0,0,
0,0,0,0,0,0,0,0,0,0,0,0,0,0,0,0,
0,0,0,0,0,0,0,0,0,0,0,0,0,0,0,0,
0,0,0,0,0,0,0,0,0,0,0,0,0,0,0,0
</chunk>
   <chunk x="-16" y="16" width="16" height="16">
688,688,688,688,688,688,688,688,688,688,688,688,688,688,688,688,
688,688,688,688,688,688,688,688,688,688,688,688,688,688,688,688,
688,688,688,688,688,688,688,688,688,688,688,688,688,688,688,688,
688,688,688,688,688,688,688,688,688,688,688,688,688,688,688,688,
0,0,0,0,0,0,0,0,0,0,0,0,0,0,0,0,
0,0,0,0,0,0,0,0,0,0,0,0,0,0,0,0,
0,0,0,0,0,0,0,0,0,0,0,0,0,0,0,0,
0,0,0,0,0,0,0,0,0,0,0,0,0,0,0,0,
0,0,0,0,0,0,0,0,0,0,0,0,0,0,0,0,
0,0,0,0,0,0,0,0,0,0,0,0,0,0,0,0,
0,0,0,0,0,0,0,0,0,0,0,0,0,0,0,0,
0,0,0,0,0,0,0,0,0,0,0,0,0,0,0,0,
0,0,0,0,0,0,0,0,0,0,0,0,0,0,0,0,
0,0,0,0,0,0,0,0,0,0,0,0,0,0,0,0,
0,0,0,0,0,0,0,0,0,0,0,0,0,0,0,0,
0,0,0,0,0,0,0,0,0,0,0,0,0,0,0,0
</chunk>
   <chunk x="0" y="16" width="16" height="16">
688,688,688,688,688,688,688,688,688,688,688,688,688,688,688,688,
688,688,688,688,688,688,688,688,688,688,688,688,688,688,688,688,
688,688,688,688,688,688,688,688,688,688,688,688,688,688,688,688,
688,688,688,688,688,688,688,688,688,688,688,688,688,688,688,688,
0,0,0,0,0,0,0,0,0,0,0,0,0,0,0,0,
0,0,0,0,0,0,0,0,0,0,0,0,0,0,0,0,
0,0,0,0,0,0,0,0,0,0,0,0,0,0,0,0,
0,0,0,0,0,0,0,0,0,0,0,0,0,0,0,0,
0,0,0,0,0,0,0,0,0,0,0,0,0,0,0,0,
0,0,0,0,0,0,0,0,0,0,0,0,0,0,0,0,
0,0,0,0,0,0,0,0,0,0,0,0,0,0,0,0,
0,0,0,0,0,0,0,0,0,0,0,0,0,0,0,0,
0,0,0,0,0,0,0,0,0,0,0,0,0,0,0,0,
0,0,0,0,0,0,0,0,0,0,0,0,0,0,0,0,
0,0,0,0,0,0,0,0,0,0,0,0,0,0,0,0,
0,0,0,0,0,0,0,0,0,0,0,0,0,0,0,0
</chunk>
   <chunk x="16" y="16" width="16" height="16">
688,688,688,688,688,688,688,688,688,688,688,688,688,688,688,688,
688,688,688,688,688,688,688,688,688,688,688,688,688,688,688,688,
688,688,688,688,688,688,688,688,688,688,688,688,688,688,688,688,
688,688,688,688,688,688,688,688,688,688,688,688,688,688,688,688,
0,0,0,0,0,0,0,0,0,0,0,0,0,0,0,0,
0,0,0,0,0,0,0,0,0,0,0,0,0,0,0,0,
0,0,0,0,0,0,0,0,0,0,0,0,0,0,0,0,
0,0,0,0,0,0,0,0,0,0,0,0,0,0,0,0,
0,0,0,0,0,0,0,0,0,0,0,0,0,0,0,0,
0,0,0,0,0,0,0,0,0,0,0,0,0,0,0,0,
0,0,0,0,0,0,0,0,0,0,0,0,0,0,0,0,
0,0,0,0,0,0,0,0,0,0,0,0,0,0,0,0,
0,0,0,0,0,0,0,0,0,0,0,0,0,0,0,0,
0,0,0,0,0,0,0,0,0,0,0,0,0,0,0,0,
0,0,0,0,0,0,0,0,0,0,0,0,0,0,0,0,
0,0,0,0,0,0,0,0,0,0,0,0,0,0,0,0
</chunk>
   <chunk x="32" y="16" width="16" height="16">
688,688,688,688,688,688,688,688,688,0,0,0,0,0,0,0,
688,688,688,688,688,688,688,688,688,0,0,0,0,0,0,0,
688,688,688,688,688,688,688,688,688,0,0,0,0,0,0,0,
688,688,688,688,688,688,688,688,688,0,0,0,0,0,0,0,
0,0,0,0,0,0,0,0,0,0,0,0,0,0,0,0,
0,0,0,0,0,0,0,0,0,0,0,0,0,0,0,0,
0,0,0,0,0,0,0,0,0,0,0,0,0,0,0,0,
0,0,0,0,0,0,0,0,0,0,0,0,0,0,0,0,
0,0,0,0,0,0,0,0,0,0,0,0,0,0,0,0,
0,0,0,0,0,0,0,0,0,0,0,0,0,0,0,0,
0,0,0,0,0,0,0,0,0,0,0,0,0,0,0,0,
0,0,0,0,0,0,0,0,0,0,0,0,0,0,0,0,
0,0,0,0,0,0,0,0,0,0,0,0,0,0,0,0,
0,0,0,0,0,0,0,0,0,0,0,0,0,0,0,0,
0,0,0,0,0,0,0,0,0,0,0,0,0,0,0,0,
0,0,0,0,0,0,0,0,0,0,0,0,0,0,0,0
</chunk>
  </data>
 </layer>
 <objectgroup id="2" name="Collision">
  <properties>
   <property name="collision" type="bool" value="true"/>
  </properties>
  <object id="1" x="-112" y="0" width="304" height="16"/>
  <object id="2" x="-112" y="-112" width="304" height="16"/>
  <object id="3" x="176" y="-96" width="16" height="96"/>
  <object id="4" x="-112" y="-96" width="16" height="96"/>
 </objectgroup>
 <objectgroup id="3" name="Node">
  <object id="5" name="door_1" type="+" x="104" y="-24">
   <point/>
  </object>
  <object id="6" type=":" x="-280" y="-232" width="640" height="360"/>
  <object id="7" name="@" x="8" y="-48" width="16" height="40">
   <properties>
    <property name="scene" value="Gardens1"/>
    <property name="target" value="door_1"/>
    <property name="trigger" type="bool" value="true"/>
   </properties>
  </object>
  <object id="8" name="door_2" type="+" x="16" y="-24">
   <point/>
  </object>
 </objectgroup>
</map>
