<?xml version="1.0" encoding="UTF-8"?>
<map version="1.10" tiledversion="1.12.1" orientation="orthogonal" renderorder="right-down" width="30" height="20" tilewidth="16" tileheight="16" infinite="1" nextlayerid="7" nextobjectid="21">
 <tileset firstgid="1" source="../Atlas.tsx"/>
 <layer id="1" name="Main" width="30" height="20">
  <data encoding="csv">
   <chunk x="-32" y="-16" width="16" height="16">
0,0,0,0,0,0,0,0,0,0,0,0,0,0,0,0,
0,0,0,0,0,0,0,0,0,0,0,0,0,0,0,0,
0,0,0,0,0,0,0,0,0,0,0,0,0,0,0,0,
0,0,0,0,0,0,0,0,0,0,0,0,0,0,0,0,
0,0,0,0,0,0,0,0,0,0,0,0,0,0,0,0,
0,0,0,0,0,0,0,0,0,0,0,0,0,0,0,0,
0,0,0,0,0,0,0,0,0,0,0,0,0,0,0,0,
0,0,0,0,0,0,0,0,0,0,0,244,244,244,244,244,
0,0,0,0,0,0,0,0,0,0,0,0,292,292,292,292,
0,0,0,0,0,0,0,0,0,0,0,0,292,292,292,292,
0,0,0,0,0,0,0,0,0,0,0,0,292,292,292,292,
0,0,0,0,0,0,0,0,0,0,0,0,292,292,292,292,
0,0,0,0,0,0,0,0,0,0,0,0,292,292,292,292,
0,0,0,0,0,0,0,0,0,0,0,0,292,292,292,292,
0,0,0,0,0,0,0,0,0,0,0,0,292,292,292,292,
0,0,0,0,0,0,0,0,0,0,0,0,292,292,292,292
</chunk>
   <chunk x="-16" y="-16" width="16" height="16">
0,0,0,0,0,0,0,0,0,0,0,0,0,0,0,0,
0,0,0,0,0,0,0,0,0,0,0,0,0,0,0,0,
0,0,0,0,0,0,0,0,0,0,0,0,0,0,0,0,
0,0,0,0,0,0,0,0,0,0,0,0,0,0,0,0,
0,0,0,0,0,0,0,0,0,0,0,0,0,0,0,0,
0,0,0,0,0,0,0,0,0,0,0,0,0,0,0,0,
0,0,0,0,0,0,0,0,0,0,0,0,0,0,0,0,
244,245,242,0,0,0,0,0,0,0,0,0,0,0,0,0,
292,293,0,0,0,0,0,0,0,0,0,0,0,0,0,0,
292,342,244,244,244,244,244,244,244,245,242,0,0,0,0,0,
292,292,292,292,292,292,292,292,292,293,0,0,0,0,0,0,
292,292,292,292,292,292,292,292,292,293,0,0,0,0,0,0,
292,292,292,292,292,292,292,292,292,293,0,0,0,0,0,0,
292,292,292,292,292,292,292,292,292,293,0,0,0,0,0,0,
292,292,292,292,292,292,292,292,292,342,244,244,244,244,244,244,
292,292,292,292,292,292,292,292,292,292,292,292,292,292,292,292
</chunk>
   <chunk x="0" y="-16" width="16" height="16">
0,0,0,0,0,0,0,0,0,0,0,0,0,0,0,0,
0,0,0,0,0,0,0,0,0,0,0,0,0,0,0,0,
0,0,0,0,0,0,0,0,0,0,0,0,0,0,0,0,
0,0,0,0,0,0,0,0,0,0,0,0,0,0,0,0,
0,0,0,0,0,0,0,0,0,0,0,0,0,0,0,0,
0,0,0,0,0,0,0,0,0,0,0,0,0,0,0,0,
0,0,0,0,0,0,0,0,0,0,0,0,0,0,0,0,
0,0,0,0,0,0,0,0,0,0,0,0,0,241,243,244,
0,0,0,0,0,0,0,0,0,0,0,0,0,0,291,292,
0,0,0,0,0,241,243,244,244,244,244,244,244,244,343,292,
0,0,0,0,0,0,291,292,292,292,292,292,292,292,292,292,
0,0,0,0,0,0,291,292,292,292,292,292,292,292,292,292,
0,0,0,0,0,0,291,292,292,292,292,292,292,292,292,292,
0,0,0,0,0,0,291,292,292,292,292,292,292,292,292,292,
244,244,244,244,244,244,343,292,292,292,292,292,292,292,292,292,
292,292,292,292,292,292,292,292,292,292,292,292,292,292,292,292
</chunk>
   <chunk x="16" y="-16" width="16" height="16">
0,0,0,0,0,0,0,0,0,0,0,0,0,0,0,0,
0,0,0,0,0,0,0,0,0,0,0,0,0,0,0,0,
0,0,0,0,0,0,0,0,0,0,0,0,0,0,0,0,
0,0,0,0,0,0,0,0,0,0,0,0,0,0,0,0,
0,0,0,0,0,0,0,0,0,0,0,0,0,0,0,0,
0,0,0,0,0,0,0,0,0,0,0,0,0,0,0,0,
0,0,0,0,0,0,0,0,0,0,0,0,0,0,0,0,
244,244,244,244,244,0,0,0,0,0,0,0,0,0,0,0,
292,292,292,292,0,0,0,0,0,0,0,0,0,0,0,0,
292,292,292,292,0,0,0,0,0,0,0,0,0,0,0,0,
292,292,292,292,0,0,0,0,0,0,0,0,0,0,0,0,
292,292,292,292,0,0,0,0,0,0,0,0,0,0,0,0,
292,292,292,292,0,0,0,0,0,0,0,0,0,0,0,0,
292,292,292,292,0,0,0,0,0,0,0,0,0,0,0,0,
292,292,292,292,0,0,0,0,0,0,0,0,0,0,0,0,
292,292,292,292,0,0,0,0,0,0,0,0,0,0,0,0
</chunk>
   <chunk x="-32" y="0" width="16" height="16">
0,0,0,0,0,0,0,0,0,0,0,0,292,292,292,292,
0,0,0,0,0,0,0,0,0,0,0,0,292,292,292,292,
0,0,0,0,0,0,0,0,0,0,0,0,292,292,292,292,
0,0,0,0,0,0,0,0,0,0,0,0,292,292,292,292,
0,0,0,0,0,0,0,0,0,0,0,0,292,292,292,292,
0,0,0,0,0,0,0,0,0,0,0,0,292,292,292,292,
0,0,0,0,0,0,0,0,0,0,0,0,292,292,292,292,
0,0,0,0,0,0,0,0,0,0,0,0,292,292,292,292,
0,0,0,0,0,0,0,0,0,0,0,0,292,292,292,292,
0,0,0,0,0,0,0,0,0,0,0,0,292,292,292,292,
0,0,0,0,0,0,0,0,0,0,0,0,292,292,292,292,
0,0,0,0,0,0,0,0,0,0,0,0,292,292,292,292,
0,0,0,0,0,0,0,0,0,0,0,0,292,292,292,292,
0,0,0,0,0,0,0,0,0,0,0,0,292,292,292,292,
0,0,0,0,0,0,0,0,0,0,0,0,292,292,292,292,
0,0,0,0,0,0,0,0,0,0,0,0,292,292,292,292
</chunk>
   <chunk x="-16" y="0" width="16" height="16">
292,292,292,292,292,292,292,292,292,292,292,292,292,292,292,292,
292,292,292,292,292,292,292,292,292,292,292,292,292,292,292,292,
292,292,292,292,292,292,292,292,292,292,292,292,292,292,292,292,
292,292,292,292,292,292,292,292,292,292,292,292,292,292,292,292,
292,292,292,292,292,292,292,292,292,292,292,292,292,292,292,292,
292,292,292,292,292,292,292,292,292,292,292,292,292,292,292,292,
292,292,292,292,292,292,292,292,292,292,292,292,292,292,292,292,
292,292,292,292,292,292,292,292,292,292,292,292,292,292,292,292,
292,292,292,292,292,292,292,292,292,292,292,292,292,292,292,292,
292,292,292,292,292,292,292,292,292,292,292,292,292,292,292,292,
292,292,292,292,292,292,292,292,292,292,292,292,292,292,292,292,
292,292,292,292,292,292,292,292,292,292,292,292,292,292,292,292,
292,292,292,292,292,292,292,292,292,292,292,292,292,292,292,292,
292,292,292,292,292,292,292,292,292,292,292,292,292,292,292,292,
292,292,292,292,292,292,292,292,292,292,292,292,292,292,292,292,
292,292,292,292,292,292,292,292,292,292,292,292,292,292,292,292
</chunk>
   <chunk x="0" y="0" width="16" height="16">
292,292,292,292,292,292,292,292,292,292,292,292,292,292,292,292,
292,292,292,292,292,292,292,292,292,292,292,292,292,292,292,292,
292,292,292,292,292,292,292,292,292,292,292,292,292,292,292,292,
292,292,292,292,292,292,292,292,292,292,292,292,292,292,292,292,
292,292,292,292,292,292,292,292,292,292,292,292,292,292,292,292,
292,292,292,292,292,292,292,292,292,292,292,292,292,292,292,292,
292,292,292,292,292,292,292,292,292,292,292,292,292,292,292,292,
292,292,292,292,292,292,292,292,292,292,292,292,292,292,292,292,
292,292,292,292,292,292,292,292,292,292,292,292,292,292,292,292,
292,292,292,292,292,292,292,292,292,292,292,292,292,292,292,292,
292,292,292,292,292,292,292,292,292,292,292,292,292,292,292,292,
292,292,292,292,292,292,292,292,292,292,292,292,292,292,292,292,
292,292,292,292,292,292,292,292,292,292,292,292,292,292,292,292,
292,292,292,292,292,292,292,292,292,292,292,292,292,292,292,292,
292,292,292,292,292,292,292,292,292,292,292,292,292,292,292,292,
292,292,292,292,292,292,292,292,292,292,292,292,292,292,292,292
</chunk>
   <chunk x="16" y="0" width="16" height="16">
292,292,292,292,0,0,0,0,0,0,0,0,0,0,0,0,
292,292,292,292,0,0,0,0,0,0,0,0,0,0,0,0,
292,292,292,292,0,0,0,0,0,0,0,0,0,0,0,0,
292,292,292,292,0,0,0,0,0,0,0,0,0,0,0,0,
292,292,292,292,0,0,0,0,0,0,0,0,0,0,0,0,
292,292,292,292,0,0,0,0,0,0,0,0,0,0,0,0,
292,292,292,292,0,0,0,0,0,0,0,0,0,0,0,0,
292,292,292,292,0,0,0,0,0,0,0,0,0,0,0,0,
292,292,292,292,0,0,0,0,0,0,0,0,0,0,0,0,
292,292,292,292,0,0,0,0,0,0,0,0,0,0,0,0,
292,292,292,292,0,0,0,0,0,0,0,0,0,0,0,0,
292,292,292,292,0,0,0,0,0,0,0,0,0,0,0,0,
292,292,292,292,0,0,0,0,0,0,0,0,0,0,0,0,
292,292,292,292,0,0,0,0,0,0,0,0,0,0,0,0,
292,292,292,292,0,0,0,0,0,0,0,0,0,0,0,0,
292,292,292,292,0,0,0,0,0,0,0,0,0,0,0,0
</chunk>
   <chunk x="-32" y="16" width="16" height="16">
0,0,0,0,0,0,0,0,0,0,0,0,292,292,292,292,
0,0,0,0,0,0,0,0,0,0,0,0,292,292,292,292,
0,0,0,0,0,0,0,0,0,0,0,0,292,292,292,292,
0,0,0,0,0,0,0,0,0,0,0,0,292,292,292,292,
0,0,0,0,0,0,0,0,0,0,0,0,292,292,292,292,
0,0,0,0,0,0,0,0,0,0,0,0,292,292,292,292,
0,0,0,0,0,0,0,0,0,0,0,0,292,292,292,292,
0,0,0,0,0,0,0,0,0,0,0,0,292,292,292,292,
0,0,0,0,0,0,0,0,0,0,0,0,292,292,292,292,
0,0,0,0,0,0,0,0,0,0,0,0,292,292,292,292,
0,0,0,0,0,0,0,0,0,0,0,0,292,292,292,292,
0,0,0,0,0,0,0,0,0,0,0,0,292,292,292,292,
0,0,0,0,0,0,0,0,0,0,0,0,0,0,0,0,
0,0,0,0,0,0,0,0,0,0,0,0,0,0,0,0,
0,0,0,0,0,0,0,0,0,0,0,0,0,0,0,0,
0,0,0,0,0,0,0,0,0,0,0,0,0,0,0,0
</chunk>
   <chunk x="-16" y="16" width="16" height="16">
292,292,292,292,292,292,292,292,292,292,292,292,292,292,292,292,
292,292,292,292,292,292,292,292,292,292,292,292,292,292,292,292,
292,292,292,292,292,292,292,292,292,292,292,292,292,292,292,292,
292,292,292,292,292,292,292,292,292,292,292,292,292,292,292,292,
292,292,292,292,292,292,292,292,292,292,292,292,292,292,292,292,
292,292,292,292,292,292,292,292,292,292,292,292,292,292,292,292,
292,292,292,292,292,292,292,292,292,292,292,292,292,292,292,292,
292,292,292,292,292,292,292,292,292,292,292,292,292,292,292,292,
292,292,292,292,292,292,292,292,292,292,292,292,292,292,292,292,
292,292,292,292,292,292,292,292,292,292,292,292,292,292,292,292,
292,292,292,292,292,292,292,292,292,292,292,292,292,292,292,292,
292,292,292,292,292,292,292,292,292,292,292,292,292,292,292,292,
0,0,0,0,0,0,0,0,0,0,0,0,0,0,0,0,
0,0,0,0,0,0,0,0,0,0,0,0,0,0,0,0,
0,0,0,0,0,0,0,0,0,0,0,0,0,0,0,0,
0,0,0,0,0,0,0,0,0,0,0,0,0,0,0,0
</chunk>
   <chunk x="0" y="16" width="16" height="16">
292,292,292,292,292,292,292,292,292,292,292,292,292,292,292,292,
292,292,292,292,292,292,292,292,292,292,292,292,292,292,292,292,
292,292,292,292,292,292,292,292,292,292,292,292,292,292,292,292,
292,292,292,292,292,292,292,292,292,292,292,292,292,292,292,292,
292,292,292,292,292,292,292,292,292,292,292,292,292,292,292,292,
292,292,292,292,292,292,292,292,292,292,292,292,292,292,292,292,
292,292,292,292,292,292,292,292,292,292,292,292,292,292,292,292,
292,292,292,292,292,292,292,292,292,292,292,292,292,292,292,292,
292,292,292,292,292,292,292,292,292,292,292,292,292,292,292,292,
292,292,292,292,292,292,292,292,292,292,292,292,292,292,292,292,
292,292,292,292,292,292,292,292,292,292,292,292,292,292,292,292,
292,292,292,292,292,292,292,292,292,292,292,292,292,292,292,292,
0,0,0,0,0,0,0,0,0,0,0,0,0,0,0,0,
0,0,0,0,0,0,0,0,0,0,0,0,0,0,0,0,
0,0,0,0,0,0,0,0,0,0,0,0,0,0,0,0,
0,0,0,0,0,0,0,0,0,0,0,0,0,0,0,0
</chunk>
   <chunk x="16" y="16" width="16" height="16">
292,292,292,292,0,0,0,0,0,0,0,0,0,0,0,0,
292,292,292,292,0,0,0,0,0,0,0,0,0,0,0,0,
292,292,292,292,0,0,0,0,0,0,0,0,0,0,0,0,
292,292,292,292,0,0,0,0,0,0,0,0,0,0,0,0,
292,292,292,292,0,0,0,0,0,0,0,0,0,0,0,0,
292,292,292,292,0,0,0,0,0,0,0,0,0,0,0,0,
292,292,292,292,0,0,0,0,0,0,0,0,0,0,0,0,
292,292,292,292,0,0,0,0,0,0,0,0,0,0,0,0,
292,292,292,292,0,0,0,0,0,0,0,0,0,0,0,0,
292,292,292,292,0,0,0,0,0,0,0,0,0,0,0,0,
292,292,292,292,0,0,0,0,0,0,0,0,0,0,0,0,
292,292,292,292,0,0,0,0,0,0,0,0,0,0,0,0,
0,0,0,0,0,0,0,0,0,0,0,0,0,0,0,0,
0,0,0,0,0,0,0,0,0,0,0,0,0,0,0,0,
0,0,0,0,0,0,0,0,0,0,0,0,0,0,0,0,
0,0,0,0,0,0,0,0,0,0,0,0,0,0,0,0
</chunk>
  </data>
 </layer>
 <layer id="4" name="Shrubbery" width="30" height="20">
  <data encoding="csv">
   <chunk x="-32" y="-16" width="16" height="16">
0,0,0,0,0,0,0,0,0,0,0,0,0,0,0,0,
0,0,0,0,0,0,0,0,0,0,0,0,0,0,0,0,
0,0,0,0,0,0,0,0,0,0,0,0,0,0,0,0,
0,0,0,0,0,0,0,0,0,0,0,0,0,0,0,0,
0,0,0,0,0,0,0,0,0,0,0,0,0,0,0,0,
0,0,0,0,0,0,0,0,0,0,0,0,0,0,0,0,
0,0,0,0,0,0,0,0,0,0,0,0,150,148,150,0,
0,0,0,0,0,0,0,0,0,0,0,0,0,0,0,0,
0,0,0,0,0,0,0,0,0,0,0,0,0,0,0,0,
0,0,0,0,0,0,0,0,0,0,0,0,0,0,0,0,
0,0,0,0,0,0,0,0,0,0,0,0,0,0,0,0,
0,0,0,0,0,0,0,0,0,0,0,0,0,0,0,0,
0,0,0,0,0,0,0,0,0,0,0,0,0,0,0,0,
0,0,0,0,0,0,0,0,0,0,0,0,0,0,0,0,
0,0,0,0,0,0,0,0,0,0,0,0,0,0,0,0,
0,0,0,0,0,0,0,0,0,0,0,0,0,0,0,0
</chunk>
   <chunk x="-16" y="-16" width="16" height="16">
0,0,0,0,0,0,0,0,0,0,0,0,0,0,0,0,
0,0,0,0,0,0,0,0,0,0,0,0,0,0,0,0,
0,0,0,0,0,0,0,0,0,0,0,0,0,0,0,0,
0,0,0,0,0,0,0,0,0,0,0,0,0,0,0,0,
0,0,0,0,0,0,0,0,0,0,0,0,0,0,0,0,
0,0,0,0,0,0,0,0,0,0,0,0,0,0,0,0,
148,149,0,0,0,0,0,0,0,0,0,0,0,0,0,0,
0,0,0,0,0,0,0,0,0,0,0,0,0,0,0,0,
0,0,150,148,150,148,150,148,150,149,0,0,0,0,0,0,
0,0,0,0,0,0,0,0,0,0,0,0,0,0,0,0,
0,0,0,0,0,0,0,0,0,0,0,0,0,0,0,0,
0,0,0,0,0,0,0,0,0,0,0,0,0,0,0,0,
0,0,0,0,0,0,0,0,0,0,0,0,0,0,0,0,
0,0,0,0,0,0,0,0,0,0,150,148,150,0,148,149,
0,0,0,0,0,0,0,0,0,0,0,0,0,0,0,0,
0,0,0,0,0,0,0,0,0,0,0,0,0,0,0,0
</chunk>
   <chunk x="0" y="-16" width="16" height="16">
0,0,0,0,0,0,0,0,0,0,0,0,0,0,0,0,
0,0,0,0,0,0,0,0,0,0,0,0,0,0,0,0,
0,0,0,0,0,0,0,0,0,0,0,0,0,0,0,0,
0,0,0,0,0,0,0,0,0,0,0,0,0,0,0,0,
0,0,0,0,0,0,0,0,0,0,0,0,0,0,0,0,
0,0,0,0,0,0,0,0,0,0,0,0,0,0,0,0,
0,0,0,0,0,0,0,0,0,0,0,0,0,0,152,150,
0,0,0,0,0,0,0,0,0,0,0,0,0,0,0,0,
0,0,0,0,0,0,150,148,149,150,0,150,151,150,0,0,
0,0,0,0,0,0,0,0,0,0,0,0,0,0,0,0,
0,0,0,0,0,0,0,0,0,0,0,0,0,0,0,0,
0,0,0,0,0,0,0,0,0,0,0,0,0,0,0,0,
0,0,0,0,0,0,0,0,0,0,0,0,0,0,0,0,
148,150,150,0,150,150,0,0,0,0,0,0,0,0,0,0,
0,0,0,0,0,0,0,0,0,0,0,0,0,0,0,0,
0,0,0,0,0,0,0,0,0,0,0,0,0,0,0,0
</chunk>
   <chunk x="16" y="-16" width="16" height="16">
0,0,0,0,0,0,0,0,0,0,0,0,0,0,0,0,
0,0,0,0,0,0,0,0,0,0,0,0,0,0,0,0,
0,0,0,0,0,0,0,0,0,0,0,0,0,0,0,0,
0,0,0,0,0,0,0,0,0,0,0,0,0,0,0,0,
0,0,0,0,0,0,0,0,0,0,0,0,0,0,0,0,
0,0,0,0,0,0,0,0,0,0,0,0,0,0,0,0,
148,0,148,150,0,0,0,0,0,0,0,0,0,0,0,0,
0,0,0,0,0,0,0,0,0,0,0,0,0,0,0,0,
0,0,0,0,0,0,0,0,0,0,0,0,0,0,0,0,
0,0,0,0,0,0,0,0,0,0,0,0,0,0,0,0,
0,0,0,0,0,0,0,0,0,0,0,0,0,0,0,0,
0,0,0,0,0,0,0,0,0,0,0,0,0,0,0,0,
0,0,0,0,0,0,0,0,0,0,0,0,0,0,0,0,
0,0,0,0,0,0,0,0,0,0,0,0,0,0,0,0,
0,0,0,0,0,0,0,0,0,0,0,0,0,0,0,0,
0,0,0,0,0,0,0,0,0,0,0,0,0,0,0,0
</chunk>
  </data>
 </layer>
 <layer id="3" name="Trees" width="30" height="20">
  <properties>
   <property name="layer" type="int" value="0"/>
  </properties>
  <data encoding="csv">
   <chunk x="-32" y="-32" width="16" height="16">
0,0,0,0,0,0,0,0,0,0,0,0,0,0,0,0,
0,0,0,0,0,0,0,0,0,0,0,0,0,0,0,0,
0,0,0,0,0,0,0,0,0,0,0,0,0,0,0,0,
0,0,0,0,0,0,0,0,0,0,0,0,0,0,0,0,
0,0,0,0,0,0,0,0,0,0,0,0,0,0,0,0,
0,0,0,0,0,0,0,0,0,0,0,0,0,0,0,0,
0,0,0,0,0,0,0,0,0,0,0,0,0,0,0,0,
0,0,0,0,0,0,0,0,0,0,0,0,0,0,0,0,
0,0,0,0,0,0,0,0,0,0,0,0,0,0,0,0,
0,0,0,0,0,0,0,0,0,0,0,0,0,0,0,0,
0,0,0,0,0,0,0,0,0,0,0,0,0,0,0,0,
0,0,0,0,0,0,0,0,0,0,0,0,0,0,0,0,
0,0,0,0,0,0,0,0,0,0,0,0,0,0,0,0,
0,0,0,0,0,0,0,0,0,0,0,0,0,0,0,0,
0,0,0,0,0,0,0,0,0,0,0,0,0,0,0,0,
0,0,0,0,0,0,0,0,0,0,0,0,9,10,11,12
</chunk>
   <chunk x="-16" y="-32" width="16" height="16">
0,0,0,0,0,0,0,0,0,0,0,0,0,0,0,0,
0,0,0,0,0,0,0,0,0,0,0,0,0,0,0,0,
0,0,0,0,0,0,0,0,0,0,0,0,0,0,0,0,
0,0,0,0,0,0,0,0,0,0,0,0,0,0,0,0,
0,0,0,0,0,0,0,0,0,0,0,0,0,0,0,0,
0,0,0,0,0,0,0,0,0,0,0,0,0,0,0,0,
0,0,0,0,0,0,0,0,0,0,0,0,0,0,0,0,
0,0,0,0,0,0,0,0,0,0,0,0,0,0,0,0,
0,0,0,0,0,0,0,0,0,0,0,0,0,0,0,0,
0,0,0,0,0,0,0,0,0,0,0,0,0,0,0,0,
0,0,0,0,0,0,0,0,0,0,0,0,0,0,0,0,
0,0,0,0,0,0,0,0,0,0,0,0,0,0,0,0,
0,0,0,0,0,0,0,0,0,0,0,0,0,0,0,0,
0,0,0,0,0,0,0,0,0,0,0,0,0,0,0,0,
0,0,0,0,0,0,0,0,0,0,0,0,0,0,0,0,
13,0,0,0,0,0,0,0,0,0,0,0,0,0,0,0
</chunk>
   <chunk x="0" y="-32" width="16" height="16">
0,0,0,0,0,0,0,0,0,0,0,0,0,0,0,0,
0,0,0,0,0,0,0,0,0,0,0,0,0,0,0,0,
0,0,0,0,0,0,0,0,0,0,0,0,0,0,0,0,
0,0,0,0,0,0,0,0,0,0,0,0,0,0,0,0,
0,0,0,0,0,0,0,0,0,0,0,0,0,0,0,0,
0,0,0,0,0,0,0,0,0,0,0,0,0,0,0,0,
0,0,0,0,0,0,0,0,0,0,0,0,0,0,0,0,
0,0,0,0,0,0,0,0,0,0,0,0,0,0,0,0,
0,0,0,0,0,0,0,0,0,0,0,0,0,0,0,0,
0,0,0,0,0,0,0,0,0,0,0,0,0,0,0,0,
0,0,0,0,0,0,0,0,0,0,0,0,0,0,0,0,
0,0,0,0,0,0,0,0,0,0,0,0,0,0,0,0,
0,0,0,0,0,0,0,0,0,0,0,0,0,0,0,0,
0,0,0,0,0,0,0,0,0,0,0,0,0,0,0,0,
0,0,0,0,0,0,0,0,0,0,0,0,0,0,0,0,
0,0,0,0,0,0,0,0,0,0,0,0,0,0,9,10
</chunk>
   <chunk x="16" y="-32" width="16" height="16">
0,0,0,0,0,0,0,0,0,0,0,0,0,0,0,0,
0,0,0,0,0,0,0,0,0,0,0,0,0,0,0,0,
0,0,0,0,0,0,0,0,0,0,0,0,0,0,0,0,
0,0,0,0,0,0,0,0,0,0,0,0,0,0,0,0,
0,0,0,0,0,0,0,0,0,0,0,0,0,0,0,0,
0,0,0,0,0,0,0,0,0,0,0,0,0,0,0,0,
0,0,0,0,0,0,0,0,0,0,0,0,0,0,0,0,
0,0,0,0,0,0,0,0,0,0,0,0,0,0,0,0,
0,0,0,0,0,0,0,0,0,0,0,0,0,0,0,0,
0,0,0,0,0,0,0,0,0,0,0,0,0,0,0,0,
0,0,0,0,0,0,0,0,0,0,0,0,0,0,0,0,
0,0,0,0,0,0,0,0,0,0,0,0,0,0,0,0,
0,0,0,0,0,0,0,0,0,0,0,0,0,0,0,0,
0,0,0,0,0,0,0,0,0,0,0,0,0,0,0,0,
0,0,0,0,0,0,0,0,0,0,0,0,0,0,0,0,
11,12,13,0,0,0,0,0,0,0,0,0,0,0,0,0
</chunk>
   <chunk x="-32" y="-16" width="16" height="16">
0,0,0,0,0,0,0,0,0,0,0,0,57,58,59,60,
0,0,0,0,0,0,0,0,0,0,0,0,105,106,107,108,
0,0,0,0,0,0,0,0,0,0,0,0,153,154,155,156,
0,0,0,0,0,0,0,0,0,0,0,0,201,202,203,204,
0,0,0,0,0,0,0,0,0,0,0,0,249,250,251,252,
0,0,0,0,0,0,0,0,0,0,0,0,297,298,299,300,
0,0,0,0,0,0,0,0,0,0,0,0,345,346,347,348,
0,0,0,0,0,0,0,0,0,0,0,0,0,0,0,0,
0,0,0,0,0,0,0,0,0,0,0,0,0,0,0,0,
0,0,0,0,0,0,0,0,0,0,0,0,0,0,0,0,
0,0,0,0,0,0,0,0,0,0,0,0,0,0,0,0,
0,0,0,0,0,0,0,0,0,0,0,0,0,0,0,0,
0,0,0,0,0,0,0,0,0,0,0,0,0,0,0,0,
0,0,0,0,0,0,0,0,0,0,0,0,0,0,0,0,
0,0,0,0,0,0,0,0,0,0,0,0,0,0,0,0,
0,0,0,0,0,0,0,0,0,0,0,0,0,0,0,0
</chunk>
   <chunk x="-16" y="-16" width="16" height="16">
61,0,0,0,0,0,0,0,0,0,0,0,0,0,0,0,
109,0,0,0,0,0,0,0,0,0,0,0,0,0,0,0,
157,0,0,0,58,0,0,0,62,0,0,0,0,0,0,0,
205,206,0,0,0,0,0,0,110,0,0,0,0,0,0,0,
253,254,0,0,0,0,0,0,158,0,0,0,0,0,0,0,
301,302,0,0,0,0,0,0,0,0,0,0,0,0,0,0,
349,0,0,0,0,0,0,0,0,0,0,10,11,12,13,14,
0,0,0,0,0,0,0,0,0,0,0,58,59,60,61,62,
0,0,0,0,0,0,0,0,0,0,0,106,107,108,109,110,
0,0,0,0,0,0,0,0,0,0,0,154,155,156,157,158,
0,0,0,0,0,0,0,0,0,0,0,202,203,204,205,206,
0,0,0,0,0,0,0,0,0,0,0,250,251,252,253,254,
0,0,0,0,0,0,0,0,0,0,0,298,299,300,301,302,
0,0,0,0,0,0,0,0,0,0,0,0,347,348,0,0,
0,0,0,0,0,0,0,0,0,0,0,0,0,0,0,0,
0,0,0,0,0,0,0,0,0,0,0,0,0,0,0,0
</chunk>
   <chunk x="0" y="-16" width="16" height="16">
0,0,0,0,0,0,0,0,0,0,0,0,0,0,57,58,
0,0,0,0,0,0,0,0,10,11,12,13,0,0,105,106,
0,0,0,0,0,0,0,0,58,59,60,61,0,0,153,154,
0,0,0,0,0,0,0,0,106,107,108,109,0,0,201,202,
0,0,0,0,0,0,0,0,154,155,156,157,0,0,249,250,
0,0,0,0,0,0,0,0,202,203,204,205,206,0,297,298,
0,10,11,12,13,14,0,0,250,251,252,253,254,0,345,346,
0,58,59,60,61,62,0,0,298,299,300,301,302,0,0,0,
0,106,107,108,109,110,0,0,346,347,348,349,0,0,0,0,
0,154,155,156,157,158,0,0,0,0,0,0,0,0,0,0,
0,202,203,204,205,206,0,0,0,0,0,0,0,0,0,0,
0,250,251,252,253,254,0,0,0,0,0,0,0,0,0,0,
0,298,299,300,301,302,0,0,0,0,0,0,0,0,0,0,
0,0,347,348,0,0,0,0,0,0,0,0,0,0,0,0,
0,0,0,0,0,0,0,0,0,0,0,0,0,0,0,0,
0,0,0,0,0,0,0,0,0,0,0,0,0,0,0,0
</chunk>
   <chunk x="16" y="-16" width="16" height="16">
59,60,61,0,0,0,0,0,0,0,0,0,0,0,0,0,
107,108,109,0,0,0,0,0,0,0,0,0,0,0,0,0,
155,156,157,0,0,0,0,0,0,0,0,0,0,0,0,0,
203,204,205,206,0,0,0,0,0,0,0,0,0,0,0,0,
251,252,253,254,0,0,0,0,0,0,0,0,0,0,0,0,
299,300,301,302,0,0,0,0,0,0,0,0,0,0,0,0,
347,348,349,0,0,0,0,0,0,0,0,0,0,0,0,0,
0,0,0,0,0,0,0,0,0,0,0,0,0,0,0,0,
0,0,0,0,0,0,0,0,0,0,0,0,0,0,0,0,
0,0,0,0,0,0,0,0,0,0,0,0,0,0,0,0,
0,0,0,0,0,0,0,0,0,0,0,0,0,0,0,0,
0,0,0,0,0,0,0,0,0,0,0,0,0,0,0,0,
0,0,0,0,0,0,0,0,0,0,0,0,0,0,0,0,
0,0,0,0,0,0,0,0,0,0,0,0,0,0,0,0,
0,0,0,0,0,0,0,0,0,0,0,0,0,0,0,0,
0,0,0,0,0,0,0,0,0,0,0,0,0,0,0,0
</chunk>
  </data>
 </layer>
 <objectgroup id="5" name="Node">
  <object id="14" type=":" x="-320" y="-360" width="640" height="360"/>
  <object id="19" name="door_1" type="+" x="-296" y="-160">
   <point/>
  </object>
  <object id="20" name="door_2" type="+" x="296" y="-160">
   <point/>
  </object>
 </objectgroup>
 <objectgroup id="6" name="Collision">
  <properties>
   <property name="collision" type="bool" value="true"/>
  </properties>
  <object id="1" x="-240" y="-112" width="144" height="16"/>
  <object id="2" x="-112" y="-96" width="16" height="64"/>
  <object id="3" x="-112" y="-32" width="224" height="12"/>
  <object id="4" x="96" y="-112" width="16" height="80"/>
  <object id="6" x="112" y="-112" width="128" height="16"/>
  <object id="10" x="352" y="-384" width="16" height="256"/>
  <object id="11" x="-352" y="-384" width="704" height="16"/>
  <object id="12" x="-368" y="-384" width="16" height="256"/>
  <object id="15" x="-240" y="-144" width="16" height="32"/>
  <object id="16" x="-352" y="-144" width="112" height="16"/>
  <object id="17" x="224" y="-144" width="16" height="32"/>
  <object id="18" x="240" y="-144" width="112" height="16"/>
 </objectgroup>
</map>
