<?xml version="1.0" encoding="UTF-8"?>
<map version="1.10" tiledversion="1.12.1" orientation="orthogonal" renderorder="right-down" width="30" height="20" tilewidth="16" tileheight="16" infinite="1" nextlayerid="9" nextobjectid="142">
 <tileset firstgid="1" source="../Atlas.tsx"/>
 <layer id="1" name="Main" width="30" height="20">
  <properties>
   <property name="layer" type="int" value="1"/>
  </properties>
  <data encoding="csv">
   <chunk x="-48" y="-32" width="16" height="16">
0,0,0,0,0,0,0,0,0,1064,1064,1064,1064,1064,1064,1064,
0,0,0,0,0,0,0,0,0,1064,1064,1064,1064,1064,1064,1064,
0,0,0,0,0,0,0,0,0,1064,1064,1064,1064,1064,1064,1064,
0,0,0,0,0,0,0,0,0,1064,1064,1064,1064,1064,1064,1064,
0,0,0,0,0,0,0,0,0,1064,1064,1064,1064,1064,1064,1064,
0,0,0,0,0,0,0,0,0,1064,1064,1064,1064,1064,1064,1064,
0,0,0,0,0,0,0,0,0,1064,1064,1064,1064,1064,1064,1064,
0,0,0,0,0,0,0,0,0,1064,1064,1064,1064,1064,1064,1064,
0,0,0,0,0,0,0,0,0,1064,1064,1064,1064,1064,1064,1064,
0,0,0,0,0,0,0,0,0,1064,1064,1064,1064,1064,1064,1064,
0,0,0,0,0,0,0,0,0,1064,1064,1064,1064,1064,1064,1064,
0,0,0,0,0,0,0,0,0,1064,1064,1064,1064,1064,1064,1064,
0,0,0,0,0,0,0,0,0,1064,1064,1064,1064,1064,1064,1064,
0,0,0,0,0,0,0,0,0,1064,1064,1064,1064,1064,1064,1064,
0,0,0,0,0,0,0,0,0,1064,1064,1064,1064,1064,1064,1064,
0,0,0,0,0,0,0,0,0,1064,1064,1064,1064,1064,1064,1064
</chunk>
   <chunk x="-32" y="-32" width="16" height="16">
1064,1064,1064,1064,1064,1064,1064,1064,1064,1064,1064,1064,1064,1064,1064,1064,
1064,1064,1064,1064,1064,1064,1064,1064,1064,1064,1064,1064,1064,1064,1064,1064,
1064,1064,1064,1064,1064,1064,1064,1064,1064,1064,1064,1064,1064,1064,1064,1064,
1064,1064,1064,1064,1064,1064,1064,1064,1064,1064,1064,1064,1064,1064,1064,1064,
1064,1064,1064,1064,1064,1064,1064,1064,1064,1064,1064,1064,1064,1064,1064,1064,
1064,1064,1064,1064,1064,1064,1064,1064,1064,1064,1064,1064,1064,1064,1064,1064,
1064,1064,1064,1064,1064,1064,1064,1064,1064,1064,1064,1064,1064,1064,1064,1064,
1064,1064,1064,1064,1064,1064,1064,1064,1064,1064,1064,1064,1064,1064,1064,1064,
1064,1064,1064,1064,1064,1064,1064,1064,1064,1064,1064,1064,1064,1064,1064,1064,
1064,1064,1064,1064,1064,1064,1064,1064,1064,1064,1064,1064,1064,1064,1064,1064,
1064,1064,1064,1064,1064,1064,1064,1064,1064,1064,1064,1064,1064,1064,1064,1064,
1064,1064,1064,1064,1064,1064,1064,1064,1064,1064,1064,1064,1064,1064,1064,1064,
1064,1064,1064,1064,1064,1064,1064,1064,1064,1064,1064,1064,1064,1064,1064,1064,
1064,1064,1064,1064,1064,1064,1064,1064,1064,1064,1064,1064,1064,1064,1064,1064,
1064,1064,1064,1064,1064,1064,1064,1064,1064,1064,1064,1064,1064,1064,1064,1064,
1064,1064,1064,1064,1064,1064,1064,1064,1064,1064,1064,1064,1064,1064,1064,1064
</chunk>
   <chunk x="-16" y="-32" width="16" height="16">
1064,1064,1064,1064,1064,1064,1064,1064,1064,1064,1064,1064,1064,1064,1064,1064,
1064,1064,1064,1064,1064,1064,1064,1064,1064,1064,1064,1064,1064,1064,1064,1064,
1064,1064,1064,1064,1064,1064,1064,1064,1064,1064,1064,1064,1064,1064,1064,1064,
1064,1064,1064,1064,1064,1064,1064,1064,1064,1064,1064,1064,1064,1064,1064,1064,
1064,1064,1064,1064,1064,1064,1064,1064,1064,1064,1064,1064,1064,1064,1064,1064,
1064,1064,1064,1064,1064,1064,1064,1064,1064,1064,1064,1064,1064,1064,1064,1064,
1064,1064,1064,1064,1064,1064,1064,1064,1064,1064,1064,1064,1064,1064,1064,1064,
1064,1064,1064,1064,1064,1064,1064,1064,1064,1064,1064,1064,1064,1064,1064,1064,
1064,1064,1064,1064,1064,1064,1064,1064,1064,1064,1064,1067,1112,1113,0,0,
1064,1064,1064,1064,1064,1064,1064,1064,1064,1064,1064,1064,1065,0,0,0,
1064,1064,1064,1064,1064,1064,1064,1064,1064,1064,1064,1064,1065,0,0,0,
1064,1064,1064,1064,1064,1064,1064,1064,1064,1064,1067,1112,1113,0,0,0,
1064,1064,1064,1064,1064,1064,1064,1064,1064,1064,1064,1065,0,0,0,0,
1064,1064,1064,1064,1064,1064,1064,1064,1064,1067,1112,1113,0,0,0,0,
1064,1064,1064,1064,1064,1064,1064,1064,1064,1064,1065,0,0,0,0,0,
1064,1064,1064,1064,1064,1064,1064,1064,1067,1112,1113,0,0,0,0,0
</chunk>
   <chunk x="0" y="-32" width="16" height="16">
1064,1064,1064,1064,1064,1064,1064,1064,1064,1064,1064,1064,1064,1064,1064,1064,
1064,1064,1064,1064,1064,1064,1064,1064,1064,1064,1064,1064,1064,1064,1064,1064,
1064,1064,1064,1064,1064,1064,1064,1064,1064,1064,1064,1064,1064,1064,1064,1064,
1064,1064,1064,1064,1064,1064,1064,1064,1064,1064,1064,1064,1064,1064,1064,1064,
1064,1064,1064,1064,1064,1064,1064,1064,1064,1064,1064,1064,1064,1064,1064,1064,
1064,1064,1064,1064,1064,1064,1064,1064,1064,1064,1064,1064,1064,1064,1064,1064,
1064,1064,1064,1064,1064,1064,1064,1064,1064,1064,1064,1064,1064,1064,1064,1064,
1064,1064,1064,1064,1064,1064,1064,1064,1064,1064,1064,1064,1064,1064,1064,1064,
0,0,0,1111,1112,1068,1064,1064,1064,1064,1064,1064,1064,1064,1064,1064,
0,0,0,0,1063,1064,1064,1064,1064,1064,1064,1064,1064,1064,1064,1064,
0,0,0,0,1063,1064,1064,1064,1064,1064,1064,1064,1064,1064,1064,1064,
0,0,0,0,1111,1112,1068,1064,1064,1064,1064,1064,1064,1064,1064,1064,
0,0,0,0,0,1063,1064,1064,1064,1064,1064,1064,1064,1064,1064,1064,
0,0,0,0,0,1111,1112,1068,1064,1064,1064,1064,1064,1064,1064,1064,
0,0,0,0,0,0,1063,1064,1064,1064,1064,1064,1064,1064,1064,1064,
0,0,0,0,0,0,1111,1112,1068,1064,1064,1064,1064,1064,1064,1064
</chunk>
   <chunk x="16" y="-32" width="16" height="16">
1064,1064,1064,1064,1064,1064,1064,1064,1064,1064,1064,1064,1064,1064,1064,1064,
1064,1064,1064,1064,1064,1064,1064,1064,1064,1064,1064,1064,1064,1064,1064,1064,
1064,1064,1064,1064,1064,1064,1064,1064,1064,1064,1064,1064,1064,1064,1064,1064,
1064,1064,1064,1064,1064,1064,1064,1064,1064,1064,1064,1064,1064,1064,1064,1064,
1064,1064,1064,1064,1064,1064,1064,1064,1064,1064,1064,1064,1064,1064,1064,1064,
1064,1064,1064,1064,1064,1064,1064,1064,1064,1064,1064,1064,1064,1064,1064,1064,
1064,1064,1064,1064,1064,1064,1064,1064,1064,1064,1064,1064,1064,1064,1064,1064,
1064,1064,1064,1064,1064,1064,1064,1064,1064,1064,1064,1064,1064,1064,1064,1064,
1064,1064,1064,1064,1064,1064,1064,1064,1064,1064,1064,1064,1064,1064,1064,1064,
1064,1064,1064,1064,1064,1064,1064,1064,1064,1064,1064,1064,1064,1064,1064,1064,
1064,1064,1064,1064,1064,1064,1064,1064,1064,1064,1064,1064,1064,1064,1064,1064,
1064,1064,1064,1064,1064,1064,1064,1064,1064,1064,1064,1064,1064,1064,1064,1064,
1064,1064,1064,1064,1064,1064,1064,1064,1064,1064,1064,1064,1064,1064,1064,1064,
1064,1064,1064,1064,1064,1064,1064,1064,1064,1064,1064,1064,1064,1064,1064,1064,
1064,1064,1064,1064,1064,1064,1064,1064,1064,1064,1064,1064,1064,1064,1064,1064,
1064,1064,1064,1064,1064,1064,1064,1064,1064,1064,1064,1064,1064,1064,1064,1064
</chunk>
   <chunk x="32" y="-32" width="16" height="16">
1064,1064,1064,1064,1064,1064,0,0,0,0,0,0,0,0,0,0,
1064,1064,1064,1064,1064,1064,0,0,0,0,0,0,0,0,0,0,
1064,1064,1064,1064,1064,1064,0,0,0,0,0,0,0,0,0,0,
1064,1064,1064,1064,1064,1064,0,0,0,0,0,0,0,0,0,0,
1064,1064,1064,1064,1064,1064,0,0,0,0,0,0,0,0,0,0,
1064,1064,1064,1064,1064,1064,0,0,0,0,0,0,0,0,0,0,
1064,1064,1064,1064,1064,1064,0,0,0,0,0,0,0,0,0,0,
1064,1064,1064,1064,1064,1064,0,0,0,0,0,0,0,0,0,0,
1064,1064,1064,1064,1064,1064,0,0,0,0,0,0,0,0,0,0,
1064,1064,1064,1064,1064,1064,0,0,0,0,0,0,0,0,0,0,
1064,1064,1064,1064,1064,1064,0,0,0,0,0,0,0,0,0,0,
1064,1064,1064,1064,1064,1064,0,0,0,0,0,0,0,0,0,0,
1064,1064,1064,1064,1064,1064,0,0,0,0,0,0,0,0,0,0,
1064,1064,1064,1064,1064,1064,0,0,0,0,0,0,0,0,0,0,
1064,1064,1064,1064,1064,1064,0,0,0,0,0,0,0,0,0,0,
1064,1064,1064,1064,1064,1064,0,0,0,0,0,0,0,0,0,0
</chunk>
   <chunk x="-48" y="-16" width="16" height="16">
0,0,0,0,0,0,0,0,0,1064,1064,1064,1064,1064,1064,1064,
0,0,0,0,0,0,0,0,0,1064,1064,1064,1064,1064,1064,1064,
0,0,0,0,0,0,0,0,0,1064,1064,1064,1064,1064,1064,1064,
0,0,0,0,0,0,0,0,0,1064,1064,1064,1064,1064,1064,1064,
0,0,0,0,0,0,0,0,0,1064,1064,1064,1064,1064,1064,1064,
0,0,0,0,0,0,0,0,0,1064,1064,1064,1064,1064,1064,1064,
0,0,0,0,0,0,0,0,0,1064,1064,1064,1064,1064,1064,1064,
0,0,0,0,0,0,0,0,0,1064,1064,1064,1064,1064,1064,1064,
0,0,0,0,0,0,0,0,0,1064,1064,1064,1064,1064,1064,1064,
0,0,0,0,0,0,0,0,0,1064,1064,1064,1064,1064,1064,1064,
0,0,0,0,0,0,0,0,0,1064,1064,1064,1064,1064,1064,1064,
0,0,0,0,0,0,0,0,0,1064,1064,1064,1064,1064,1064,1064,
0,0,0,0,0,0,0,0,0,1064,1064,1064,1064,1064,1064,1064,
0,0,0,0,0,0,0,0,0,1064,1064,1064,1064,1064,1064,1064,
0,0,0,0,0,0,0,0,0,1064,1064,1064,1064,1064,1064,1064,
0,0,0,0,0,0,0,0,0,1064,1064,1064,1064,1064,1064,1064
</chunk>
   <chunk x="-32" y="-16" width="16" height="16">
1064,1064,1064,1064,1064,1064,1064,1064,1064,1064,1064,1064,1112,1112,1112,1112,
1064,1064,1064,1064,1064,1064,1064,1064,1064,1064,1064,1064,0,0,0,0,
1064,1064,1064,1064,1064,1064,1064,1064,1064,1064,1064,1064,0,0,0,0,
1064,1064,1064,1064,1064,1064,1064,1064,1064,1064,1064,1064,0,0,0,0,
1064,1064,1064,1064,1064,1064,1064,1064,1064,1064,1064,1064,0,0,0,0,
1064,1064,1064,1064,1064,1064,1064,1064,1064,1064,1064,1064,0,0,0,0,
1064,1064,1064,1064,1064,1064,1064,1064,1064,1064,1064,1064,0,0,0,0,
1064,1064,1064,1064,1064,1064,1064,1064,1064,1064,1064,1064,1016,1016,1016,1017,
1064,1064,1064,1064,1064,1064,1064,1064,1064,1064,1064,1064,1064,1064,0,1113,
1064,1064,1064,1064,1064,1064,1064,1064,1064,1064,1064,1064,1064,1064,1115,1016,
1064,1064,1064,1064,1064,1064,1064,1064,1064,1064,1064,1064,1064,1064,1064,1064,
1064,1064,1064,1064,1064,1064,1064,1064,1064,1064,1064,1064,1064,1064,1064,1064,
1064,1064,1064,1064,1064,1064,1064,1064,1064,1064,1064,1064,1064,1064,1064,1064,
1064,1064,1064,1064,1064,1064,1064,1064,1064,1064,1064,1064,1064,1064,1064,1064,
1064,1064,1064,1064,1064,1064,1064,1064,1064,1064,1064,1064,1064,1064,1064,1064,
1064,1064,1064,1064,1064,1064,1064,1064,1064,1064,1064,1064,1064,1064,1064,1064
</chunk>
   <chunk x="-16" y="-16" width="16" height="16">
1112,1112,1112,1112,1112,1112,1112,1112,1112,1113,0,0,0,0,0,0,
0,0,0,0,0,0,0,0,0,0,0,0,0,0,0,0,
0,0,0,0,0,0,0,0,0,0,0,0,0,0,0,0,
0,0,0,0,0,0,0,0,0,0,0,0,0,0,0,0,
0,0,0,0,0,0,0,0,0,0,0,0,0,0,0,0,
0,0,0,0,0,0,0,0,0,0,0,0,0,0,497,498,
0,0,0,0,0,0,0,0,0,0,0,0,0,0,496,0,
0,0,0,0,0,1015,1016,1016,1016,1017,0,0,0,0,495,0,
0,0,0,0,0,1063,1064,1064,1064,1065,0,0,497,498,498,498,
1016,1016,1016,1016,1016,1016,1116,1064,1064,1065,0,0,496,0,0,0,
1064,1064,1064,1064,1064,1064,1064,1064,1064,1065,0,0,495,0,0,0,
1064,1064,1064,1064,1064,1064,1064,1064,1064,1065,0,0,495,0,0,0,
1064,1064,1064,1064,1064,1064,1064,1064,1064,1065,498,498,501,0,0,0,
1064,1064,1064,1064,1064,1064,1064,1064,1064,1065,0,0,495,0,0,0,
1064,1064,1064,1064,1064,1064,1064,1064,1064,1065,0,0,496,0,0,0,
1064,1064,1064,1064,1064,1064,1064,1064,1064,1065,0,0,495,0,0,0
</chunk>
   <chunk x="0" y="-16" width="16" height="16">
0,0,0,0,0,0,0,1111,1112,1112,1112,1112,1112,1112,1112,1112,
0,0,0,0,0,0,0,0,0,0,0,0,0,0,0,0,
0,0,0,0,0,0,0,0,0,0,0,0,0,0,0,0,
0,0,0,0,0,0,0,0,0,0,0,0,0,0,0,0,
0,0,0,0,0,0,0,0,0,0,0,0,0,0,0,0,
498,501,0,0,0,0,0,0,0,0,0,0,0,0,0,0,
0,495,0,0,0,0,0,0,0,0,0,0,0,0,0,0,
0,495,0,0,0,0,0,1015,1016,1016,1016,1013,0,0,0,0,
498,498,501,0,0,0,0,1063,1064,1064,1064,1065,0,0,0,0,
0,0,495,0,0,0,0,1063,1064,1064,1115,1016,1016,1016,1016,1016,
0,0,496,0,0,0,0,1063,1064,1064,1064,1064,1064,1064,1064,1064,
0,0,495,0,0,0,0,1063,1064,1064,1064,1064,1064,1064,1064,1064,
0,0,495,0,497,498,498,1063,1064,1064,1064,1064,1064,1064,1064,1064,
0,0,496,0,495,0,0,1063,1064,1064,1064,1064,1064,1064,1064,1064,
0,0,495,0,496,0,0,1063,1064,1064,1064,1064,1064,1064,1064,1064,
0,0,495,0,495,0,0,1063,1064,1064,1064,1064,1064,1064,1064,1064
</chunk>
   <chunk x="16" y="-16" width="16" height="16">
1112,1112,1112,1112,1112,1064,1064,1064,1064,1064,1064,1064,1064,1064,1064,1064,
0,0,0,0,0,1064,1064,1064,1064,1064,1064,1064,1064,1064,1064,1064,
0,0,0,0,0,1064,1064,1064,1064,1064,1064,1064,1064,1064,1064,1064,
0,0,0,0,0,1064,1064,1064,1064,1064,1064,1064,1064,1064,1064,1064,
0,0,0,0,0,1064,1064,1064,1064,1064,1064,1064,1064,1064,1064,1064,
0,0,0,0,0,1064,1064,1064,1064,1064,1064,1064,1064,1064,1064,1064,
0,0,0,0,0,1064,1064,1064,1064,1064,1064,1064,1064,1064,1064,1064,
0,0,1015,1016,1016,1064,1064,1064,1064,1064,1064,1064,1064,1064,1064,1064,
0,0,1063,1064,1064,1064,1064,1064,1064,1064,1064,1064,1064,1064,1064,1064,
1016,1016,1016,1116,1064,1064,1064,1064,1064,1064,1064,1064,1064,1064,1064,1064,
1064,1064,1064,1064,1064,1064,1064,1064,1064,1064,1064,1064,1064,1064,1064,1064,
1064,1064,1064,1064,1064,1064,1064,1064,1064,1064,1064,1064,1064,1064,1064,1064,
1064,1064,1064,1064,1064,1064,1064,1064,1064,1064,1064,1064,1064,1064,1064,1064,
1064,1064,1064,1064,1064,1064,1064,1064,1064,1064,1064,1064,1064,1064,1064,1064,
1064,1064,1064,1064,1064,1064,1064,1064,1064,1064,1064,1064,1064,1064,1064,1064,
1064,1064,1064,1064,1064,1064,1064,1064,1064,1064,1064,1064,1064,1064,1064,1064
</chunk>
   <chunk x="32" y="-16" width="16" height="16">
1064,1064,1064,1064,1064,1064,0,0,0,0,0,0,0,0,0,0,
1064,1064,1064,1064,1064,1064,0,0,0,0,0,0,0,0,0,0,
1064,1064,1064,1064,1064,1064,0,0,0,0,0,0,0,0,0,0,
1064,1064,1064,1064,1064,1064,0,0,0,0,0,0,0,0,0,0,
1064,1064,1064,1064,1064,1064,0,0,0,0,0,0,0,0,0,0,
1064,1064,1064,1064,1064,1064,0,0,0,0,0,0,0,0,0,0,
1064,1064,1064,1064,1064,1064,0,0,0,0,0,0,0,0,0,0,
1064,1064,1064,1064,1064,1064,0,0,0,0,0,0,0,0,0,0,
1064,1064,1064,1064,1064,1064,0,0,0,0,0,0,0,0,0,0,
1064,1064,1064,1064,1064,1064,0,0,0,0,0,0,0,0,0,0,
1064,1064,1064,1064,1064,1064,0,0,0,0,0,0,0,0,0,0,
1064,1064,1064,1064,1064,1064,0,0,0,0,0,0,0,0,0,0,
1064,1064,1064,1064,1064,1064,0,0,0,0,0,0,0,0,0,0,
1064,1064,1064,1064,1064,1064,0,0,0,0,0,0,0,0,0,0,
1064,1064,1064,1064,1064,1064,0,0,0,0,0,0,0,0,0,0,
1064,1064,1064,1064,1064,1064,0,0,0,0,0,0,0,0,0,0
</chunk>
   <chunk x="-48" y="0" width="16" height="16">
0,0,0,0,0,0,0,0,0,1064,1064,1064,1064,1064,1064,1064,
0,0,0,0,0,0,0,0,0,1064,1064,1064,1064,1064,1064,1064,
0,0,0,0,0,0,0,0,0,1064,1064,1064,1064,1064,1064,1064,
0,0,0,0,0,0,0,0,0,1064,1064,1064,1064,1064,1064,1064,
0,0,0,0,0,0,0,0,0,1064,1064,1064,1064,1064,1064,1064,
0,0,0,0,0,0,0,0,0,1064,1064,1064,1064,1064,1064,1064,
0,0,0,0,0,0,0,0,0,1064,1064,1064,1064,1064,1064,1064,
0,0,0,0,0,0,0,0,0,1064,1064,1064,1064,1064,1064,1064,
0,0,0,0,0,0,0,0,0,1064,1064,1064,1064,1064,1064,1064,
0,0,0,0,0,0,0,0,0,1064,1064,1064,1064,1064,1064,1064,
0,0,0,0,0,0,0,0,0,1064,1064,1064,1064,1064,1064,1064,
0,0,0,0,0,0,0,0,0,1064,1064,1064,1064,1064,1064,1064,
0,0,0,0,0,0,0,0,0,1064,1064,1064,1064,1064,1064,1064,
0,0,0,0,0,0,0,0,0,0,0,0,0,0,0,0,
0,0,0,0,0,0,0,0,0,0,0,0,0,0,0,0,
0,0,0,0,0,0,0,0,0,0,0,0,0,0,0,0
</chunk>
   <chunk x="-32" y="0" width="16" height="16">
1064,1064,1064,1064,1064,1064,1064,1064,1064,1064,1064,1064,1064,1064,1064,1064,
1064,1064,1064,1064,1064,1064,1064,1064,1064,1064,1064,1064,1064,1064,1064,1064,
1064,1064,1064,1064,1064,1064,1064,1064,1064,1064,1064,1064,1064,1064,1064,1064,
1064,1064,1064,1064,1064,1064,1064,1064,1064,1064,1064,1064,1064,1064,1064,1064,
1064,1064,1064,1064,1064,1064,1064,1064,1064,1064,1064,1064,1064,1064,1064,1064,
1064,1064,1064,1064,1064,1064,1064,1064,1064,1064,1064,1064,1064,1064,1064,1064,
1064,1064,1064,1064,1064,1064,1064,1064,1064,1064,1064,1064,1064,1064,1064,1064,
1064,1064,1064,1064,1064,1064,1064,1064,1064,1064,1064,1064,1064,1064,1064,1064,
1064,1064,1064,1064,1064,1064,1064,1064,1064,1064,1064,1064,1064,1064,1064,1064,
1064,1064,1064,1064,1064,1064,1064,1064,1064,1064,1064,1064,1064,1064,1064,1064,
1064,1064,1064,1064,1064,1064,1064,1064,1064,1064,1064,1064,1064,1064,1064,1064,
1064,1064,1064,1064,1064,1064,1064,1064,1064,1064,1064,1064,1064,1064,1064,1064,
1064,1064,1064,1064,1064,1064,1064,1064,1064,1064,1064,1064,1064,1064,1064,1064,
0,0,0,0,0,0,0,0,0,0,0,0,0,0,0,0,
0,0,0,0,0,0,0,0,0,0,0,0,0,0,0,0,
0,0,0,0,0,0,0,0,0,0,0,0,0,0,0,0
</chunk>
   <chunk x="-16" y="0" width="16" height="16">
1064,1064,1064,1064,1064,1064,1064,1064,1115,1016,1016,1016,1016,1016,1017,0,
1064,1064,1064,1064,1064,1064,1064,1064,1064,1064,1064,1064,1064,1064,1065,0,
1064,1064,1064,1064,1064,1064,1064,1064,1064,1064,1064,1064,1064,1064,1065,0,
1064,1064,1064,1064,1064,1064,1064,1064,1064,1064,1064,1064,1064,1064,1064,1064,
1064,1064,1064,1064,1064,1064,1064,1064,1064,1064,1064,1064,1064,1064,1064,1064,
1064,1064,1064,1064,1064,1064,1064,1064,1064,1064,1064,1064,1064,1064,1064,1064,
1064,1064,1064,1064,1064,1064,1064,1064,1064,1064,1064,1064,1064,1064,1064,1064,
1064,1064,1064,1064,1064,1064,1064,1064,1064,1064,1064,1064,1064,1064,1064,1064,
1064,1064,1064,1064,1064,1064,1064,1064,1064,1064,1064,1064,1064,1064,1064,1064,
1064,1064,1064,1064,1064,1064,1064,1064,1064,1064,1064,1064,1064,1064,1064,1064,
1064,1064,1064,1064,1064,1064,1064,1064,1064,1064,1064,1064,1064,1064,1064,1064,
1064,1064,1064,1064,1064,1064,1064,1064,1064,1064,1064,1064,1064,1064,1064,1064,
1064,1064,1064,1064,1064,1064,1064,1064,1064,1064,1064,1064,1064,1064,1064,1064,
0,0,0,0,0,0,0,0,0,0,0,0,0,0,0,0,
0,0,0,0,0,0,0,0,0,0,0,0,0,0,0,0,
0,0,0,0,0,0,0,0,0,0,0,0,0,0,0,0
</chunk>
   <chunk x="0" y="0" width="16" height="16">
0,0,1015,1016,1016,1016,1016,1016,1116,1064,1064,1064,1064,1064,1064,1064,
0,0,1063,1064,1064,1064,1064,1064,1064,1064,1064,1064,1064,1064,1064,1064,
0,0,1063,1064,1064,1064,1064,1064,1064,1064,1064,1064,1064,1064,1064,1064,
1064,1064,1064,1064,1064,1064,1064,1064,1064,1064,1064,1064,1064,1064,1064,1064,
1064,1064,1064,1064,1064,1064,1064,1064,1064,1064,1064,1064,1064,1064,1064,1064,
1064,1064,1064,1064,1064,1064,1064,1064,1064,1064,1064,1064,1064,1064,1064,1064,
1064,1064,1064,1064,1064,1064,1064,1064,1064,1064,1064,1064,1064,1064,1064,1064,
1064,1064,1064,1064,1064,1064,1064,1064,1064,1064,1064,1064,1064,1064,1064,1064,
1064,1064,1064,1064,1064,1064,1064,1064,1064,1064,1064,1064,1064,1064,1064,1064,
1064,1064,1064,1064,1064,1064,1064,1064,1064,1064,1064,1064,1064,1064,1064,1064,
1064,1064,1064,1064,1064,1064,1064,1064,1064,1064,1064,1064,1064,1064,1064,1064,
1064,1064,1064,1064,1064,1064,1064,1064,1064,1064,1064,1064,1064,1064,1064,1064,
1064,1064,1064,1064,1064,1064,1064,1064,1064,1064,1064,1064,1064,1064,1064,1064,
0,0,0,0,0,0,0,0,0,0,0,0,0,0,0,0,
0,0,0,0,0,0,0,0,0,0,0,0,0,0,0,0,
0,0,0,0,0,0,0,0,0,0,0,0,0,0,0,0
</chunk>
   <chunk x="16" y="0" width="16" height="16">
1064,1064,1064,1064,1064,1064,1064,1064,1064,1064,1064,1064,1064,1064,1064,1064,
1064,1064,1064,1064,1064,1064,1064,1064,1064,1064,1064,1064,1064,1064,1064,1064,
1064,1064,1064,1064,1064,1064,1064,1064,1064,1064,1064,1064,1064,1064,1064,1064,
1064,1064,1064,1064,1064,1064,1064,1064,1064,1064,1064,1064,1064,1064,1064,1064,
1064,1064,1064,1064,1064,1064,1064,1064,1064,1064,1064,1064,1064,1064,1064,1064,
1064,1064,1064,1064,1064,1064,1064,1064,1064,1064,1064,1064,1064,1064,1064,1064,
1064,1064,1064,1064,1064,1064,1064,1064,1064,1064,1064,1064,1064,1064,1064,1064,
1064,1064,1064,1064,1064,1064,1064,1064,1064,1064,1064,1064,1064,1064,1064,1064,
1064,1064,1064,1064,1064,1064,1064,1064,1064,1064,1064,1064,1064,1064,1064,1064,
1064,1064,1064,1064,1064,1064,1064,1064,1064,1064,1064,1064,1064,1064,1064,1064,
1064,1064,1064,1064,1064,1064,1064,1064,1064,1064,1064,1064,1064,1064,1064,1064,
1064,1064,1064,1064,1064,1064,1064,1064,1064,1064,1064,1064,1064,1064,1064,1064,
1064,1064,1064,1064,1064,1064,1064,1064,1064,1064,1064,1064,1064,1064,1064,1064,
0,0,0,0,0,0,0,0,0,0,0,0,0,0,0,0,
0,0,0,0,0,0,0,0,0,0,0,0,0,0,0,0,
0,0,0,0,0,0,0,0,0,0,0,0,0,0,0,0
</chunk>
   <chunk x="32" y="0" width="16" height="16">
1064,1064,1064,1064,1064,1064,0,0,0,0,0,0,0,0,0,0,
1064,1064,1064,1064,1064,1064,0,0,0,0,0,0,0,0,0,0,
1064,1064,1064,1064,1064,1064,0,0,0,0,0,0,0,0,0,0,
1064,1064,1064,1064,1064,1064,0,0,0,0,0,0,0,0,0,0,
1064,1064,1064,1064,1064,1064,0,0,0,0,0,0,0,0,0,0,
1064,1064,1064,1064,1064,1064,0,0,0,0,0,0,0,0,0,0,
1064,1064,1064,1064,1064,1064,0,0,0,0,0,0,0,0,0,0,
1064,1064,1064,1064,1064,1064,0,0,0,0,0,0,0,0,0,0,
1064,1064,1064,1064,1064,1064,0,0,0,0,0,0,0,0,0,0,
1064,1064,1064,1064,1064,1064,0,0,0,0,0,0,0,0,0,0,
1064,1064,1064,1064,1064,1064,0,0,0,0,0,0,0,0,0,0,
1064,1064,1064,1064,1064,1064,0,0,0,0,0,0,0,0,0,0,
1064,1064,1064,1064,1064,1064,0,0,0,0,0,0,0,0,0,0,
0,0,0,0,0,0,0,0,0,0,0,0,0,0,0,0,
0,0,0,0,0,0,0,0,0,0,0,0,0,0,0,0,
0,0,0,0,0,0,0,0,0,0,0,0,0,0,0,0
</chunk>
  </data>
 </layer>
 <layer id="8" name="Spikes" width="30" height="20">
  <properties>
   <property name="Spikes" type="int" value="1"/>
  </properties>
  <data encoding="csv">
   <chunk x="-16" y="-32" width="16" height="16">
0,0,0,0,0,0,0,0,0,0,0,0,0,0,0,0,
0,0,0,0,0,0,0,0,0,0,0,0,0,0,0,0,
0,0,0,0,0,0,0,0,0,0,0,0,0,0,0,0,
0,0,0,0,0,0,0,0,0,0,0,0,0,0,0,0,
0,0,0,0,0,0,0,0,0,0,0,0,0,0,0,0,
0,0,0,0,0,0,0,0,0,0,0,0,0,0,0,0,
0,0,0,0,0,0,0,0,0,0,0,0,0,0,0,0,
0,0,0,0,0,0,0,0,0,0,0,0,0,0,0,0,
0,0,0,0,0,0,0,0,0,0,0,0,0,0,1171,0,
0,0,0,0,0,0,0,0,0,0,0,0,0,1124,1219,0,
0,0,0,0,0,0,0,0,0,0,0,0,0,1171,0,0,
0,0,0,0,0,0,0,0,0,0,0,0,0,1219,0,0,
0,0,0,0,0,0,0,0,0,0,0,0,0,0,0,0,
0,0,0,0,0,0,0,0,0,0,0,0,0,0,0,0,
0,0,0,0,0,0,0,0,0,0,0,0,0,0,0,0,
0,0,0,0,0,0,0,0,0,0,0,0,0,0,0,0
</chunk>
   <chunk x="0" y="-32" width="16" height="16">
0,0,0,0,0,0,0,0,0,0,0,0,0,0,0,0,
0,0,0,0,0,0,0,0,0,0,0,0,0,0,0,0,
0,0,0,0,0,0,0,0,0,0,0,0,0,0,0,0,
0,0,0,0,0,0,0,0,0,0,0,0,0,0,0,0,
0,0,0,0,0,0,0,0,0,0,0,0,0,0,0,0,
0,0,0,0,0,0,0,0,0,0,0,0,0,0,0,0,
0,0,0,0,0,0,0,0,0,0,0,0,0,0,0,0,
0,0,0,0,0,0,0,0,0,0,0,0,0,0,0,0,
0,0,1169,0,0,0,0,0,0,0,0,0,0,0,0,0,
0,0,1217,1125,0,0,0,0,0,0,0,0,0,0,0,0,
0,0,0,1169,0,0,0,0,0,0,0,0,0,0,0,0,
0,0,0,1217,0,0,0,0,0,0,0,0,0,0,0,0,
0,0,0,0,0,0,0,0,0,0,0,0,0,0,0,0,
0,0,0,0,0,0,0,0,0,0,0,0,0,0,0,0,
0,0,0,0,0,0,0,0,0,0,0,0,0,0,0,0,
0,0,0,0,0,0,0,0,0,0,0,0,0,0,0,0
</chunk>
  </data>
 </layer>
 <layer id="7" name="Shrubbery" width="30" height="20">
  <properties>
   <property name="layer" type="int" value="2"/>
  </properties>
  <data encoding="csv">
   <chunk x="-16" y="-32" width="16" height="16">
0,0,0,0,0,0,0,0,0,0,0,0,0,0,0,0,
0,0,0,0,0,0,0,0,0,0,0,0,0,0,0,0,
0,0,0,0,0,0,0,0,0,0,0,0,0,0,0,0,
0,0,0,0,0,0,0,0,0,0,0,0,0,0,0,0,
0,0,0,0,0,0,0,0,0,0,0,0,0,0,0,0,
0,0,0,0,0,0,0,0,0,0,0,0,0,0,0,0,
0,0,0,0,0,0,0,0,0,0,0,0,0,0,0,0,
0,0,0,0,0,0,0,0,0,0,0,0,0,0,0,0,
0,0,0,0,0,0,0,0,0,0,0,0,0,0,0,0,
0,0,0,0,0,0,0,0,0,0,0,0,0,562,0,0,
0,0,0,0,0,0,0,0,0,0,0,0,0,0,0,0,
0,0,0,0,0,0,0,0,0,0,0,0,0,0,0,0,
0,0,0,0,0,0,0,0,0,0,0,0,513,514,0,0,
0,0,0,0,0,0,0,0,0,0,0,0,561,562,0,0,
0,0,0,0,0,0,0,0,0,0,0,514,0,0,0,0,
0,0,0,0,0,0,0,0,0,0,0,562,0,0,0,0
</chunk>
   <chunk x="0" y="-32" width="16" height="16">
0,0,0,0,0,0,0,0,0,0,0,0,0,0,0,0,
0,0,0,0,0,0,0,0,0,0,0,0,0,0,0,0,
0,0,0,0,0,0,0,0,0,0,0,0,0,0,0,0,
0,0,0,0,0,0,0,0,0,0,0,0,0,0,0,0,
0,0,0,0,0,0,0,0,0,0,0,0,0,0,0,0,
0,0,0,0,0,0,0,0,0,0,0,0,0,0,0,0,
0,0,0,0,0,0,0,0,0,0,0,0,0,0,0,0,
0,0,0,0,0,0,0,0,0,0,0,0,0,0,0,0,
0,0,0,0,0,0,0,0,0,0,0,0,0,0,0,0,
0,0,0,0,0,0,0,0,0,0,0,0,0,0,0,0,
0,0,0,0,0,0,0,0,0,0,0,0,0,0,0,0,
0,0,0,0,0,0,0,0,0,0,0,0,0,0,0,0,
0,0,0,0,559,0,0,0,0,0,0,0,0,0,0,0,
0,0,0,0,0,0,0,0,0,0,0,0,0,0,0,0,
0,0,0,0,511,512,0,0,0,0,0,0,0,0,0,0,
0,0,0,0,559,560,0,0,0,0,0,0,0,0,0,0
</chunk>
   <chunk x="-16" y="-16" width="16" height="16">
0,0,0,0,0,0,0,0,0,0,0,0,0,0,0,0,
0,0,0,0,0,0,0,0,0,0,0,0,0,0,0,0,
0,0,0,0,0,0,0,0,0,0,0,0,0,0,0,0,
0,0,0,0,0,0,0,0,0,0,0,0,0,0,0,0,
0,0,0,0,0,0,0,0,0,0,0,0,0,0,0,0,
0,0,0,0,0,314,315,316,317,0,0,0,0,0,0,0,
0,0,0,0,0,362,363,364,365,0,0,0,0,0,0,0,
316,317,314,315,316,0,0,0,0,0,0,0,0,0,0,0,
364,365,362,363,364,0,0,0,0,0,0,0,0,0,0,0,
0,0,0,0,0,0,0,0,0,0,0,0,0,0,0,0,
0,0,0,0,0,0,0,0,0,0,0,0,0,0,0,0,
0,0,0,0,0,0,0,0,0,0,0,0,0,0,0,0,
0,0,0,0,0,0,0,0,0,0,0,0,0,0,0,0,
0,0,0,0,0,0,0,0,0,0,0,0,0,0,0,0,
0,0,0,0,0,0,0,0,0,0,316,317,0,0,0,0,
0,0,0,0,0,0,0,0,0,0,364,365,0,0,0,0
</chunk>
   <chunk x="0" y="-16" width="16" height="16">
0,0,0,0,0,0,0,0,0,0,0,0,0,0,0,0,
0,0,0,0,0,0,0,0,0,0,0,0,0,0,0,0,
0,0,0,0,0,0,0,0,0,0,0,0,0,0,0,0,
0,0,0,0,0,0,0,0,0,0,0,0,0,0,0,0,
0,0,0,0,0,0,0,0,0,0,0,0,0,0,0,0,
0,0,0,0,0,0,0,314,315,316,317,0,0,0,0,0,
0,0,0,0,0,0,0,362,363,364,365,0,0,0,0,0,
0,0,0,0,0,0,0,0,0,0,0,0,321,322,314,315,
0,0,0,0,0,0,0,0,0,0,0,0,369,370,362,363,
0,0,0,0,0,0,0,0,0,0,0,0,0,0,0,0,
0,0,0,0,0,0,0,0,0,0,0,0,0,0,0,0,
0,0,0,0,0,0,0,0,0,0,0,0,0,0,0,0,
0,0,0,0,0,0,0,0,0,0,0,0,0,0,0,0,
0,0,0,0,0,0,0,0,0,0,0,0,0,0,0,0,
0,0,0,314,315,316,317,0,0,0,0,0,0,0,0,0,
0,0,0,362,363,364,365,0,0,0,0,0,0,0,0,0
</chunk>
   <chunk x="16" y="-16" width="16" height="16">
0,0,0,0,0,0,0,0,0,0,0,0,0,0,0,0,
0,0,0,0,0,0,0,0,0,0,0,0,0,0,0,0,
0,0,0,0,0,0,0,0,0,0,0,0,0,0,0,0,
0,0,0,0,0,0,0,0,0,0,0,0,0,0,0,0,
0,0,0,0,0,0,0,0,0,0,0,0,0,0,0,0,
0,0,0,0,0,0,0,0,0,0,0,0,0,0,0,0,
0,0,0,0,0,0,0,0,0,0,0,0,0,0,0,0,
316,317,0,0,0,0,0,0,0,0,0,0,0,0,0,0,
364,365,0,0,0,0,0,0,0,0,0,0,0,0,0,0,
0,0,0,0,0,0,0,0,0,0,0,0,0,0,0,0,
0,0,0,0,0,0,0,0,0,0,0,0,0,0,0,0,
0,0,0,0,0,0,0,0,0,0,0,0,0,0,0,0,
0,0,0,0,0,0,0,0,0,0,0,0,0,0,0,0,
0,0,0,0,0,0,0,0,0,0,0,0,0,0,0,0,
0,0,0,0,0,0,0,0,0,0,0,0,0,0,0,0,
0,0,0,0,0,0,0,0,0,0,0,0,0,0,0,0
</chunk>
  </data>
 </layer>
 <layer id="5" name="Grass" width="30" height="20">
  <properties>
   <property name="layer" type="int" value="3"/>
  </properties>
  <data encoding="csv">
   <chunk x="-32" y="-32" width="16" height="16">
0,0,0,0,0,0,0,0,0,0,0,0,0,0,0,0,
0,0,0,0,0,0,0,0,0,0,0,0,0,0,0,0,
0,0,0,0,0,0,0,0,0,0,0,0,0,0,0,0,
0,0,0,0,0,0,0,0,0,0,0,0,0,0,0,0,
0,0,0,0,0,0,0,0,0,0,0,0,0,0,0,0,
0,0,0,0,0,0,0,0,0,0,0,0,0,0,0,0,
0,0,0,0,0,0,0,0,0,0,0,0,0,0,0,0,
0,0,0,0,0,0,0,0,0,0,0,0,0,0,0,0,
0,0,0,0,0,0,0,0,0,0,0,0,0,0,0,0,
0,0,0,0,0,0,0,0,0,0,0,0,0,0,0,0,
0,0,0,0,0,0,0,0,0,0,0,0,0,0,0,0,
0,0,0,0,0,0,0,0,0,0,0,0,0,0,0,0,
0,0,0,0,0,0,0,0,0,0,0,0,0,0,0,0,
0,0,0,0,0,0,0,0,0,0,0,0,0,0,0,0,
0,0,0,0,0,0,0,0,0,0,0,0,0,0,0,0,
0,0,0,0,0,0,0,0,0,0,0,0,210,211,210,211
</chunk>
   <chunk x="-16" y="-32" width="16" height="16">
0,0,0,0,0,0,0,0,0,0,0,0,0,0,0,0,
0,0,0,0,0,0,0,0,0,0,0,0,0,0,0,0,
0,0,0,0,0,0,0,0,0,0,0,0,0,0,0,0,
0,0,0,0,0,0,0,0,0,0,0,0,0,0,0,0,
0,0,0,0,0,0,0,0,0,0,0,0,0,0,0,0,
0,0,0,0,0,0,0,0,0,0,0,0,0,0,0,0,
0,0,0,0,0,0,0,0,0,0,0,0,0,0,0,0,
0,0,0,0,0,0,0,0,0,0,0,306,0,0,0,0,
0,0,0,0,0,0,0,0,0,0,0,354,355,261,0,0,
0,0,0,0,0,0,0,0,0,0,0,116,117,0,0,0,
0,0,0,0,0,0,0,0,0,0,306,164,165,0,0,0,
0,0,0,0,0,0,0,0,0,0,354,355,261,0,0,0,
0,0,0,0,0,0,0,0,0,306,116,213,0,0,0,0,
0,0,0,0,0,0,0,0,0,354,355,261,0,0,0,0,
0,0,0,0,0,0,0,0,306,307,213,0,0,0,0,0,
210,211,210,211,210,211,210,211,354,355,261,0,0,0,0,0
</chunk>
   <chunk x="0" y="-32" width="16" height="16">
0,0,0,0,0,0,0,0,0,0,0,0,0,0,0,0,
0,0,0,0,0,0,0,0,0,0,0,0,0,0,0,0,
0,0,0,0,0,0,0,0,0,0,0,0,0,0,0,0,
0,0,0,0,0,0,0,0,0,0,0,0,0,0,0,0,
0,0,0,0,0,0,0,0,0,0,0,0,0,0,0,0,
0,0,0,0,0,0,0,0,0,0,0,0,0,0,0,0,
0,0,0,0,0,0,0,0,0,0,0,0,0,0,0,0,
0,0,0,0,308,309,0,0,0,0,0,0,0,0,0,0,
0,0,0,256,356,357,0,0,0,0,0,0,0,0,0,0,
0,0,0,0,112,113,0,0,0,0,0,0,0,0,0,0,
0,0,0,0,208,161,309,0,0,0,0,0,0,0,0,0,
0,0,0,0,256,356,357,0,0,0,0,0,0,0,0,0,
0,0,0,0,0,112,209,309,0,0,0,0,0,0,0,0,
0,0,0,0,0,256,356,357,0,0,0,0,0,0,0,0,
0,0,0,0,0,0,208,308,309,0,0,0,0,0,0,0,
0,0,0,0,0,0,256,356,357,210,211,210,211,210,211,210
</chunk>
   <chunk x="16" y="-32" width="16" height="16">
0,0,0,0,0,0,0,0,0,0,0,0,0,0,0,0,
0,0,0,0,0,0,0,0,0,0,0,0,0,0,0,0,
0,0,0,0,0,0,0,0,0,0,0,0,0,0,0,0,
0,0,0,0,0,0,0,0,0,0,0,0,0,0,0,0,
0,0,0,0,0,0,0,0,0,0,0,0,0,0,0,0,
0,0,0,0,0,0,0,0,0,0,0,0,0,0,0,0,
0,0,0,0,0,0,0,0,0,0,0,0,0,0,0,0,
0,0,0,0,0,0,0,0,0,0,0,0,0,0,0,0,
0,0,0,0,0,0,0,0,0,0,0,0,0,0,0,0,
0,0,0,0,0,0,0,0,0,0,0,0,0,0,0,0,
0,0,0,0,0,0,0,0,0,0,0,0,0,0,0,0,
0,0,0,0,0,0,0,0,0,0,0,0,0,0,0,0,
0,0,0,0,0,0,0,0,0,0,0,0,0,0,0,0,
0,0,0,0,0,0,0,0,0,0,0,0,0,0,0,0,
0,0,0,0,0,0,0,0,0,0,0,0,0,0,0,0,
211,210,211,210,211,0,0,0,0,0,0,0,0,0,0,0
</chunk>
   <chunk x="-32" y="-16" width="16" height="16">
0,0,0,0,0,0,0,0,0,0,0,0,258,259,258,259,
0,0,0,0,0,0,0,0,0,0,0,0,0,0,0,0,
0,0,0,0,0,0,0,0,0,0,0,0,0,0,0,0,
0,0,0,0,0,0,0,0,0,0,0,0,0,0,0,0,
0,0,0,0,0,0,0,0,0,0,0,0,0,0,0,0,
0,0,0,0,0,0,0,0,0,0,0,0,0,0,0,0,
0,0,0,0,0,0,0,0,0,0,0,0,0,0,0,0,
0,0,0,0,0,0,0,0,0,0,0,0,19,18,20,21,
0,0,0,0,0,0,0,0,0,0,0,0,67,66,68,69,
0,0,0,0,0,0,0,0,0,0,0,0,0,0,402,403,
0,0,0,0,0,0,0,0,0,0,0,0,0,450,450,451,
0,0,0,0,0,0,0,0,0,0,0,0,0,0,0,0,
0,0,0,0,0,0,0,0,0,0,0,0,0,0,0,0,
0,0,0,0,0,0,0,0,0,0,0,0,0,0,0,0,
0,0,0,0,0,0,0,0,0,0,0,0,0,0,0,0,
0,0,0,0,0,0,0,0,0,0,0,0,0,0,0,0
</chunk>
   <chunk x="-16" y="-16" width="16" height="16">
258,259,258,259,258,259,258,259,260,261,0,0,0,0,0,0,
0,0,0,0,0,0,0,0,0,0,0,0,0,0,0,0,
0,0,0,0,0,0,0,0,0,0,0,0,0,0,0,0,
0,0,0,0,0,0,0,0,0,0,0,0,0,0,0,0,
0,0,0,0,0,0,0,0,0,0,0,0,0,0,0,0,
0,0,0,0,0,0,0,0,0,0,0,0,0,0,0,0,
0,0,0,0,0,0,0,0,0,0,0,0,0,0,0,0,
0,0,0,0,0,16,17,19,20,21,0,0,0,0,0,0,
0,0,0,0,0,64,65,67,68,69,0,0,0,0,0,0,
19,18,19,18,19,404,405,0,164,165,0,0,0,0,0,0,
67,66,67,66,67,452,453,0,116,117,0,0,0,0,0,0,
0,0,0,0,0,0,0,0,164,165,0,0,0,0,0,0,
0,0,0,0,0,0,0,0,116,117,0,0,0,0,0,0,
0,0,0,0,0,0,0,0,164,165,0,0,0,0,0,0,
0,0,0,0,0,0,0,0,116,117,0,0,0,0,0,0,
0,0,0,0,0,0,0,0,164,165,0,0,0,0,0,0
</chunk>
   <chunk x="0" y="-16" width="16" height="16">
0,0,0,0,0,0,0,256,257,258,259,258,259,258,259,258,
0,0,0,0,0,0,0,0,0,0,0,0,0,0,0,0,
0,0,0,0,0,0,0,0,0,0,0,0,0,0,0,0,
0,0,0,0,0,0,0,0,0,0,0,0,0,0,0,0,
0,0,0,0,0,0,0,0,0,0,0,0,0,0,0,0,
0,0,0,0,0,0,0,0,0,0,0,0,0,0,0,0,
0,0,0,0,0,0,0,0,0,0,0,0,0,0,0,0,
0,0,0,0,0,0,0,16,17,18,20,21,0,0,0,0,
0,0,0,0,0,0,0,64,65,66,68,69,0,0,0,0,
0,0,0,0,0,0,0,160,161,0,402,403,18,19,18,19,
0,0,0,0,0,0,0,112,113,0,450,451,66,67,66,67,
0,0,0,0,0,0,0,160,161,0,0,0,0,0,0,0,
0,0,0,0,0,0,0,112,113,0,0,0,0,0,0,0,
0,0,0,0,0,0,0,160,161,0,0,0,0,0,0,0,
0,0,0,0,0,0,0,112,113,0,0,0,0,0,0,0,
0,0,0,0,0,0,0,160,161,0,0,0,0,0,0,0
</chunk>
   <chunk x="16" y="-16" width="16" height="16">
259,258,259,258,259,0,0,0,0,0,0,0,0,0,0,0,
0,0,0,0,0,0,0,0,0,0,0,0,0,0,0,0,
0,0,0,0,0,0,0,0,0,0,0,0,0,0,0,0,
0,0,0,0,0,0,0,0,0,0,0,0,0,0,0,0,
0,0,0,0,0,0,0,0,0,0,0,0,0,0,0,0,
0,0,0,0,0,0,0,0,0,0,0,0,0,0,0,0,
0,0,0,0,0,0,0,0,0,0,0,0,0,0,0,0,
0,0,16,17,18,0,0,0,0,0,0,0,0,0,0,0,
0,0,64,65,66,0,0,0,0,0,0,0,0,0,0,0,
18,19,404,405,0,0,0,0,0,0,0,0,0,0,0,0,
66,67,452,453,0,0,0,0,0,0,0,0,0,0,0,0,
0,0,0,0,0,0,0,0,0,0,0,0,0,0,0,0,
0,0,0,0,0,0,0,0,0,0,0,0,0,0,0,0,
0,0,0,0,0,0,0,0,0,0,0,0,0,0,0,0,
0,0,0,0,0,0,0,0,0,0,0,0,0,0,0,0,
0,0,0,0,0,0,0,0,0,0,0,0,0,0,0,0
</chunk>
   <chunk x="-16" y="0" width="16" height="16">
0,0,0,0,0,0,0,0,402,403,18,19,18,20,21,0,
0,0,0,0,0,0,0,0,450,451,66,67,66,68,69,0,
0,0,0,0,0,0,0,0,0,0,0,0,0,116,117,0,
0,0,0,0,0,0,0,0,0,0,0,0,0,0,0,0,
0,0,0,0,0,0,0,0,0,0,0,0,0,0,0,0,
0,0,0,0,0,0,0,0,0,0,0,0,0,0,0,0,
0,0,0,0,0,0,0,0,0,0,0,0,0,0,0,0,
0,0,0,0,0,0,0,0,0,0,0,0,0,0,0,0,
0,0,0,0,0,0,0,0,0,0,0,0,0,0,0,0,
0,0,0,0,0,0,0,0,0,0,0,0,0,0,0,0,
0,0,0,0,0,0,0,0,0,0,0,0,0,0,0,0,
0,0,0,0,0,0,0,0,0,0,0,0,0,0,0,0,
0,0,0,0,0,0,0,0,0,0,0,0,0,0,0,0,
0,0,0,0,0,0,0,0,0,0,0,0,0,0,0,0,
0,0,0,0,0,0,0,0,0,0,0,0,0,0,0,0,
0,0,0,0,0,0,0,0,0,0,0,0,0,0,0,0
</chunk>
   <chunk x="0" y="0" width="16" height="16">
0,0,16,17,19,18,19,404,405,0,0,0,0,0,0,0,
0,0,64,65,67,66,67,452,453,0,0,0,0,0,0,0,
0,0,112,113,0,0,0,0,0,0,0,0,0,0,0,0,
0,0,0,0,0,0,0,0,0,0,0,0,0,0,0,0,
0,0,0,0,0,0,0,0,0,0,0,0,0,0,0,0,
0,0,0,0,0,0,0,0,0,0,0,0,0,0,0,0,
0,0,0,0,0,0,0,0,0,0,0,0,0,0,0,0,
0,0,0,0,0,0,0,0,0,0,0,0,0,0,0,0,
0,0,0,0,0,0,0,0,0,0,0,0,0,0,0,0,
0,0,0,0,0,0,0,0,0,0,0,0,0,0,0,0,
0,0,0,0,0,0,0,0,0,0,0,0,0,0,0,0,
0,0,0,0,0,0,0,0,0,0,0,0,0,0,0,0,
0,0,0,0,0,0,0,0,0,0,0,0,0,0,0,0,
0,0,0,0,0,0,0,0,0,0,0,0,0,0,0,0,
0,0,0,0,0,0,0,0,0,0,0,0,0,0,0,0,
0,0,0,0,0,0,0,0,0,0,0,0,0,0,0,0
</chunk>
  </data>
 </layer>
 <layer id="6" name="Flowers" width="30" height="20">
  <properties>
   <property name="layer" type="int" value="4"/>
  </properties>
  <data encoding="csv">
   <chunk x="-16" y="-32" width="16" height="16">
0,0,0,0,0,0,0,0,0,0,0,0,0,0,0,0,
0,0,0,0,0,0,0,0,0,0,0,0,0,0,0,0,
0,0,0,0,0,0,0,0,0,0,0,0,0,0,0,0,
0,0,0,0,0,0,0,0,0,0,0,0,0,0,0,0,
0,0,0,0,0,0,0,0,0,0,0,0,0,0,0,0,
0,0,0,0,0,0,0,0,0,0,0,0,0,0,0,0,
0,0,0,0,0,0,0,0,0,0,0,0,0,0,0,0,
0,0,0,0,0,0,0,0,0,0,0,0,0,0,0,0,
0,0,0,0,0,0,0,0,0,0,0,0,0,0,0,0,
0,0,0,0,0,0,0,0,0,0,0,0,23,0,0,0,
0,0,0,0,0,0,0,0,0,0,0,0,0,0,0,0,
0,0,0,0,0,0,0,0,0,0,0,0,0,0,0,0,
0,0,0,0,0,0,0,0,0,0,0,71,0,0,0,0,
0,0,0,0,0,0,0,0,0,0,0,0,0,0,0,0,
0,0,0,0,0,0,0,0,0,0,0,0,0,0,0,0,
0,0,0,0,0,0,0,0,0,0,0,0,0,0,0,0
</chunk>
   <chunk x="0" y="-32" width="16" height="16">
0,0,0,0,0,0,0,0,0,0,0,0,0,0,0,0,
0,0,0,0,0,0,0,0,0,0,0,0,0,0,0,0,
0,0,0,0,0,0,0,0,0,0,0,0,0,0,0,0,
0,0,0,0,0,0,0,0,0,0,0,0,0,0,0,0,
0,0,0,0,0,0,0,0,0,0,0,0,0,0,0,0,
0,0,0,0,0,0,0,0,0,0,0,0,0,0,0,0,
0,0,0,0,0,0,0,0,0,0,0,0,0,0,0,0,
0,0,0,0,0,0,0,0,0,0,0,0,0,0,0,0,
0,0,0,0,119,0,0,0,0,0,0,0,0,0,0,0,
0,0,0,0,0,0,0,0,0,0,0,0,0,0,0,0,
0,0,0,0,70,0,0,0,0,0,0,0,0,0,0,0,
0,0,0,0,119,0,0,0,0,0,0,0,0,0,0,0,
0,0,0,0,0,0,0,0,0,0,0,0,0,0,0,0,
0,0,0,0,0,0,0,0,0,0,0,0,0,0,0,0,
0,0,0,0,0,0,70,0,0,0,0,0,0,0,0,0,
0,0,0,0,0,0,0,0,0,0,0,0,0,0,0,0
</chunk>
   <chunk x="-32" y="-16" width="16" height="16">
0,0,0,0,0,0,0,0,0,0,0,0,0,119,0,0,
0,0,0,0,0,0,0,0,0,0,0,0,0,0,0,0,
0,0,0,0,0,0,0,0,0,0,0,0,0,0,0,0,
0,0,0,0,0,0,0,0,0,0,0,0,0,0,0,0,
0,0,0,0,0,0,0,0,0,0,0,0,0,0,0,0,
0,0,0,0,0,0,0,0,0,0,0,0,0,0,0,0,
0,0,0,0,0,0,0,0,0,0,0,0,0,0,0,0,
0,0,0,0,0,0,0,0,0,0,0,0,118,0,0,0,
0,0,0,0,0,0,0,0,0,0,0,0,0,0,0,0,
0,0,0,0,0,0,0,0,0,0,0,0,0,0,0,0,
0,0,0,0,0,0,0,0,0,0,0,0,0,0,0,0,
0,0,0,0,0,0,0,0,0,0,0,0,0,0,0,0,
0,0,0,0,0,0,0,0,0,0,0,0,0,0,0,0,
0,0,0,0,0,0,0,0,0,0,0,0,0,0,0,0,
0,0,0,0,0,0,0,0,0,0,0,0,0,0,0,0,
0,0,0,0,0,0,0,0,0,0,0,0,0,0,0,0
</chunk>
   <chunk x="-16" y="-16" width="16" height="16">
0,0,167,0,0,0,119,0,119,0,0,0,0,0,0,0,
0,0,0,0,0,0,0,0,0,0,0,0,0,0,0,0,
0,0,0,0,0,0,0,0,0,0,0,0,0,0,0,0,
0,0,0,0,0,0,0,0,0,0,0,0,0,0,0,0,
0,0,0,0,0,0,0,0,0,0,0,0,0,0,0,0,
0,0,0,0,0,0,166,0,0,0,0,0,0,0,0,0,
0,0,0,0,0,0,0,0,0,0,0,0,0,0,0,0,
0,0,0,0,166,0,0,118,0,0,0,0,0,0,0,0,
0,0,0,119,0,0,0,0,0,0,0,0,0,0,0,0,
118,0,0,166,0,0,0,0,0,71,0,0,0,0,0,0,
0,0,0,0,0,0,0,0,0,0,0,0,0,0,0,0,
0,0,0,0,0,0,0,0,0,0,0,0,0,0,0,0,
0,0,0,0,0,0,0,0,0,0,0,0,0,0,0,0,
0,0,0,0,0,0,0,0,0,23,0,0,0,0,0,0,
0,0,0,0,0,0,0,0,0,0,166,0,0,0,0,0,
0,0,0,0,0,0,0,0,0,0,0,0,0,0,0,0
</chunk>
   <chunk x="0" y="-16" width="16" height="16">
0,0,0,0,0,0,0,0,119,0,0,0,0,167,0,0,
0,0,0,0,0,0,0,0,0,0,0,0,0,0,0,0,
0,0,0,0,0,0,0,0,0,0,0,0,0,0,0,0,
0,0,0,0,0,0,0,0,0,0,0,0,0,0,0,0,
0,0,0,0,0,0,0,0,0,0,0,0,0,0,0,0,
0,0,0,0,0,0,0,0,118,0,0,0,0,0,0,0,
0,0,0,0,0,0,0,0,0,0,0,0,0,0,0,0,
0,0,0,0,0,0,0,0,118,0,118,0,166,0,0,0,
0,0,0,0,0,0,0,0,0,0,0,0,0,0,0,0,
0,0,0,0,0,0,0,70,0,0,0,0,118,0,166,0,
0,0,0,0,0,0,0,0,0,0,0,0,0,0,0,0,
0,0,0,0,0,0,0,0,0,0,0,0,0,0,0,0,
0,0,0,0,0,0,0,70,0,0,0,0,0,0,0,0,
0,0,0,0,0,0,0,0,0,0,0,0,0,0,0,0,
0,0,0,0,118,166,0,0,0,0,0,0,0,0,0,0,
0,0,0,0,0,0,0,0,0,0,0,0,0,0,0,0
</chunk>
   <chunk x="16" y="-16" width="16" height="16">
0,167,0,0,0,0,0,0,0,0,0,0,0,0,0,0,
0,0,0,0,0,0,0,0,0,0,0,0,0,0,0,0,
0,0,0,0,0,0,0,0,0,0,0,0,0,0,0,0,
0,0,0,0,0,0,0,0,0,0,0,0,0,0,0,0,
0,0,0,0,0,0,0,0,0,0,0,0,0,0,0,0,
0,0,0,0,0,0,0,0,0,0,0,0,0,0,0,0,
0,0,0,0,0,0,0,0,0,0,0,0,0,0,0,0,
0,0,0,166,0,0,0,0,0,0,0,0,0,0,0,0,
0,0,0,0,0,0,0,0,0,0,0,0,0,0,0,0,
0,118,0,0,0,0,0,0,0,0,0,0,0,0,0,0,
0,0,0,0,0,0,0,0,0,0,0,0,0,0,0,0,
0,0,0,0,0,0,0,0,0,0,0,0,0,0,0,0,
0,0,0,0,0,0,0,0,0,0,0,0,0,0,0,0,
0,0,0,0,0,0,0,0,0,0,0,0,0,0,0,0,
0,0,0,0,0,0,0,0,0,0,0,0,0,0,0,0,
0,0,0,0,0,0,0,0,0,0,0,0,0,0,0,0
</chunk>
   <chunk x="-16" y="0" width="16" height="16">
0,0,0,0,0,0,0,0,0,0,118,0,166,0,0,0,
0,0,0,0,0,0,0,0,0,0,0,0,0,0,0,0,
0,0,0,0,0,0,0,0,0,0,0,0,0,0,0,0,
0,0,0,0,0,0,0,0,0,0,0,0,0,0,0,0,
0,0,0,0,0,0,0,0,0,0,0,0,0,0,0,0,
0,0,0,0,0,0,0,0,0,0,0,0,0,0,0,0,
0,0,0,0,0,0,0,0,0,0,0,0,0,0,0,0,
0,0,0,0,0,0,0,0,0,0,0,0,0,0,0,0,
0,0,0,0,0,0,0,0,0,0,0,0,0,0,0,0,
0,0,0,0,0,0,0,0,0,0,0,0,0,0,0,0,
0,0,0,0,0,0,0,0,0,0,0,0,0,0,0,0,
0,0,0,0,0,0,0,0,0,0,0,0,0,0,0,0,
0,0,0,0,0,0,0,0,0,0,0,0,0,0,0,0,
0,0,0,0,0,0,0,0,0,0,0,0,0,0,0,0,
0,0,0,0,0,0,0,0,0,0,0,0,0,0,0,0,
0,0,0,0,0,0,0,0,0,0,0,0,0,0,0,0
</chunk>
   <chunk x="0" y="0" width="16" height="16">
0,0,0,166,0,0,118,0,0,0,0,0,0,0,0,0,
0,0,0,0,0,0,0,0,0,0,0,0,0,0,0,0,
0,0,0,0,0,0,0,0,0,0,0,0,0,0,0,0,
0,0,0,0,0,0,0,0,0,0,0,0,0,0,0,0,
0,0,0,0,0,0,0,0,0,0,0,0,0,0,0,0,
0,0,0,0,0,0,0,0,0,0,0,0,0,0,0,0,
0,0,0,0,0,0,0,0,0,0,0,0,0,0,0,0,
0,0,0,0,0,0,0,0,0,0,0,0,0,0,0,0,
0,0,0,0,0,0,0,0,0,0,0,0,0,0,0,0,
0,0,0,0,0,0,0,0,0,0,0,0,0,0,0,0,
0,0,0,0,0,0,0,0,0,0,0,0,0,0,0,0,
0,0,0,0,0,0,0,0,0,0,0,0,0,0,0,0,
0,0,0,0,0,0,0,0,0,0,0,0,0,0,0,0,
0,0,0,0,0,0,0,0,0,0,0,0,0,0,0,0,
0,0,0,0,0,0,0,0,0,0,0,0,0,0,0,0,
0,0,0,0,0,0,0,0,0,0,0,0,0,0,0,0
</chunk>
  </data>
 </layer>
 <objectgroup id="3" name="Node">
  <object id="76" name="door_1" type="+" x="-48" y="-16">
   <point/>
  </object>
  <object id="104" x="-304" y="-368" width="640" height="416"/>
  <object id="124" name="@" x="-16" y="48" width="48" height="16">
   <properties>
    <property name="scene" value="Gardens5"/>
    <property name="target" value="door_3"/>
   </properties>
  </object>
  <object id="127" name="@" x="-320" y="-232" width="16" height="80">
   <properties>
    <property name="scene" value="Gardens7"/>
    <property name="target" value="door_1"/>
   </properties>
  </object>
  <object id="128" name="door_2" type="+" x="-288" y="-160">
   <point/>
  </object>
  <object id="129" name="@" x="336" y="-232" width="16" height="80">
   <properties>
    <property name="scene" value="Gardens8"/>
    <property name="target" value="door_1"/>
   </properties>
  </object>
  <object id="131" name="door_3" type="+" x="312" y="-160">
   <point/>
  </object>
  <object id="133" name="*" x="-48" y="-368" width="16" height="40"/>
  <object id="134" name="*" x="-32" y="-384" width="16" height="24"/>
  <object id="135" name="*" x="48" y="-368" width="16" height="40"/>
  <object id="136" name="*" x="32" y="-384" width="16" height="24"/>
  <object id="137" type="_" x="288" y="-160" width="48" height="16"/>
  <object id="138" type="_" x="-304" y="-160" width="48" height="16"/>
  <object id="139" type="_" x="-96" y="-16" width="80" height="16"/>
  <object id="140" type="_" x="-176" y="-160" width="80" height="16"/>
  <object id="141" type="_" x="112" y="-160" width="80" height="16"/>
 </objectgroup>
 <objectgroup id="2" name="Collision">
  <properties>
   <property name="collision" type="bool" value="true"/>
  </properties>
  <object id="70" x="-96" y="0" width="80" height="16"/>
  <object id="71" x="32" y="0" width="96" height="16"/>
  <object id="72" x="-112" y="-144" width="16" height="160"/>
  <object id="73" x="-32" y="16" width="16" height="80"/>
  <object id="74" x="32" y="16" width="16" height="80"/>
  <object id="75" x="112" y="-144" width="16" height="144"/>
  <object id="83" x="-112" y="-272" width="16" height="32"/>
  <object id="84" x="112" y="-272" width="16" height="32"/>
  <object id="87" x="-96" y="-288" width="16" height="32"/>
  <object id="90" x="-96" y="-304" width="32" height="16"/>
  <object id="91" x="-80" y="-336" width="16" height="32"/>
  <object id="95" x="-64" y="-384" width="16" height="64"/>
  <object id="96" x="64" y="-384" width="16" height="48"/>
  <object id="97" x="64" y="-336" width="32" height="16"/>
  <object id="98" x="80" y="-320" width="16" height="32"/>
  <object id="99" x="96" y="-304" width="16" height="48"/>
  <object id="101" x="128" y="-144" width="64" height="16"/>
  <object id="102" x="-368" y="-256" width="256" height="16"/>
  <object id="103" x="-176" y="-144" width="64" height="16"/>
  <object id="106" x="-368" y="-144" width="112" height="16"/>
  <object id="107" x="-272" y="-128" width="16" height="32"/>
  <object id="108" x="-256" y="-112" width="96" height="16"/>
  <object id="109" x="-176" y="-128" width="16" height="16"/>
  <object id="111" x="176" y="-128" width="16" height="32"/>
  <object id="112" x="192" y="-112" width="112" height="16"/>
  <object id="113" x="288" y="-144" width="16" height="32"/>
  <object id="114" x="304" y="-144" width="64" height="16"/>
  <object id="115" x="128" y="-256" width="240" height="16"/>
  <object id="116" x="-368" y="-240" width="16" height="96"/>
  <object id="117" x="368" y="-256" width="16" height="128"/>
  <object id="118" x="-32" y="-176" width="64" height="8">
   <properties>
    <property name="one_way" type="bool" value="true"/>
   </properties>
  </object>
  <object id="120" x="-64" y="-128" width="112" height="8">
   <properties>
    <property name="one_way" type="bool" value="true"/>
   </properties>
  </object>
  <object id="121" x="64" y="-64" width="48" height="8">
   <properties>
    <property name="one_way" type="bool" value="true"/>
   </properties>
  </object>
  <object id="122" x="-96" y="-64" width="48" height="8">
   <properties>
    <property name="one_way" type="bool" value="true"/>
   </properties>
  </object>
  <object id="123" x="-16" y="80" width="48" height="16"/>
  <object id="125" x="-48" y="-384" width="16" height="16"/>
  <object id="126" x="48" y="-384" width="16" height="16"/>
 </objectgroup>
</map>
