<?xml version="1.0" encoding="UTF-8"?>
<map version="1.10" tiledversion="1.12.1" orientation="orthogonal" renderorder="right-down" width="30" height="20" tilewidth="16" tileheight="16" infinite="1" nextlayerid="9" nextobjectid="438">
 <tileset firstgid="1" source="../Atlas.tsx"/>
 <layer id="1" name="Main" width="30" height="20">
  <properties>
   <property name="layer" type="int" value="1"/>
  </properties>
  <data encoding="csv">
   <chunk x="-64" y="-48" width="16" height="16">
0,0,0,0,0,0,0,0,0,0,0,0,0,0,0,0,
0,0,0,0,0,0,0,0,0,0,0,0,0,0,0,0,
0,0,0,0,0,0,0,0,0,0,0,0,0,0,0,0,
0,0,0,0,0,0,0,0,0,0,0,0,0,0,0,0,
0,0,0,0,0,0,0,0,0,0,0,0,0,0,0,0,
0,0,0,0,0,0,0,0,0,0,0,0,0,0,0,0,
0,0,0,0,0,0,0,0,0,0,0,0,0,0,0,0,
0,0,0,0,0,0,0,0,0,0,0,0,0,0,0,0,
0,0,0,0,0,1064,1064,1064,1064,1064,1064,1064,1064,1064,1064,1064,
0,0,0,0,0,1064,1064,1064,1064,1064,1064,1064,1064,1064,1064,1064,
0,0,0,0,0,1064,1064,1064,1064,1064,1064,1064,1064,1064,1064,1064,
0,0,0,0,0,1064,1064,1064,1064,1064,1064,1064,1064,1064,1064,1064,
0,0,0,0,0,1064,1064,1064,1064,1064,1064,1064,1064,1064,1064,1064,
0,0,0,0,0,1064,1064,1064,1064,1064,1064,1064,1064,1064,1064,1064,
0,0,0,0,0,1064,1064,1064,1064,1064,1064,1064,1064,1064,1064,1064,
0,0,0,0,0,1064,1064,1064,1064,1064,1064,1064,1064,1064,1064,1064
</chunk>
   <chunk x="-48" y="-48" width="16" height="16">
0,0,0,0,0,0,0,0,0,0,0,0,0,0,0,0,
0,0,0,0,0,0,0,0,0,0,0,0,0,0,0,0,
0,0,0,0,0,0,0,0,0,0,0,0,0,0,0,0,
0,0,0,0,0,0,0,0,0,0,0,0,0,0,0,0,
0,0,0,0,0,0,0,0,0,0,0,0,0,0,0,0,
0,0,0,0,0,0,0,0,0,0,0,0,0,0,0,0,
0,0,0,0,0,0,0,0,0,0,0,0,0,0,0,0,
0,0,0,0,0,0,0,0,0,0,0,0,0,0,0,0,
1064,1064,1064,1064,1064,1064,1064,1064,1064,1064,1064,1064,1064,1064,1064,1064,
1064,1064,1064,1064,1064,1064,1064,1064,1064,1064,1064,1064,1064,1064,1064,1064,
1064,1064,1064,1064,1064,1064,1064,1064,1064,1064,1064,1064,1064,1064,1064,1064,
1064,1064,1064,1064,1064,1064,1064,1064,1064,1064,1064,1064,1064,1064,1064,1064,
1064,1064,1064,1064,1064,1064,1064,1064,1064,1064,1064,1064,1064,1064,1064,1064,
1064,1064,1064,1064,1064,1064,1064,1064,1064,1064,1064,1064,1064,1064,1064,1064,
1064,1064,1064,1064,1064,1064,1064,1064,1064,1064,1064,1064,1064,1064,1064,1064,
1064,1064,1064,1064,1064,1064,1064,1064,1064,1064,1064,1064,1064,1064,1064,1064
</chunk>
   <chunk x="-32" y="-48" width="16" height="16">
0,0,0,0,0,0,0,0,0,0,0,0,0,0,0,0,
0,0,0,0,0,0,0,0,0,0,0,0,0,0,0,0,
0,0,0,0,0,0,0,0,0,0,0,0,0,0,0,0,
0,0,0,0,0,0,0,0,0,0,0,0,0,0,0,0,
0,0,0,0,0,0,0,0,0,0,0,0,0,0,0,0,
0,0,0,0,0,0,0,0,0,0,0,0,0,0,0,0,
0,0,0,0,0,0,0,0,0,0,0,0,0,0,0,0,
0,0,0,0,0,0,0,0,0,0,0,0,0,0,0,0,
1064,1064,1064,1064,1064,1064,1064,1064,1064,1064,1064,1064,1064,1064,1064,1064,
1064,1064,1064,1064,1064,1064,1064,1064,1064,1064,1064,1064,1064,1064,1064,1064,
1064,1064,1064,1064,1064,1064,1064,1064,1064,1064,1064,1064,1064,1064,1064,1064,
1064,1064,1064,1064,1064,1064,1064,1064,1064,1064,1064,1064,1064,1064,1064,1064,
1064,1064,1064,1064,1064,1064,1064,1064,1064,1064,1064,1064,1064,1064,1064,1064,
1064,1064,1064,1064,1064,1064,1064,1064,1064,1064,1064,1064,1064,1064,1064,1064,
1064,1064,1064,1064,1064,1064,1064,1064,1064,1064,1064,1064,1064,1064,1064,1064,
1064,1064,1064,1064,1064,1064,1064,1064,1064,1064,1064,1064,1064,1064,1064,1064
</chunk>
   <chunk x="-16" y="-48" width="16" height="16">
0,0,0,0,0,0,0,0,0,0,0,0,0,0,0,0,
0,0,0,0,0,0,0,0,0,0,0,0,0,0,0,0,
0,0,0,0,0,0,0,0,0,0,0,0,0,0,0,0,
0,0,0,0,0,0,0,0,0,0,0,0,0,0,0,0,
0,0,0,0,0,0,0,0,0,0,0,0,0,0,0,0,
0,0,0,0,0,0,0,0,0,0,0,0,0,0,0,0,
0,0,0,0,0,0,0,0,0,0,0,0,0,0,0,0,
0,0,0,0,0,0,0,0,0,0,0,0,0,0,0,0,
1064,1064,1064,1064,1064,1064,1064,1064,1064,1064,1064,1064,1064,1064,1064,1064,
1064,1064,1064,1064,1064,1064,1064,1064,1064,1064,1064,1064,1064,1064,1064,1064,
1064,1064,1064,1064,1064,1064,1064,1064,1064,1064,1064,1064,1064,1064,1064,1064,
1064,1064,1064,1064,1064,1064,1064,1064,1064,1064,1064,1064,1064,1064,1064,1064,
1064,1064,1064,1064,1064,1064,1064,1064,1064,1064,1064,1064,1064,1064,1064,1064,
1064,1064,1064,1064,1064,1064,1064,1064,1064,1064,1064,1064,1064,1064,1064,1064,
1064,1064,1064,1064,1064,1064,1064,1064,1064,1064,1064,1064,1064,1064,1064,1064,
1064,1064,1064,1064,1064,1064,1064,1064,1064,1064,1064,1064,1064,1064,1064,1064
</chunk>
   <chunk x="0" y="-48" width="16" height="16">
0,0,0,0,0,0,0,0,0,0,0,0,0,0,0,0,
0,0,0,0,0,0,0,0,0,0,0,0,0,0,0,0,
0,0,0,0,0,0,0,0,0,0,0,0,0,0,0,0,
0,0,0,0,0,0,0,0,0,0,0,0,0,0,0,0,
0,0,0,0,0,0,0,0,0,0,0,0,0,0,0,0,
0,0,0,0,0,0,0,0,0,0,0,0,0,0,0,0,
0,0,0,0,0,0,0,0,0,0,0,0,0,0,0,0,
0,0,0,0,0,0,0,0,0,0,0,0,0,0,0,0,
1064,1064,1064,1064,1064,1064,1064,1064,1064,1064,1064,1064,1064,1064,1064,1064,
1064,1064,1064,1064,1064,1064,1064,1064,1064,1064,1064,1064,1064,1064,1064,1064,
1064,1064,1064,1064,1064,1064,1064,1064,1064,1064,1064,1064,1064,1064,1064,1064,
1064,1064,1064,1064,1064,1064,1064,1064,1064,1064,1064,1064,1064,1064,1064,1064,
1064,1064,1064,1064,1064,1064,1064,1064,1064,1064,1064,1064,1064,1064,1064,1064,
1064,1064,1064,1064,1064,1064,1064,1064,1064,1064,1064,1064,1064,1064,1064,1064,
1064,1064,1064,1064,1064,1064,1064,1064,1064,1064,1064,1064,1064,1064,1064,1064,
1064,1064,1064,1064,1064,1064,1064,1064,1064,1064,1064,1064,1064,1064,1064,1064
</chunk>
   <chunk x="16" y="-48" width="16" height="16">
0,0,0,0,0,0,0,0,0,0,0,0,0,0,0,0,
0,0,0,0,0,0,0,0,0,0,0,0,0,0,0,0,
0,0,0,0,0,0,0,0,0,0,0,0,0,0,0,0,
0,0,0,0,0,0,0,0,0,0,0,0,0,0,0,0,
0,0,0,0,0,0,0,0,0,0,0,0,0,0,0,0,
0,0,0,0,0,0,0,0,0,0,0,0,0,0,0,0,
0,0,0,0,0,0,0,0,0,0,0,0,0,0,0,0,
0,0,0,0,0,0,0,0,0,0,0,0,0,0,0,0,
1064,1064,1064,1064,0,0,0,0,0,0,0,0,0,0,0,0,
1064,1064,1064,1064,0,0,0,0,0,0,0,0,0,0,0,0,
1064,1064,1064,1064,0,0,0,0,0,0,0,0,0,0,0,0,
1064,1064,1064,1064,0,0,0,0,0,0,0,0,0,0,0,0,
1064,1064,1064,1064,0,0,0,0,0,0,0,0,0,0,0,0,
1064,1064,1064,1064,0,0,0,0,0,0,0,0,0,0,0,0,
1064,1064,1064,1064,0,0,0,0,0,0,0,0,0,0,0,0,
1064,1064,1064,1064,0,0,0,0,0,0,0,0,0,0,0,0
</chunk>
   <chunk x="-64" y="-32" width="16" height="16">
0,0,0,0,0,1064,1064,1064,1064,1064,1064,1064,1064,1064,1064,1064,
0,0,0,0,0,1064,1064,1064,1064,1064,1064,1064,1064,1064,1064,1064,
0,0,0,0,0,1064,1064,1064,1064,1064,1064,1064,1064,1064,1064,1064,
0,0,0,0,0,1064,1064,1064,1064,1064,1064,1064,1064,1064,1064,1064,
0,0,0,0,0,1064,1064,1064,1064,1064,1064,1064,1064,1064,1064,1064,
0,0,0,0,0,1064,1064,1064,1064,1064,1064,1064,1064,1064,1064,1064,
0,0,0,0,0,1064,1064,1064,1064,1064,1064,1064,1064,1064,1064,1064,
0,0,0,0,0,1064,1064,1064,1064,1064,1064,1064,1064,1064,1064,1064,
0,0,0,0,0,1064,1064,1064,1064,1064,1064,1064,1064,1064,1064,1064,
0,0,0,0,0,1064,1064,1064,1064,1064,1064,1064,1064,1064,1064,1064,
0,0,0,0,0,1064,1064,1064,1064,1064,1064,1064,1064,1064,1064,1064,
0,0,0,0,0,1064,1064,1064,1064,1064,1064,1064,1064,1064,1064,1064,
0,0,0,0,0,1064,1064,1064,1064,1064,1064,1064,1064,1064,1064,1064,
0,0,0,0,0,1064,1064,1064,1064,1064,1064,1064,1064,1064,1064,1064,
0,0,0,0,0,1064,1064,1064,1064,1064,1064,1064,1064,1064,1064,1064,
0,0,0,0,0,1064,1064,1064,1064,1064,1064,1064,1064,1064,1064,1064
</chunk>
   <chunk x="-48" y="-32" width="16" height="16">
1064,1064,1064,1064,1064,1064,1064,1064,1064,1064,1064,1064,1064,1064,1064,1064,
1064,1064,1064,1064,1064,1064,1064,1064,1064,1064,1064,1064,1064,1064,1064,1064,
1064,1064,1064,1064,1064,1064,1064,1064,1064,1064,1064,1064,1064,1064,1064,1064,
1064,1064,1064,1064,1064,1064,1064,1064,1064,1064,1064,1064,1064,1064,1064,1064,
1064,1064,1064,1064,1064,1064,1064,1064,1064,1064,1064,1064,1064,1064,1064,1064,
1064,1064,1064,1064,1064,1064,1064,1064,1064,1064,1064,1064,1064,1064,1064,1064,
1064,1064,1064,1064,1064,1064,1064,1064,1064,1064,1064,0,1064,1064,1064,1064,
1064,1064,1064,1064,1064,1067,1112,1112,1112,1112,1112,1112,1112,1112,1112,1112,
1064,1064,1064,1064,1064,1064,1065,0,0,0,0,0,0,0,0,0,
1064,1064,1064,1064,1064,1064,1065,0,0,0,0,0,0,0,0,0,
1064,1064,1064,1064,1067,1112,1113,0,0,0,0,0,0,0,0,0,
1064,1064,1064,1064,1064,1065,0,0,0,0,0,0,0,0,0,0,
1064,1064,1064,1067,1112,1113,0,0,0,0,0,0,0,0,0,0,
1064,1064,1064,1064,1065,0,0,0,0,0,0,0,0,0,0,0,
1064,1064,1064,1064,1065,0,0,0,0,0,0,0,0,0,0,0,
1064,1064,1064,1064,1065,0,0,0,0,0,0,0,0,0,0,0
</chunk>
   <chunk x="-32" y="-32" width="16" height="16">
1064,1064,1064,1064,1064,1064,1064,1064,1064,1064,1064,1064,1064,1064,1064,1064,
1064,1064,1064,1064,1064,1064,1064,1064,1064,1064,1064,1064,1064,1064,1064,1064,
1064,1064,1064,1064,1064,1064,1064,1064,1064,1064,1064,1064,1064,1064,1064,1064,
1064,1064,1064,1064,1064,1064,1064,1064,1064,1064,1064,1064,1064,1064,1064,1064,
1064,1064,1064,1064,1064,1064,1064,1064,1064,1064,1064,1064,1064,1064,1064,1064,
1064,1064,1064,1064,1064,1064,1064,1064,1064,1064,1064,1064,1064,1064,1064,1064,
1064,1064,1064,1064,1064,1064,1064,1064,1064,1064,1064,1064,1064,1064,1064,1064,
1112,1068,1064,1064,1064,1064,1064,1064,1064,1064,1064,1064,1064,1064,1064,1064,
1063,1064,1064,1064,1064,1064,1064,1064,1064,1064,1064,1064,1064,1064,1064,1064,
1111,1112,1068,1064,1064,1064,1064,1064,1067,1112,1112,1112,1112,1112,1112,1112,
0,1111,1112,1112,1112,1112,1112,1112,1112,1113,0,0,0,0,0,0,
0,0,0,0,0,0,0,0,0,0,0,0,0,0,0,0,
0,0,0,0,0,0,0,0,0,0,0,0,0,0,0,0,
0,0,0,0,0,0,0,0,0,0,0,0,0,0,0,0,
0,0,0,0,0,0,0,0,0,0,0,0,0,0,0,0,
0,0,0,0,0,0,0,0,0,0,0,0,0,0,0,0
</chunk>
   <chunk x="-16" y="-32" width="16" height="16">
1064,1064,1064,1064,1064,1064,1064,1064,1064,1064,1064,1064,1064,1064,1064,1064,
1064,1064,1064,1064,1064,1064,1064,1064,1064,1064,1064,1064,1064,1064,1064,1064,
1064,1064,1064,1064,1064,1064,1064,1064,1064,1064,1064,1064,1064,1064,1064,1064,
1064,1064,1064,1064,1064,1064,1064,1064,1064,1064,1064,1064,1064,1064,1064,1064,
1064,1064,1064,1064,1064,1064,1064,1064,1064,1064,1064,1064,1064,1064,1064,1064,
1064,1064,1064,1064,1064,1064,1064,1064,1064,1064,1064,1064,1064,1064,1064,1064,
1064,1064,1064,1064,1064,1064,1064,1064,1064,1064,1064,1064,1064,1064,1064,1064,
1064,1064,1064,1064,1064,1064,1064,1064,1064,1064,1064,1064,1064,1064,1064,1064,
1064,1064,1064,1064,1064,1064,1064,1064,1064,1064,1064,1064,1064,1067,1112,1112,
1112,1112,1112,1112,1112,1112,1068,1064,1064,1064,1064,1067,1112,1112,1113,0,
0,0,0,0,0,1111,1112,1112,1112,1112,1112,1112,1113,0,0,0,
0,0,0,0,0,0,0,0,0,0,0,0,0,0,0,0,
0,0,0,0,0,0,0,0,0,0,0,0,0,0,0,0,
0,0,0,0,0,0,0,0,0,0,0,0,0,0,0,0,
0,0,0,0,0,0,0,0,0,0,0,0,0,0,0,0,
0,0,0,0,0,0,0,0,0,0,0,0,0,0,0,0
</chunk>
   <chunk x="0" y="-32" width="16" height="16">
1064,1064,1064,1064,1064,1064,1064,1064,1064,1064,1064,1064,1064,1064,1064,1064,
1064,1064,1064,1064,1064,1064,1064,1064,1064,1064,1064,1064,1064,1064,1064,1064,
1064,1064,1064,1064,1064,1064,1064,1064,1064,1064,1064,1064,1064,1064,1064,1064,
1064,1064,1064,1064,1064,1064,1064,1064,1064,1064,1064,1064,1064,1064,1064,1064,
1064,1064,1064,1064,1064,1064,1064,1064,1064,1064,1064,1064,1064,1064,1064,1064,
1064,1064,1064,1064,1064,1064,1064,1064,1064,1064,1064,1064,1064,1064,1064,1064,
1064,1064,1064,1064,1064,1064,1064,1064,1064,1064,1064,1064,1064,1064,1064,1064,
1064,1064,1064,1064,1064,1064,1064,1064,1064,1064,1064,1064,1064,1064,1064,1064,
1112,1112,1112,1112,1112,1112,1112,1068,1064,1064,1064,1064,1064,1064,1064,1064,
0,0,0,0,0,0,1111,1112,1112,1068,1064,1064,1064,1064,1064,1064,
0,0,0,0,0,0,0,0,1111,1112,1112,0,1064,1064,1064,1064,
0,0,0,0,0,0,0,0,562,0,1111,1112,1112,1112,1112,1112,
0,0,0,0,0,0,0,0,0,0,0,0,0,0,0,0,
0,0,0,0,0,0,0,0,0,0,0,0,0,0,0,0,
0,0,0,0,0,0,0,0,0,0,0,0,0,0,0,0,
0,0,0,0,0,0,0,0,0,0,0,0,0,0,0,0
</chunk>
   <chunk x="16" y="-32" width="16" height="16">
1064,1064,1064,1064,0,0,0,0,0,0,0,0,0,0,0,0,
1064,1064,1064,1064,0,0,0,0,0,0,0,0,0,0,0,0,
1064,1064,1064,1064,0,0,0,0,0,0,0,0,0,0,0,0,
1064,1064,1064,1064,0,0,0,0,0,0,0,0,0,0,0,0,
1064,1064,1064,1064,0,0,0,0,0,0,0,0,0,0,0,0,
1064,1064,1064,1064,0,0,0,0,0,0,0,0,0,0,0,0,
1064,1064,1064,1064,0,0,0,0,0,0,0,0,0,0,0,0,
1064,1064,1064,1064,0,0,0,0,0,0,0,0,0,0,0,0,
1064,1064,1064,1064,0,0,0,0,0,0,0,0,0,0,0,0,
1064,1064,1064,1064,0,0,0,0,0,0,0,0,0,0,0,0,
1064,1064,1064,1064,0,0,0,0,0,0,0,0,0,0,0,0,
1064,1064,1064,1064,0,0,0,0,0,0,0,0,0,0,0,0,
1064,1064,1064,1064,0,0,0,0,0,0,0,0,0,0,0,0,
1064,1064,1064,1064,0,0,0,0,0,0,0,0,0,0,0,0,
1064,1064,1064,1064,0,0,0,0,0,0,0,0,0,0,0,0,
1064,1064,1064,1064,0,0,0,0,0,0,0,0,0,0,0,0
</chunk>
   <chunk x="-64" y="-16" width="16" height="16">
0,0,0,0,0,1064,1064,1064,1064,1064,1064,1064,1064,1064,1064,1064,
0,0,0,0,0,1064,1064,1064,1064,1064,1064,1064,1064,1064,1064,1064,
0,0,0,0,0,1064,1064,1064,1064,1064,1064,1064,1064,1064,1064,1064,
0,0,0,0,0,1064,1064,1064,1064,1064,1064,1064,1064,1064,1064,1064,
0,0,0,0,0,1064,1064,1064,1064,1064,1064,1064,1064,1064,1064,1064,
0,0,0,0,0,1064,1064,1064,1064,1064,1064,1064,1064,1064,1064,1064,
0,0,0,0,0,1064,1064,1064,1064,1064,1064,1064,1064,1064,1064,1064,
0,0,0,0,0,1064,1064,1064,1064,1064,1064,1064,1064,1064,1064,1064,
0,0,0,0,0,1064,1064,1064,1064,1064,1064,1064,1064,1064,1064,1064,
0,0,0,0,0,1064,1064,1064,1064,1064,1064,1064,1064,1064,1064,1064,
0,0,0,0,0,1064,1064,1064,1064,1064,1064,1064,1064,1064,1064,1064,
0,0,0,0,0,1064,1064,1064,1064,1064,1064,1064,1064,1064,1064,1064,
0,0,0,0,0,1064,1064,1064,1064,1064,1064,1064,1064,1064,1064,1064,
0,0,0,0,0,1064,1064,1064,1064,1064,1064,1064,1064,1064,1064,1064,
0,0,0,0,0,1064,1064,1064,1064,1064,1064,1064,1064,1064,1064,1064,
0,0,0,0,0,1064,1064,1064,1064,1064,1064,1064,1064,1064,1064,1064
</chunk>
   <chunk x="-48" y="-16" width="16" height="16">
1064,1064,1064,1064,1065,0,0,0,0,0,1015,1016,1017,0,0,0,
1064,1064,1064,1064,1065,0,0,0,0,1015,1016,0,1016,1017,0,0,
1064,1064,1064,1115,1016,1017,0,0,0,1063,1064,0,1064,1065,0,0,
1064,1064,1064,1064,1064,1065,0,0,0,1063,1064,0,1064,1065,0,0,
1064,1064,1064,1064,1115,1016,1017,0,0,1063,1064,1064,1064,1065,0,0,
1064,1064,1064,1064,1064,1064,1065,0,0,1063,1064,1064,1064,1065,0,0,
1064,1064,1064,1064,1064,1064,1065,0,0,1063,1064,1064,1064,1065,0,0,
1064,1064,1064,1064,1064,1115,1016,1016,1016,1016,1016,1064,1016,1016,1016,1016,
1064,1064,1064,1064,1064,1064,1064,1064,1064,1064,1064,1064,1064,1064,1064,1064,
1064,1064,1064,1064,1064,1064,1064,1064,1064,1064,1064,1064,1064,1064,1064,1064,
1064,1064,1064,1064,1064,1064,1064,1064,1064,1064,1064,1064,1064,1064,1064,1064,
1064,1064,1064,1064,1064,1064,1064,1064,1064,1064,1064,1064,1064,1064,1064,1064,
1064,1064,1064,1064,1064,1064,1064,1064,1064,1064,1064,1064,1064,1064,1064,1064,
1064,1064,1064,1064,1064,1064,1064,1064,1064,1064,1064,1064,1064,1064,1064,1064,
1064,1064,1064,1064,1064,1064,1064,1064,1064,1064,1064,1064,1064,1064,1064,1064,
1064,1064,1064,1064,1064,1064,1064,1064,1064,1064,1064,1064,1064,1064,1064,1064
</chunk>
   <chunk x="-32" y="-16" width="16" height="16">
0,0,0,0,0,0,0,0,0,0,0,0,0,0,0,0,
497,498,501,0,0,0,0,0,547,0,0,0,0,0,0,0,
495,1123,495,1121,0,547,0,0,496,0,0,0,0,547,0,0,
495,1015,1016,1016,1016,1016,1016,1016,1016,1017,0,0,0,496,0,0,
1015,1016,1116,1064,1064,1064,1064,1064,1115,1016,1016,1016,1016,1016,1016,1016,
1063,1064,1064,1064,1064,1064,1064,1064,1064,1064,1064,1064,1064,1064,1064,1064,
1063,1064,1064,1064,1064,1064,1064,1064,1064,1064,1064,1064,1064,1064,1064,1064,
1016,1116,1064,1064,1064,1064,1064,1064,1064,1064,1064,1064,1064,1064,1064,1064,
1064,1064,1064,1064,1064,1064,1064,1064,1064,1064,1064,1064,1064,1064,1064,1064,
1064,1064,1064,1064,1064,1064,1064,1064,1064,1064,1064,1064,1064,1064,1064,1064,
1064,1064,1064,1064,1064,1064,1064,1064,1064,1064,1064,1064,1064,1064,1064,1064,
1064,1064,1064,1064,1064,1064,1064,1064,1064,1064,1064,1064,1064,1064,1064,1064,
1064,1064,1064,1064,1064,1064,1064,1064,1064,1064,1064,1064,1064,1064,1064,1064,
1064,1064,1064,1064,1064,1064,1064,1064,1064,1064,1064,1064,1064,1064,1064,1064,
1064,1064,1064,1064,1064,1064,1064,1064,1064,1064,1064,1064,1064,1064,1064,1064,
1064,1064,1064,1064,1064,1064,1064,1064,1064,1064,1064,1064,1064,1064,1064,1064
</chunk>
   <chunk x="-16" y="-16" width="16" height="16">
0,0,0,0,0,0,0,0,0,0,0,0,0,0,0,0,
0,0,0,0,0,0,0,0,0,0,0,0,0,0,0,0,
0,0,0,0,0,0,497,498,498,501,0,0,0,547,0,0,
0,547,0,0,0,1015,1016,1016,1016,1016,1016,1016,1017,495,0,0,
1016,1016,1016,1016,1016,1016,1116,1064,1064,1064,1064,1115,1016,1016,1017,0,
1064,1064,1064,1064,1064,1064,1064,1064,1064,1064,1064,1064,1064,1115,1016,1016,
1064,1064,1064,1064,1064,1064,1064,1064,1064,1064,1064,1064,1064,1064,1064,1064,
1064,1064,1064,1064,1064,1064,1064,1064,1064,1064,1064,1064,1064,1064,1064,1064,
1064,1064,1064,1064,1064,1064,1064,1064,1064,1064,1064,1064,1064,1064,1064,1064,
1064,1064,1064,1064,1064,1064,1064,1064,1064,1064,1064,1064,1064,1064,1064,1064,
1064,1064,1064,1064,1064,1064,1064,1064,1064,1064,1064,1064,1064,1064,1064,1064,
1064,1064,1064,1064,1064,1064,1064,1064,1064,1064,1064,1064,1064,1064,1064,1064,
1064,1064,1064,1064,1064,1064,1064,1064,1064,1064,1064,1064,1064,1064,1064,1064,
1064,1064,1064,1064,1064,1064,1064,1064,1064,1064,1064,1064,1064,1064,1064,1064,
1064,1064,1064,1064,1064,1064,1064,1064,1064,1064,1064,1064,1064,1064,1064,1064,
1064,1064,1064,1064,1064,1064,1064,1064,1064,1064,1064,1064,1064,1064,1064,1064
</chunk>
   <chunk x="0" y="-16" width="16" height="16">
0,497,498,498,498,501,0,0,0,0,0,0,0,0,0,0,
0,495,0,0,0,495,0,0,547,0,0,0,0,0,0,0,
0,495,0,0,0,495,0,0,496,0,0,0,0,0,0,0,
0,495,0,0,497,498,501,0,1015,1016,1016,1016,1016,1016,1016,1016,
0,495,0,0,495,0,1015,1016,1016,1116,1064,1064,1064,1064,1064,1064,
1017,495,0,0,1015,1016,1016,1116,1064,1064,1064,1064,1064,1064,1064,1064,
1065,495,0,0,1063,1064,1064,1064,1064,1064,1064,1064,1064,1064,1064,1064,
1065,495,0,0,1063,1064,1064,1064,1064,1064,1064,1064,1064,1064,1064,1064,
1065,495,0,0,1063,1064,1064,1064,1064,1064,1064,1064,1064,1064,1064,1064,
1065,495,0,0,1063,1064,1064,1064,1064,1064,1064,1064,1064,1064,1064,1064,
1065,495,0,0,1063,1064,1064,1064,1064,1064,1064,1064,1064,1064,1064,1064,
1064,1064,1064,1064,1064,1064,1064,1064,1064,1064,1064,1064,1064,1064,1064,1064,
1064,1064,1064,1064,1064,1064,1064,1064,1064,1064,1064,1064,1064,1064,1064,1064,
1064,1064,1064,1064,1064,1064,1064,1064,1064,1064,1064,1064,1064,1064,1064,1064,
1064,1064,1064,1064,1064,1064,1064,1064,1064,1064,1064,1064,1064,1064,1064,1064,
1064,1064,1064,1064,1064,1064,1064,1064,1064,1064,1064,1064,1064,1064,1064,1064
</chunk>
   <chunk x="16" y="-16" width="16" height="16">
1064,1064,1064,1064,0,0,0,0,0,0,0,0,0,0,0,0,
1064,1064,1064,1064,0,0,0,0,0,0,0,0,0,0,0,0,
1064,1064,1064,1064,0,0,0,0,0,0,0,0,0,0,0,0,
1064,1064,1064,1064,0,0,0,0,0,0,0,0,0,0,0,0,
1064,1064,1064,1064,0,0,0,0,0,0,0,0,0,0,0,0,
1064,1064,1064,1064,0,0,0,0,0,0,0,0,0,0,0,0,
1064,1064,1064,1064,0,0,0,0,0,0,0,0,0,0,0,0,
1064,1064,1064,1064,0,0,0,0,0,0,0,0,0,0,0,0,
1064,1064,1064,1064,0,0,0,0,0,0,0,0,0,0,0,0,
1064,1064,1064,1064,0,0,0,0,0,0,0,0,0,0,0,0,
1064,1064,1064,1064,0,0,0,0,0,0,0,0,0,0,0,0,
1064,1064,1064,1064,0,0,0,0,0,0,0,0,0,0,0,0,
1064,1064,1064,1064,0,0,0,0,0,0,0,0,0,0,0,0,
1064,1064,1064,1064,0,0,0,0,0,0,0,0,0,0,0,0,
1064,1064,1064,1064,0,0,0,0,0,0,0,0,0,0,0,0,
1064,1064,1064,1064,0,0,0,0,0,0,0,0,0,0,0,0
</chunk>
  </data>
 </layer>
 <layer id="8" name="Spikes" width="30" height="20">
  <properties>
   <property name="Spikes" type="int" value="1"/>
  </properties>
  <data encoding="csv">
   <chunk x="-48" y="-32" width="16" height="16">
0,0,0,0,0,0,0,0,0,0,0,0,0,0,0,0,
0,0,0,0,0,0,0,0,0,0,0,0,0,0,0,0,
0,0,0,0,0,0,0,0,0,0,0,0,0,0,0,0,
0,0,0,0,0,0,0,0,0,0,0,0,0,0,0,0,
0,0,0,0,0,0,0,0,0,0,0,0,0,0,0,0,
0,0,0,0,0,0,0,0,0,0,0,0,0,0,0,0,
0,0,0,0,0,0,0,0,0,0,0,0,0,0,0,0,
0,0,0,0,0,0,0,0,0,0,0,0,0,0,0,0,
0,0,0,0,0,0,0,1124,1218,1218,1218,1218,1218,1218,1218,1125,
0,0,0,0,0,0,0,1171,0,0,0,0,0,0,0,1169,
0,0,0,0,0,0,0,1171,0,0,0,0,0,0,0,1217,
0,0,0,0,0,0,1124,1219,0,0,0,0,0,0,0,0,
0,0,0,0,0,0,1171,0,0,0,0,0,0,0,0,0,
0,0,0,0,0,1124,1219,0,0,0,0,0,0,0,0,0,
0,0,0,0,0,1171,0,0,0,0,0,0,0,0,0,0,
0,0,0,0,0,1171,0,0,0,0,0,0,0,0,0,0
</chunk>
   <chunk x="-32" y="-32" width="16" height="16">
0,0,0,0,0,0,0,0,0,0,0,0,0,0,0,0,
0,0,0,0,0,0,0,0,0,0,0,0,0,0,0,0,
0,0,0,0,0,0,0,0,0,0,0,0,0,0,0,0,
0,0,0,0,0,0,0,0,0,0,0,0,0,0,0,0,
0,0,0,0,0,0,0,0,0,0,0,0,0,0,0,0,
0,0,0,0,0,0,0,0,0,0,0,0,0,0,0,0,
0,0,0,0,0,0,0,0,0,0,0,0,0,0,0,0,
0,0,0,0,0,0,0,0,0,0,0,0,0,0,0,0,
0,0,0,0,0,0,0,0,0,0,0,0,0,0,0,0,
0,0,0,0,0,0,0,0,0,0,0,0,0,0,0,0,
1125,0,0,0,0,0,0,0,0,0,1124,1218,1218,1218,1218,1218,
1217,1218,1218,1218,1218,1218,1218,1218,1218,1218,1219,0,0,0,0,0,
0,0,0,0,0,0,0,0,0,0,0,0,0,0,0,0,
0,0,0,0,0,0,0,0,0,0,0,0,0,0,0,0,
0,0,0,0,0,0,0,0,0,0,0,0,0,0,0,0,
0,0,0,0,0,0,0,0,0,0,0,0,0,0,0,0
</chunk>
   <chunk x="-16" y="-32" width="16" height="16">
0,0,0,0,0,0,0,0,0,0,0,0,0,0,0,0,
0,0,0,0,0,0,0,0,0,0,0,0,0,0,0,0,
0,0,0,0,0,0,0,0,0,0,0,0,0,0,0,0,
0,0,0,0,0,0,0,0,0,0,0,0,0,0,0,0,
0,0,0,0,0,0,0,0,0,0,0,0,0,0,0,0,
0,0,0,0,0,0,0,0,0,0,0,0,0,0,0,0,
0,0,0,0,0,0,0,0,0,0,0,0,0,0,0,0,
0,0,0,0,0,0,0,0,0,0,0,0,0,0,0,0,
0,0,0,0,0,0,0,0,0,0,0,0,0,0,0,0,
0,0,0,0,0,0,0,0,0,0,0,0,0,0,0,1124,
1218,1218,1218,1218,1125,0,0,0,0,0,0,0,0,1124,1218,1219,
0,0,0,0,1217,1218,1218,1218,1218,1218,1218,1218,1218,1219,0,0,
0,0,0,0,0,0,0,0,0,0,0,0,0,0,0,0,
0,0,0,0,0,0,0,0,0,0,0,0,0,0,0,0,
0,0,0,0,0,0,0,0,0,0,0,0,0,0,0,0,
0,0,0,0,0,0,0,0,0,0,0,0,0,0,0,0
</chunk>
   <chunk x="0" y="-32" width="16" height="16">
0,0,0,0,0,0,0,0,0,0,0,0,0,0,0,0,
0,0,0,0,0,0,0,0,0,0,0,0,0,0,0,0,
0,0,0,0,0,0,0,0,0,0,0,0,0,0,0,0,
0,0,0,0,0,0,0,0,0,0,0,0,0,0,0,0,
0,0,0,0,0,0,0,0,0,0,0,0,0,0,0,0,
0,0,0,0,0,0,0,0,0,0,0,0,0,0,0,0,
0,0,0,0,0,0,0,0,0,0,0,0,0,0,0,0,
0,0,0,0,0,0,0,0,0,0,0,0,0,0,0,0,
0,0,0,0,0,0,0,0,0,0,0,0,0,0,0,0,
1218,1218,1218,1218,1218,1125,0,0,0,0,0,0,0,0,0,0,
0,0,0,0,0,1217,1218,1125,0,0,0,0,0,0,0,0,
0,0,0,0,0,0,0,1217,1218,1125,0,0,0,0,0,0,
0,0,0,0,0,0,0,0,0,1217,1218,1219,0,0,0,0,
0,0,0,0,0,0,0,0,0,0,0,0,0,0,0,0,
0,0,0,0,0,0,0,0,0,0,0,0,0,0,0,0,
0,0,0,0,0,0,0,0,0,0,0,0,0,0,0,0
</chunk>
   <chunk x="-48" y="-16" width="16" height="16">
0,0,0,0,0,1171,0,0,0,0,0,0,0,0,0,0,
0,0,0,0,0,1172,1123,0,0,0,0,0,0,0,0,0,
0,0,0,0,0,0,1171,0,1121,0,0,0,0,0,1123,0,
0,0,0,0,0,0,1172,1123,1169,0,0,0,0,0,1171,1121,
0,0,0,0,0,0,0,1171,1169,0,0,0,0,0,1171,1169,
0,0,0,0,0,0,0,1171,1169,0,0,0,0,0,1171,1169,
0,0,0,0,0,0,0,1172,1173,0,0,0,0,0,1172,1173,
0,0,0,0,0,0,0,0,0,0,0,0,0,0,0,0,
0,0,0,0,0,0,0,0,0,0,0,0,0,0,0,0,
0,0,0,0,0,0,0,0,0,0,0,0,0,0,0,0,
0,0,0,0,0,0,0,0,0,0,0,0,0,0,0,0,
0,0,0,0,0,0,0,0,0,0,0,0,0,0,0,0,
0,0,0,0,0,0,0,0,0,0,0,0,0,0,0,0,
0,0,0,0,0,0,0,0,0,0,0,0,0,0,0,0,
0,0,0,0,0,0,0,0,0,0,0,0,0,0,0,0,
0,0,0,0,0,0,0,0,0,0,0,0,0,0,0,0
</chunk>
   <chunk x="-32" y="-16" width="16" height="16">
0,0,0,0,0,0,0,0,0,0,0,0,0,0,0,0,
0,0,0,0,0,0,0,0,0,0,0,0,0,0,0,0,
1121,1127,1129,1126,1127,1129,1126,1127,1129,1126,1123,0,0,0,0,0,
1173,0,0,0,0,0,0,0,0,0,1172,1122,1127,1129,1126,1122,
0,0,0,0,0,0,0,0,0,0,0,0,0,0,0,0,
0,0,0,0,0,0,0,0,0,0,0,0,0,0,0,0,
0,0,0,0,0,0,0,0,0,0,0,0,0,0,0,0,
0,0,0,0,0,0,0,0,0,0,0,0,0,0,0,0,
0,0,0,0,0,0,0,0,0,0,0,0,0,0,0,0,
0,0,0,0,0,0,0,0,0,0,0,0,0,0,0,0,
0,0,0,0,0,0,0,0,0,0,0,0,0,0,0,0,
0,0,0,0,0,0,0,0,0,0,0,0,0,0,0,0,
0,0,0,0,0,0,0,0,0,0,0,0,0,0,0,0,
0,0,0,0,0,0,0,0,0,0,0,0,0,0,0,0,
0,0,0,0,0,0,0,0,0,0,0,0,0,0,0,0,
0,0,0,0,0,0,0,0,0,0,0,0,0,0,0,0
</chunk>
   <chunk x="-16" y="-16" width="16" height="16">
0,0,0,0,0,0,0,0,0,0,0,0,0,0,0,0,
0,0,0,0,0,0,0,0,0,0,0,0,0,0,0,0,
0,0,0,0,1121,1127,1129,1129,1129,1129,1126,1122,1127,1130,0,0,
1127,1129,1126,1122,1173,0,0,0,0,0,0,0,0,1179,1126,1123,
0,0,0,0,0,0,0,0,0,0,0,0,0,0,0,1172,
0,0,0,0,0,0,0,0,0,0,0,0,0,0,0,0,
0,0,0,0,0,0,0,0,0,0,0,0,0,0,0,0,
0,0,0,0,0,0,0,0,0,0,0,0,0,0,0,0,
0,0,0,0,0,0,0,0,0,0,0,0,0,0,0,0,
0,0,0,0,0,0,0,0,0,0,0,0,0,0,0,0,
0,0,0,0,0,0,0,0,0,0,0,0,0,0,0,0,
0,0,0,0,0,0,0,0,0,0,0,0,0,0,0,0,
0,0,0,0,0,0,0,0,0,0,0,0,0,0,0,0,
0,0,0,0,0,0,0,0,0,0,0,0,0,0,0,0,
0,0,0,0,0,0,0,0,0,0,0,0,0,0,0,0,
0,0,0,0,0,0,0,0,0,0,0,0,0,0,0,0
</chunk>
   <chunk x="0" y="-16" width="16" height="16">
0,0,0,0,0,0,0,0,0,0,0,0,0,0,0,0,
0,0,0,0,0,0,0,0,0,0,0,0,0,0,0,0,
0,0,0,0,0,0,0,1121,1122,1123,0,0,0,0,0,0,
0,0,0,0,0,1121,1122,1173,0,0,0,0,0,0,0,0,
1123,0,0,0,1121,1173,0,0,0,0,0,0,0,0,0,0,
0,0,0,0,0,0,0,0,0,0,0,0,0,0,0,0,
0,0,0,0,0,0,0,0,0,0,0,0,0,0,0,0,
0,0,0,0,0,0,0,0,0,0,0,0,0,0,0,0,
0,0,0,0,0,0,0,0,0,0,0,0,0,0,0,0,
0,0,0,0,0,0,0,0,0,0,0,0,0,0,0,0,
0,0,0,0,0,0,0,0,0,0,0,0,0,0,0,0,
0,0,0,0,0,0,0,0,0,0,0,0,0,0,0,0,
0,0,0,0,0,0,0,0,0,0,0,0,0,0,0,0,
0,0,0,0,0,0,0,0,0,0,0,0,0,0,0,0,
0,0,0,0,0,0,0,0,0,0,0,0,0,0,0,0,
0,0,0,0,0,0,0,0,0,0,0,0,0,0,0,0
</chunk>
  </data>
 </layer>
 <layer id="7" name="Shrubbery" width="30" height="20">
  <properties>
   <property name="layer" type="int" value="2"/>
  </properties>
  <data encoding="csv">
   <chunk x="-48" y="-32" width="16" height="16">
0,0,0,0,0,0,0,0,0,0,0,0,0,0,0,0,
0,0,0,0,0,0,0,0,0,0,0,0,0,0,0,0,
0,0,0,0,0,0,0,0,0,0,0,0,0,0,0,0,
0,0,0,0,0,0,0,0,0,0,0,0,0,0,0,0,
0,0,0,0,0,0,0,0,0,0,0,0,0,0,0,0,
0,0,0,0,0,0,0,0,0,0,0,0,0,0,0,0,
0,0,0,0,0,0,0,0,0,0,0,0,0,0,0,0,
0,0,0,0,0,0,0,0,0,0,0,0,0,0,0,0,
0,0,0,0,0,0,0,513,514,0,0,0,0,0,0,0,
0,0,0,0,0,0,0,561,562,0,0,0,0,0,0,0,
0,0,0,0,0,0,0,0,0,0,0,0,0,0,0,0,
0,0,0,0,0,0,0,0,0,0,0,0,0,0,0,0,
0,0,0,0,0,0,0,0,0,0,0,0,0,0,0,0,
0,0,0,0,0,0,0,0,0,0,0,0,0,0,0,0,
0,0,0,0,0,0,0,0,0,0,0,0,0,0,0,0,
0,0,0,0,0,0,0,0,0,0,0,0,0,0,0,0
</chunk>
   <chunk x="-32" y="-32" width="16" height="16">
0,0,0,0,0,0,0,0,0,0,0,0,0,0,0,0,
0,0,0,0,0,0,0,0,0,0,0,0,0,0,0,0,
0,0,0,0,0,0,0,0,0,0,0,0,0,0,0,0,
0,0,0,0,0,0,0,0,0,0,0,0,0,0,0,0,
0,0,0,0,0,0,0,0,0,0,0,0,0,0,0,0,
0,0,0,0,0,0,0,0,0,0,0,0,0,0,0,0,
0,0,0,0,0,0,0,0,0,0,0,0,0,0,0,0,
0,0,0,0,0,0,0,0,0,0,0,0,0,0,0,0,
0,0,0,0,0,0,0,0,0,0,0,0,0,0,0,0,
0,0,0,0,0,0,0,0,0,0,0,0,0,0,0,0,
0,0,0,0,0,0,0,0,0,0,561,562,0,0,0,0,
0,0,0,0,0,0,0,0,0,0,0,0,0,0,0,0,
0,0,0,0,0,0,0,0,0,0,0,0,0,0,0,0,
0,0,0,0,0,0,0,0,0,0,0,0,0,0,0,0,
0,0,0,0,0,0,0,0,0,0,0,0,0,0,0,0,
0,0,0,0,0,0,0,0,0,0,0,0,0,0,0,0
</chunk>
   <chunk x="-16" y="-32" width="16" height="16">
0,0,0,0,0,0,0,0,0,0,0,0,0,0,0,0,
0,0,0,0,0,0,0,0,0,0,0,0,0,0,0,0,
0,0,0,0,0,0,0,0,0,0,0,0,0,0,0,0,
0,0,0,0,0,0,0,0,0,0,0,0,0,0,0,0,
0,0,0,0,0,0,0,0,0,0,0,0,0,0,0,0,
0,0,0,0,0,0,0,0,0,0,0,0,0,0,0,0,
0,0,0,0,0,0,0,0,0,0,0,0,0,0,0,0,
0,0,0,0,0,0,0,0,0,0,0,0,0,0,0,0,
0,0,0,0,0,0,0,0,0,0,0,0,0,0,0,0,
0,0,0,0,0,0,0,0,0,0,0,0,0,0,0,513,
0,0,0,0,559,0,0,0,0,0,0,0,0,513,514,561,
0,0,0,0,0,0,0,0,0,0,0,0,559,561,562,0,
0,0,0,0,0,0,0,0,0,0,0,0,0,0,0,0,
0,0,0,0,0,0,0,0,0,0,0,0,0,0,0,0,
0,0,0,0,0,0,0,0,0,0,0,0,0,0,0,0,
0,0,0,0,0,0,0,0,0,0,0,0,0,0,0,0
</chunk>
   <chunk x="0" y="-32" width="16" height="16">
0,0,0,0,0,0,0,0,0,0,0,0,0,0,0,0,
0,0,0,0,0,0,0,0,0,0,0,0,0,0,0,0,
0,0,0,0,0,0,0,0,0,0,0,0,0,0,0,0,
0,0,0,0,0,0,0,0,0,0,0,0,0,0,0,0,
0,0,0,0,0,0,0,0,0,0,0,0,0,0,0,0,
0,0,0,0,0,0,0,0,0,0,0,0,0,0,0,0,
0,0,0,0,0,0,0,0,0,0,0,0,0,0,0,0,
0,0,0,0,0,0,0,0,0,0,0,0,0,0,0,0,
0,0,0,0,0,0,0,0,0,0,0,0,0,0,0,0,
514,0,0,0,0,559,0,0,0,0,0,0,0,0,0,0,
562,0,0,0,0,0,511,512,0,0,0,0,0,0,0,0,
0,0,0,0,0,0,559,560,0,0,0,0,0,0,0,0,
0,0,0,0,0,0,0,0,0,0,0,0,0,0,0,0,
0,0,0,0,0,0,0,0,0,0,0,0,0,0,0,0,
0,0,0,0,0,0,0,0,0,0,0,0,0,0,0,0,
0,0,0,0,0,0,0,0,0,0,0,0,0,0,0,0
</chunk>
   <chunk x="-48" y="-16" width="16" height="16">
0,0,0,0,0,316,317,0,0,0,0,0,0,0,0,0,
0,0,0,0,0,364,365,0,0,0,0,0,0,0,0,0,
0,0,0,0,0,0,0,0,0,0,0,0,0,0,0,0,
0,0,0,0,0,0,0,0,0,0,0,0,0,0,0,0,
0,0,0,0,0,0,0,0,0,0,0,0,0,0,0,0,
0,0,0,0,0,0,0,316,317,0,0,0,0,0,0,0,
0,0,0,0,0,0,0,364,365,0,0,0,0,0,0,0,
0,0,0,0,0,0,0,0,0,0,0,0,0,0,0,0,
0,0,0,0,0,0,0,0,0,0,0,0,0,0,0,0,
0,0,0,0,0,0,0,0,0,0,0,0,0,0,0,0,
0,0,0,0,0,0,0,0,0,0,0,0,0,0,0,0,
0,0,0,0,0,0,0,0,0,0,0,0,0,0,0,0,
0,0,0,0,0,0,0,0,0,0,0,0,0,0,0,0,
0,0,0,0,0,0,0,0,0,0,0,0,0,0,0,0,
0,0,0,0,0,0,0,0,0,0,0,0,0,0,0,0,
0,0,0,0,0,0,0,0,0,0,0,0,0,0,0,0
</chunk>
   <chunk x="-32" y="-16" width="16" height="16">
0,0,0,0,0,0,0,0,0,0,0,0,0,0,0,0,
0,0,0,0,0,0,0,0,0,0,0,0,0,0,0,0,
0,0,0,0,0,0,0,0,0,314,316,317,0,0,0,0,
0,0,0,0,0,0,0,0,0,0,364,365,0,0,0,0,
0,0,0,0,0,0,0,0,0,0,0,0,0,0,0,0,
0,0,0,0,0,0,0,0,0,0,0,0,0,0,0,0,
0,0,0,0,0,0,0,0,0,0,0,0,0,0,0,0,
0,0,0,0,0,0,0,0,0,0,0,0,0,0,0,0,
0,0,0,0,0,0,0,0,0,0,0,0,0,0,0,0,
0,0,0,0,0,0,0,0,0,0,0,0,0,0,0,0,
0,0,0,0,0,0,0,0,0,0,0,0,0,0,0,0,
0,0,0,0,0,0,0,0,0,0,0,0,0,0,0,0,
0,0,0,0,0,0,0,0,0,0,0,0,0,0,0,0,
0,0,0,0,0,0,0,0,0,0,0,0,0,0,0,0,
0,0,0,0,0,0,0,0,0,0,0,0,0,0,0,0,
0,0,0,0,0,0,0,0,0,0,0,0,0,0,0,0
</chunk>
  </data>
 </layer>
 <layer id="5" name="Grass" width="30" height="20">
  <properties>
   <property name="layer" type="int" value="3"/>
  </properties>
  <data encoding="csv">
   <chunk x="-48" y="-32" width="16" height="16">
0,0,0,0,0,0,0,0,0,0,0,0,0,0,0,0,
0,0,0,0,0,0,0,0,0,0,0,0,0,0,0,0,
0,0,0,0,0,0,0,0,0,0,0,0,0,0,0,0,
0,0,0,0,0,0,0,0,0,0,0,0,0,0,0,0,
0,0,0,0,0,0,0,0,0,0,0,0,0,0,0,0,
0,0,0,0,0,0,0,0,0,0,0,0,0,0,0,0,
0,0,0,0,0,306,307,210,211,210,211,210,210,211,210,211,
0,0,0,0,0,354,355,258,259,258,259,258,258,259,258,259,
0,0,0,0,0,116,117,0,0,0,0,0,0,0,0,0,
0,0,0,0,306,212,213,0,0,0,0,0,0,0,0,0,
0,0,0,0,354,260,261,0,0,0,0,0,0,0,0,0,
0,0,0,306,212,213,0,0,0,0,0,0,0,0,0,0,
0,0,0,354,260,261,0,0,0,0,0,0,0,0,0,0,
0,0,0,116,117,0,0,0,0,0,0,0,0,0,0,0,
0,0,0,116,117,0,0,0,0,0,0,0,0,0,0,0,
0,0,0,164,165,0,0,0,0,0,0,0,0,0,0,0
</chunk>
   <chunk x="-32" y="-32" width="16" height="16">
0,0,0,0,0,0,0,0,0,0,0,0,0,0,0,0,
0,0,0,0,0,0,0,0,0,0,0,0,0,0,0,0,
0,0,0,0,0,0,0,0,0,0,0,0,0,0,0,0,
0,0,0,0,0,0,0,0,0,0,0,0,0,0,0,0,
0,0,0,0,0,0,0,0,0,0,0,0,0,0,0,0,
0,0,0,0,0,0,0,0,0,0,0,0,0,0,0,0,
308,309,0,0,0,0,0,0,0,0,0,0,0,0,0,0,
356,357,0,0,0,0,0,0,0,0,0,0,0,0,0,0,
208,308,309,0,0,0,0,0,306,307,210,211,210,211,210,211,
256,356,357,210,211,210,210,211,354,355,258,259,258,259,258,259,
0,256,257,258,259,258,258,259,260,261,0,0,0,0,0,0,
0,0,0,0,0,0,0,0,0,0,0,0,0,0,0,0,
0,0,0,0,0,0,0,0,0,0,0,0,0,0,0,0,
0,0,0,0,0,0,0,0,0,0,0,0,0,0,0,0,
0,0,0,0,0,0,0,0,0,0,0,0,0,0,0,0,
0,0,0,0,0,0,0,0,0,0,0,0,0,0,0,0
</chunk>
   <chunk x="-16" y="-32" width="16" height="16">
0,0,0,0,0,0,0,0,0,0,0,0,0,0,0,0,
0,0,0,0,0,0,0,0,0,0,0,0,0,0,0,0,
0,0,0,0,0,0,0,0,0,0,0,0,0,0,0,0,
0,0,0,0,0,0,0,0,0,0,0,0,0,0,0,0,
0,0,0,0,0,0,0,0,0,0,0,0,0,0,0,0,
0,0,0,0,0,0,0,0,0,0,0,0,0,0,0,0,
0,0,0,0,0,0,0,0,0,0,0,0,0,0,0,0,
0,0,0,0,0,0,0,0,0,0,0,0,0,0,0,0,
210,211,210,211,211,308,309,0,0,0,0,306,307,354,355,258,
258,259,258,259,259,356,357,210,211,210,211,354,355,260,261,0,
0,0,0,0,0,256,257,258,259,258,259,260,261,0,0,0,
0,0,0,0,0,0,0,0,0,0,0,0,0,0,0,0,
0,0,0,0,0,0,0,0,0,0,0,0,0,0,0,0,
0,0,0,0,0,0,0,0,0,0,0,0,0,0,0,0,
0,0,0,0,0,0,0,0,0,0,0,0,0,0,0,0,
0,0,0,0,0,0,0,0,0,0,0,0,0,0,0,0
</chunk>
   <chunk x="0" y="-32" width="16" height="16">
0,0,0,0,0,0,0,0,0,0,0,0,0,0,0,0,
0,0,0,0,0,0,0,0,0,0,0,0,0,0,0,0,
0,0,0,0,0,0,0,0,0,0,0,0,0,0,0,0,
0,0,0,0,0,0,0,0,0,0,0,0,0,0,0,0,
0,0,0,0,0,0,0,0,0,0,0,0,0,0,0,0,
0,0,0,0,0,0,0,0,0,0,0,0,0,0,0,0,
0,0,0,0,0,0,0,0,0,0,0,0,0,0,0,0,
0,0,0,0,0,0,0,0,0,0,0,0,0,0,0,0,
259,258,259,258,259,258,356,357,308,309,0,0,0,0,0,0,
0,0,0,0,0,0,256,257,356,357,308,309,309,0,0,0,
0,0,0,0,0,0,0,0,256,257,356,357,210,211,210,211,
0,0,0,0,0,0,0,0,0,0,256,257,258,259,258,259,
0,0,0,0,0,0,0,0,0,0,0,0,0,0,0,0,
0,0,0,0,0,0,0,0,0,0,0,0,0,0,0,0,
0,0,0,0,0,0,0,0,0,0,0,0,0,0,0,0,
0,0,0,0,0,0,0,0,0,0,0,0,0,0,0,0
</chunk>
   <chunk x="-48" y="-16" width="16" height="16">
0,0,0,116,117,0,0,0,0,0,16,17,21,0,0,0,
0,0,0,164,165,0,0,0,0,16,404,352,403,21,0,0,
0,0,0,402,403,21,0,0,0,64,65,450,68,69,0,0,
0,0,0,450,68,69,0,0,0,112,113,450,116,117,0,0,
0,0,0,0,402,403,21,0,0,160,161,0,164,165,0,0,
0,0,0,0,450,68,69,0,0,112,113,0,116,117,0,0,
0,0,0,0,0,164,165,0,0,160,161,0,164,165,0,0,
0,0,0,0,0,402,403,18,19,404,405,0,402,403,18,19,
0,0,0,0,0,450,451,66,67,452,453,0,450,451,66,67,
0,0,0,0,0,0,0,0,0,0,0,0,0,0,0,0,
0,0,0,0,0,0,0,0,0,0,0,0,0,0,0,0,
0,0,0,0,0,0,0,0,0,0,0,0,0,0,0,0,
0,0,0,0,0,0,0,0,0,0,0,0,0,0,0,0,
0,0,0,0,0,0,0,0,0,0,0,0,0,0,0,0,
0,0,0,0,0,0,0,0,0,0,0,0,0,0,0,0,
0,0,0,0,0,0,0,0,0,0,0,0,0,0,0,0
</chunk>
   <chunk x="-32" y="-16" width="16" height="16">
0,0,0,0,0,0,0,0,0,0,0,0,0,0,0,0,
0,0,0,0,0,0,0,0,0,0,0,0,0,0,0,0,
0,0,0,0,0,0,0,0,0,0,0,0,0,0,0,0,
0,16,17,19,18,19,18,19,20,21,0,0,0,0,0,0,
16,404,65,66,67,66,67,66,68,403,18,18,19,18,19,18,
64,65,306,0,0,0,0,0,450,451,66,66,67,66,67,66,
160,113,0,0,0,0,0,0,0,0,0,0,0,0,0,0,
404,161,0,0,0,0,0,0,0,0,0,0,0,0,0,0,
452,453,0,0,0,0,0,0,0,0,0,0,0,0,0,0,
0,0,0,0,0,0,0,0,0,0,0,0,0,0,0,0,
0,0,0,0,0,0,0,0,0,0,0,0,0,0,0,0,
0,0,0,0,0,0,0,0,0,0,0,0,0,0,0,0,
0,0,0,0,0,0,0,0,0,0,0,0,0,0,0,0,
0,0,0,0,0,0,0,0,0,0,0,0,0,0,0,0,
0,0,0,0,0,0,0,0,0,0,0,0,0,0,0,0,
0,0,0,0,0,0,0,0,0,0,0,0,0,0,0,0
</chunk>
   <chunk x="-16" y="-16" width="16" height="16">
0,0,0,0,0,0,0,0,0,0,0,0,0,0,0,0,
0,0,0,0,0,0,0,0,0,0,0,0,0,0,0,0,
0,0,0,0,0,0,0,0,0,0,0,0,0,0,0,0,
0,0,0,0,0,16,17,18,19,18,19,20,21,0,0,0,
19,18,19,18,19,404,65,66,67,66,67,68,403,20,21,0,
67,66,67,66,67,452,453,0,0,0,0,450,66,68,403,20,
0,0,0,0,0,0,0,0,0,0,0,0,0,450,451,68,
0,0,0,0,0,0,0,0,0,0,0,0,0,0,0,116,
0,0,0,0,0,0,0,0,0,0,0,0,0,0,0,164,
0,0,0,0,0,0,0,0,0,0,0,0,0,0,0,116,
0,0,0,0,0,0,0,0,0,0,0,0,0,0,0,164,
0,0,0,0,0,0,0,0,0,0,0,0,0,0,0,0,
0,0,0,0,0,0,0,0,0,0,0,0,0,0,0,0,
0,0,0,0,0,0,0,0,0,0,0,0,0,0,0,0,
0,0,0,0,0,0,0,0,0,0,0,0,0,0,0,0,
0,0,0,0,0,0,0,0,0,0,0,0,0,0,0,0
</chunk>
   <chunk x="0" y="-16" width="16" height="16">
0,0,0,0,0,0,0,0,0,0,0,0,0,0,0,0,
0,0,0,0,0,0,0,0,0,0,0,0,0,0,0,0,
0,0,0,0,0,0,0,0,0,0,0,0,0,0,0,0,
0,0,0,0,0,0,0,0,16,17,18,19,18,19,18,19,
0,0,0,0,0,0,16,17,404,65,66,67,66,67,66,67,
21,0,0,0,16,17,404,65,452,453,0,0,0,0,0,0,
69,0,0,0,64,65,452,453,0,0,0,0,0,0,0,0,
117,0,0,0,112,113,0,0,0,0,0,0,0,0,0,0,
165,0,0,0,160,161,0,0,0,0,0,0,0,0,0,0,
117,0,0,0,112,113,0,0,0,0,0,0,0,0,0,0,
165,0,0,0,160,161,0,0,0,0,0,0,0,0,0,0,
0,0,0,0,0,0,0,0,0,0,0,0,0,0,0,0,
0,0,0,0,0,0,0,0,0,0,0,0,0,0,0,0,
0,0,0,0,0,0,0,0,0,0,0,0,0,0,0,0,
0,0,0,0,0,0,0,0,0,0,0,0,0,0,0,0,
0,0,0,0,0,0,0,0,0,0,0,0,0,0,0,0
</chunk>
  </data>
 </layer>
 <layer id="6" name="Flowers" width="30" height="20">
  <properties>
   <property name="layer" type="int" value="4"/>
  </properties>
  <data encoding="csv">
   <chunk x="-48" y="-32" width="16" height="16">
0,0,0,0,0,0,0,0,0,0,0,0,0,0,0,0,
0,0,0,0,0,0,0,0,0,0,0,0,0,0,0,0,
0,0,0,0,0,0,0,0,0,0,0,0,0,0,0,0,
0,0,0,0,0,0,0,0,0,0,0,0,0,0,0,0,
0,0,0,0,0,0,0,0,0,0,0,0,0,0,0,0,
0,0,0,0,0,0,0,0,0,0,0,0,0,0,0,0,
0,0,0,0,0,0,0,0,0,0,0,0,0,0,0,0,
0,0,0,0,0,0,0,0,167,0,0,0,0,0,0,119,
0,0,0,0,0,0,0,166,0,0,0,0,0,0,0,0,
0,0,0,0,0,0,71,0,0,0,0,0,0,0,0,0,
0,0,0,0,0,0,0,0,0,0,0,0,0,0,0,0,
0,0,0,0,0,0,0,0,0,0,0,0,0,0,0,0,
0,0,0,0,0,0,0,0,0,0,0,0,0,0,0,0,
0,0,0,0,0,0,0,0,0,0,0,0,0,0,0,0,
0,0,0,0,23,0,0,0,0,0,0,0,0,0,0,0,
0,0,0,0,0,0,0,0,0,0,0,0,0,0,0,0
</chunk>
   <chunk x="-32" y="-32" width="16" height="16">
0,0,0,0,0,0,0,0,0,0,0,0,0,0,0,0,
0,0,0,0,0,0,0,0,0,0,0,0,0,0,0,0,
0,0,0,0,0,0,0,0,0,0,0,0,0,0,0,0,
0,0,0,0,0,0,0,0,0,0,0,0,0,0,0,0,
0,0,0,0,0,0,0,0,0,0,0,0,0,0,0,0,
0,0,0,0,0,0,0,0,0,0,0,0,0,0,0,0,
0,0,0,0,0,0,0,0,0,0,0,0,0,0,0,0,
0,0,0,0,0,0,0,0,0,0,0,0,0,0,0,0,
70,0,0,0,0,0,0,0,0,0,0,0,0,0,0,0,
0,0,0,0,0,0,0,0,0,0,0,167,0,0,0,119,
0,0,0,0,0,0,0,0,0,0,0,0,0,0,0,0,
0,0,0,0,0,0,0,0,0,0,0,0,0,0,0,0,
0,0,0,0,0,0,0,0,0,0,0,0,0,0,0,0,
0,0,0,0,0,0,0,0,0,0,0,0,0,0,0,0,
0,0,0,0,0,0,0,0,0,0,0,0,0,0,0,0,
0,0,0,0,0,0,0,0,0,0,0,0,0,0,0,0
</chunk>
   <chunk x="-16" y="-32" width="16" height="16">
0,0,0,0,0,0,0,0,0,0,0,0,0,0,0,0,
0,0,0,0,0,0,0,0,0,0,0,0,0,0,0,0,
0,0,0,0,0,0,0,0,0,0,0,0,0,0,0,0,
0,0,0,0,0,0,0,0,0,0,0,0,0,0,0,0,
0,0,0,0,0,0,0,0,0,0,0,0,0,0,0,0,
0,0,0,0,0,0,0,0,0,0,0,0,0,0,0,0,
0,0,0,0,0,0,0,0,0,0,0,0,0,0,0,0,
0,0,0,0,0,0,0,0,0,0,0,0,0,0,0,0,
0,0,0,0,0,0,0,0,0,0,0,0,0,0,0,0,
0,0,0,167,0,0,0,0,0,0,0,0,0,167,0,0,
0,0,0,0,0,0,0,0,0,0,0,0,0,118,0,0,
0,0,0,0,0,0,0,0,0,0,0,0,0,0,0,0,
0,0,0,0,0,0,0,0,0,0,0,0,0,0,0,0,
0,0,0,0,0,0,0,0,0,0,0,0,0,0,0,0,
0,0,0,0,0,0,0,0,0,0,0,0,0,0,0,0,
0,0,0,0,0,0,0,0,0,0,0,0,0,0,0,0
</chunk>
   <chunk x="0" y="-32" width="16" height="16">
0,0,0,0,0,0,0,0,0,0,0,0,0,0,0,0,
0,0,0,0,0,0,0,0,0,0,0,0,0,0,0,0,
0,0,0,0,0,0,0,0,0,0,0,0,0,0,0,0,
0,0,0,0,0,0,0,0,0,0,0,0,0,0,0,0,
0,0,0,0,0,0,0,0,0,0,0,0,0,0,0,0,
0,0,0,0,0,0,0,0,0,0,0,0,0,0,0,0,
0,0,0,0,0,0,0,0,0,0,0,0,0,0,0,0,
0,0,0,0,0,0,0,0,0,0,0,0,0,0,0,0,
167,0,0,0,0,0,0,0,0,0,0,0,0,0,0,0,
0,0,0,0,0,0,0,0,22,0,0,0,0,0,0,0,
0,0,0,0,0,0,0,166,0,0,167,0,0,0,0,0,
0,0,0,0,0,0,0,0,0,0,0,0,119,0,0,0,
0,0,0,0,0,0,0,0,0,0,0,0,0,0,0,0,
0,0,0,0,0,0,0,0,0,0,0,0,0,0,0,0,
0,0,0,0,0,0,0,0,0,0,0,0,0,0,0,0,
0,0,0,0,0,0,0,0,0,0,0,0,0,0,0,0
</chunk>
   <chunk x="-48" y="-16" width="16" height="16">
0,0,0,0,71,118,0,0,0,0,0,0,0,0,0,0,
0,0,0,0,0,0,0,0,0,0,0,0,0,0,0,0,
0,0,0,0,118,0,0,0,0,0,0,0,0,0,0,0,
0,0,0,0,0,0,0,0,0,0,0,0,0,0,0,0,
0,0,0,0,0,0,0,0,0,0,0,0,0,0,0,0,
0,0,0,0,0,0,71,118,0,0,0,0,0,0,0,0,
0,0,0,0,0,0,0,0,0,0,0,0,0,0,0,0,
0,0,0,0,0,0,0,0,118,0,0,0,0,0,166,0,
0,0,0,0,0,0,0,0,0,0,0,0,0,0,0,0,
0,0,0,0,0,0,0,0,0,0,0,0,0,0,0,0,
0,0,0,0,0,0,0,0,0,0,0,0,0,0,0,0,
0,0,0,0,0,0,0,0,0,0,0,0,0,0,0,0,
0,0,0,0,0,0,0,0,0,0,0,0,0,0,0,0,
0,0,0,0,0,0,0,0,0,0,0,0,0,0,0,0,
0,0,0,0,0,0,0,0,0,0,0,0,0,0,0,0,
0,0,0,0,0,0,0,0,0,0,0,0,0,0,0,0
</chunk>
   <chunk x="-32" y="-16" width="16" height="16">
0,0,0,0,0,0,0,0,0,0,0,0,0,0,0,0,
0,0,0,0,0,0,0,0,0,0,0,0,0,0,0,0,
0,0,0,0,0,0,0,0,0,0,0,0,0,0,0,0,
0,0,0,166,0,0,0,166,0,0,0,0,0,0,0,0,
0,0,0,0,0,0,0,0,0,0,0,118,0,0,0,0,
22,0,0,0,0,0,0,0,0,0,0,0,0,0,0,0,
0,0,0,0,0,0,0,0,0,0,0,0,0,0,0,0,
0,0,0,0,0,0,0,0,0,0,0,0,0,0,0,0,
0,0,0,0,0,0,0,0,0,0,0,0,0,0,0,0,
0,0,0,0,0,0,0,0,0,0,0,0,0,0,0,0,
0,0,0,0,0,0,0,0,0,0,0,0,0,0,0,0,
0,0,0,0,0,0,0,0,0,0,0,0,0,0,0,0,
0,0,0,0,0,0,0,0,0,0,0,0,0,0,0,0,
0,0,0,0,0,0,0,0,0,0,0,0,0,0,0,0,
0,0,0,0,0,0,0,0,0,0,0,0,0,0,0,0,
0,0,0,0,0,0,0,0,0,0,0,0,0,0,0,0
</chunk>
   <chunk x="-16" y="-16" width="16" height="16">
0,0,0,0,0,0,0,0,0,0,0,0,0,0,0,0,
0,0,0,0,0,0,0,0,0,0,0,0,0,0,0,0,
0,0,0,0,0,0,0,0,0,0,0,0,0,0,0,0,
0,0,0,0,0,0,0,118,0,0,166,0,0,0,0,0,
0,118,0,0,0,0,0,0,0,0,0,0,0,166,0,0,
0,0,0,0,0,0,0,0,0,0,0,0,0,0,0,0,
0,0,0,0,0,0,0,0,0,0,0,0,0,0,0,0,
0,0,0,0,0,0,0,0,0,0,0,0,0,0,0,0,
0,0,0,0,0,0,0,0,0,0,0,0,0,0,0,0,
0,0,0,0,0,0,0,0,0,0,0,0,0,0,0,0,
0,0,0,0,0,0,0,0,0,0,0,0,0,0,0,0,
0,0,0,0,0,0,0,0,0,0,0,0,0,0,0,0,
0,0,0,0,0,0,0,0,0,0,0,0,0,0,0,0,
0,0,0,0,0,0,0,0,0,0,0,0,0,0,0,0,
0,0,0,0,0,0,0,0,0,0,0,0,0,0,0,0,
0,0,0,0,0,0,0,0,0,0,0,0,0,0,0,0
</chunk>
   <chunk x="0" y="-16" width="16" height="16">
0,0,0,0,0,0,0,0,0,0,0,0,0,0,0,0,
0,0,0,0,0,0,0,0,0,0,0,0,0,0,0,0,
0,0,0,0,0,0,0,0,0,0,0,0,0,0,0,0,
0,0,0,0,0,0,0,0,0,0,118,0,0,166,0,0,
0,0,0,0,0,0,0,166,0,0,0,0,0,0,0,0,
0,0,0,0,0,166,0,0,0,0,0,0,0,0,0,0,
0,0,0,0,0,0,0,0,0,0,0,0,0,0,0,0,
71,0,0,0,0,0,0,0,0,0,0,0,0,0,0,0,
0,0,0,0,0,0,0,0,0,0,0,0,0,0,0,0,
71,0,0,0,0,0,0,0,0,0,0,0,0,0,0,0,
0,0,0,0,0,0,0,0,0,0,0,0,0,0,0,0,
0,0,0,0,0,0,0,0,0,0,0,0,0,0,0,0,
0,0,0,0,0,0,0,0,0,0,0,0,0,0,0,0,
0,0,0,0,0,0,0,0,0,0,0,0,0,0,0,0,
0,0,0,0,0,0,0,0,0,0,0,0,0,0,0,0,
0,0,0,0,0,0,0,0,0,0,0,0,0,0,0,0
</chunk>
  </data>
 </layer>
 <objectgroup id="3" name="Node">
  <object id="101" name="door_1" type="+" x="232" y="-224">
   <point/>
  </object>
  <object id="102" type=":" x="-704" y="-440" width="960" height="360" visible="0"/>
  <object id="177" name="@" x="256" y="-320" width="16" height="112">
   <properties>
    <property name="scene" value="Gardens6"/>
    <property name="target" value="door_2"/>
   </properties>
  </object>
  <object id="179" name="@" x="16" y="-80" width="48" height="16">
   <properties>
    <property name="scene" value="Gardens5"/>
    <property name="target" value="door_2"/>
   </properties>
  </object>
  <object id="339" type="_" x="160" y="-224" width="96" height="16"/>
  <object id="345" type="=" gid="29" x="-592" y="-264" width="16" height="16"/>
  <object id="347" name="*" x="-656" y="-384" width="128" height="12"/>
  <object id="348" name="*" x="-524" y="-368" width="12" height="24"/>
  <object id="349" name="*" x="-512" y="-352" width="16" height="16"/>
  <object id="350" name="*" x="-496" y="-336" width="144" height="12"/>
  <object id="351" name="*" x="-352" y="-352" width="16" height="16"/>
  <object id="352" name="*" x="-336" y="-352" width="144" height="12"/>
  <object id="355" name="*" x="-188" y="-336" width="12" height="8"/>
  <object id="356" name="*" x="-176" y="-336" width="128" height="12"/>
  <object id="357" name="*" x="-48" y="-352" width="16" height="16"/>
  <object id="358" name="*" x="-32" y="-352" width="16" height="12"/>
  <object id="359" name="*" x="-16" y="-368" width="16" height="16"/>
  <object id="360" name="*" x="0" y="-368" width="80" height="12"/>
  <object id="361" name="*" x="88" y="-352" width="8" height="8"/>
  <object id="362" name="*" x="112" y="-352" width="16" height="16"/>
  <object id="363" name="*" x="116" y="-336" width="12" height="8"/>
  <object id="364" name="*" x="144" y="-336" width="16" height="16"/>
  <object id="365" name="*" x="152" y="-320" width="8" height="8"/>
  <object id="366" name="*" x="160" y="-320" width="16" height="12"/>
  <object id="367" name="*" x="176" y="-320" width="8" height="8"/>
  <object id="368" name="*" x="128" y="-220" width="16" height="12"/>
  <object id="369" name="*" x="144" y="-216" width="8" height="8"/>
  <object id="371" name="*" x="120" y="-216" width="8" height="8"/>
  <object id="372" name="*" x="96" y="-200" width="32" height="8"/>
  <object id="373" name="*" x="80" y="-200" width="16" height="24"/>
  <object id="374" name="*" x="72" y="-184" width="8" height="8"/>
  <object id="379" name="*" x="-176" y="-216" width="84" height="8"/>
  <object id="380" name="*" x="-192" y="-208" width="16" height="16"/>
  <object id="381" name="*" x="-284" y="-204" width="40" height="12"/>
  <object id="383" name="*" x="-508" y="-216" width="168" height="8"/>
  <object id="385" name="*" x="-512" y="-208" width="16" height="16"/>
  <object id="386" name="*" x="-524" y="-200" width="12" height="40"/>
  <object id="387" name="*" x="-544" y="-216" width="12" height="56"/>
  <object id="388" name="*" x="-636" y="-216" width="12" height="56"/>
  <object id="389" name="*" x="-656" y="-200" width="12" height="40"/>
  <object id="390" name="*" x="-672" y="-232" width="12" height="24"/>
  <object id="391" name="*" x="-688" y="-288" width="12" height="48"/>
  <object id="392" name="*" x="-672" y="-320" width="12" height="24"/>
  <object id="393" name="*" x="-656" y="-372" width="12" height="44"/>
  <object id="396" name="*" x="-92" y="-220" width="40" height="12"/>
  <object id="397" name="*" x="-220" y="-204" width="28" height="12"/>
  <object id="398" name="*" x="-352" y="-204" width="44" height="12"/>
  <object id="400" name="*" x="116" y="-208" width="12" height="8"/>
  <object id="401" name="*" x="-40" y="-200" width="32" height="8"/>
  <object id="402" name="*" x="-16" y="-192" width="16" height="16"/>
  <object id="403" name="*" x="0" y="-184" width="8" height="8"/>
  <object id="404" name="*" x="-184" y="-216" width="8" height="8"/>
  <object id="407" name="*" x="128" y="-336" width="16" height="12"/>
  <object id="408" name="*" x="96" y="-352" width="16" height="12"/>
  <object id="409" name="*" x="80" y="-368" width="16" height="16"/>
  <object id="410" name="*" x="-16" y="-352" width="8" height="8"/>
  <object id="411" name="*" x="-48" y="-336" width="8" height="8"/>
  <object id="412" name="*" x="-192" y="-352" width="16" height="16"/>
  <object id="413" name="*" x="-352" y="-336" width="8" height="8"/>
  <object id="414" name="*" x="-504" y="-336" width="8" height="8"/>
  <object id="416" name="*" x="-672" y="-336" width="16" height="16"/>
  <object id="417" name="*" x="-688" y="-304" width="16" height="16"/>
  <object id="418" name="*" x="-688" y="-240" width="16" height="16"/>
  <object id="419" name="*" x="-672" y="-208" width="16" height="16"/>
  <object id="420" name="*" x="-656" y="-160" width="32" height="16"/>
  <object id="421" name="*" x="-544" y="-160" width="32" height="16"/>
  <object id="423" name="*" x="-528" y="-384" width="16" height="16"/>
  <object id="428" name="*" x="-244" y="-200" width="24" height="8"/>
  <object id="430" name="*" x="-308" y="-200" width="24" height="8"/>
  <object id="435" name="*" x="-52" y="-216" width="12" height="8"/>
  <object id="436" name="*" x="-48" y="-208" width="8" height="16"/>
 </objectgroup>
 <objectgroup id="2" name="Collision">
  <properties>
   <property name="collision" type="bool" value="true"/>
  </properties>
  <object id="81" x="0" y="-176" width="16" height="144">
   <properties>
    <property name="one_way" type="bool" value="false"/>
   </properties>
  </object>
  <object id="82" x="64" y="-176" width="16" height="144">
   <properties>
    <property name="one_way" type="bool" value="false"/>
   </properties>
  </object>
  <object id="83" x="80" y="-176" width="32" height="16">
   <properties>
    <property name="one_way" type="bool" value="false"/>
   </properties>
  </object>
  <object id="84" x="96" y="-192" width="64" height="16">
   <properties>
    <property name="one_way" type="bool" value="false"/>
   </properties>
  </object>
  <object id="86" x="128" y="-208" width="176" height="16">
   <properties>
    <property name="one_way" type="bool" value="false"/>
   </properties>
  </object>
  <object id="88" x="-32" y="-176" width="32" height="16">
   <properties>
    <property name="one_way" type="bool" value="false"/>
   </properties>
  </object>
  <object id="89" x="-64" y="-192" width="48" height="16">
   <properties>
    <property name="one_way" type="bool" value="false"/>
   </properties>
  </object>
  <object id="91" x="-176" y="-208" width="128" height="16">
   <properties>
    <property name="one_way" type="bool" value="false"/>
   </properties>
  </object>
  <object id="93" x="-176" y="-352" width="128" height="16">
   <properties>
    <property name="one_way" type="bool" value="false"/>
   </properties>
  </object>
  <object id="95" x="-64" y="-368" width="48" height="16">
   <properties>
    <property name="one_way" type="bool" value="false"/>
   </properties>
  </object>
  <object id="96" x="-32" y="-384" width="144" height="16">
   <properties>
    <property name="one_way" type="bool" value="false"/>
   </properties>
  </object>
  <object id="97" x="96" y="-368" width="48" height="16">
   <properties>
    <property name="one_way" type="bool" value="false"/>
   </properties>
  </object>
  <object id="100" x="128" y="-352" width="48" height="16">
   <properties>
    <property name="one_way" type="bool" value="false"/>
   </properties>
  </object>
  <object id="104" x="-368" y="-368" width="208" height="16">
   <properties>
    <property name="one_way" type="bool" value="false"/>
   </properties>
  </object>
  <object id="106" x="-496" y="-352" width="144" height="16">
   <properties>
    <property name="one_way" type="bool" value="false"/>
   </properties>
  </object>
  <object id="107" x="-496" y="-352" width="16" height="16">
   <properties>
    <property name="one_way" type="bool" value="false"/>
   </properties>
  </object>
  <object id="108" x="-512" y="-400" width="16" height="48">
   <properties>
    <property name="one_way" type="bool" value="false"/>
   </properties>
  </object>
  <object id="109" x="-672" y="-400" width="160" height="16">
   <properties>
    <property name="one_way" type="bool" value="false"/>
   </properties>
  </object>
  <object id="110" x="-672" y="-384" width="16" height="48">
   <properties>
    <property name="one_way" type="bool" value="false"/>
   </properties>
  </object>
  <object id="111" x="-688" y="-352" width="16" height="48">
   <properties>
    <property name="one_way" type="bool" value="false"/>
   </properties>
  </object>
  <object id="112" x="-704" y="-320" width="16" height="112">
   <properties>
    <property name="one_way" type="bool" value="false"/>
   </properties>
  </object>
  <object id="113" x="-688" y="-224" width="16" height="32">
   <properties>
    <property name="one_way" type="bool" value="false"/>
   </properties>
  </object>
  <object id="114" x="-688" y="-192" width="32" height="16">
   <properties>
    <property name="one_way" type="bool" value="false"/>
   </properties>
  </object>
  <object id="115" x="-672" y="-176" width="16" height="32">
   <properties>
    <property name="one_way" type="bool" value="false"/>
   </properties>
  </object>
  <object id="116" x="-672" y="-144" width="176" height="16">
   <properties>
    <property name="one_way" type="bool" value="false"/>
   </properties>
  </object>
  <object id="117" x="-512" y="-192" width="16" height="48">
   <properties>
    <property name="one_way" type="bool" value="false"/>
   </properties>
  </object>
  <object id="119" x="-496" y="-208" width="144" height="16">
   <properties>
    <property name="one_way" type="bool" value="false"/>
   </properties>
  </object>
  <object id="121" x="-368" y="-192" width="208" height="16">
   <properties>
    <property name="one_way" type="bool" value="false"/>
   </properties>
  </object>
  <object id="123" x="-624" y="-240" width="80" height="96">
   <properties>
    <property name="one_way" type="bool" value="false"/>
   </properties>
  </object>
  <object id="175" x="288" y="-320" width="16" height="112">
   <properties>
    <property name="one_way" type="bool" value="false"/>
   </properties>
  </object>
  <object id="181" x="16" y="-256" width="80" height="8">
   <properties>
    <property name="one_way" type="bool" value="false"/>
   </properties>
  </object>
  <object id="182" x="-48" y="-224" width="16" height="8">
   <properties>
    <property name="one_way" type="bool" value="false"/>
   </properties>
  </object>
  <object id="183" x="-160" y="-224" width="64" height="8">
   <properties>
    <property name="one_way" type="bool" value="false"/>
   </properties>
  </object>
  <object id="184" x="-240" y="-208" width="16" height="8">
   <properties>
    <property name="one_way" type="bool" value="false"/>
   </properties>
  </object>
  <object id="185" x="-304" y="-224" width="16" height="8">
   <properties>
    <property name="one_way" type="bool" value="false"/>
   </properties>
  </object>
  <object id="187" x="-432" y="-224" width="16" height="8">
   <properties>
    <property name="one_way" type="bool" value="false"/>
   </properties>
  </object>
  <object id="189" x="-512" y="-240" width="48" height="8">
   <properties>
    <property name="one_way" type="bool" value="false"/>
   </properties>
  </object>
  <object id="190" x="-384" y="-240" width="16" height="8">
   <properties>
    <property name="one_way" type="bool" value="false"/>
   </properties>
  </object>
  <object id="338" x="160" y="-336" width="144" height="16">
   <properties>
    <property name="one_way" type="bool" value="false"/>
   </properties>
  </object>
  <object id="346" x="-496" y="-192" width="16" height="16">
   <properties>
    <property name="one_way" type="bool" value="false"/>
   </properties>
  </object>
  <object id="394" x="128" y="-240" width="16" height="8">
   <properties>
    <property name="one_way" type="bool" value="false"/>
   </properties>
  </object>
  <object id="395" x="64" y="-208" width="48" height="8">
   <properties>
    <property name="one_way" type="bool" value="false"/>
   </properties>
  </object>
  <object id="426" x="-496" y="-368" width="16" height="16">
   <properties>
    <property name="one_way" type="bool" value="false"/>
   </properties>
  </object>
  <object id="437" x="-608" y="-256" width="48" height="16"/>
 </objectgroup>
</map>
