<?xml version="1.0" encoding="UTF-8"?>
<map version="1.10" tiledversion="1.12.1" orientation="orthogonal" renderorder="right-down" width="30" height="20" tilewidth="16" tileheight="16" infinite="1" nextlayerid="10" nextobjectid="144">
 <tileset firstgid="1" source="../Atlas.tsx"/>
 <layer id="8" name="Spikes" width="30" height="20">
  <properties>
   <property name="Spikes" type="int" value="1"/>
  </properties>
  <data encoding="csv">
   <chunk x="-16" y="-32" width="16" height="16">
0,0,0,0,0,0,0,0,0,0,0,0,0,0,0,0,
0,0,0,0,0,0,0,0,0,0,0,0,0,0,0,0,
0,0,0,0,0,0,0,0,0,0,0,0,0,0,0,0,
0,0,0,0,0,0,0,0,0,0,0,0,0,0,0,0,
0,0,0,0,0,0,0,0,0,0,0,0,0,0,0,0,
0,0,0,0,0,0,0,0,0,0,0,0,0,0,0,0,
0,0,0,0,0,0,0,0,0,0,0,0,0,0,0,0,
0,0,0,0,0,0,0,0,0,0,0,0,0,0,0,0,
0,0,0,0,1171,0,0,1169,0,0,0,0,0,0,0,0,
0,0,0,0,1171,0,0,1169,0,0,0,0,0,0,0,0,
0,0,0,0,1171,0,0,1169,0,0,0,0,0,0,0,0,
0,0,0,1124,1219,0,0,1217,1125,0,0,0,0,0,0,0,
0,0,0,1171,0,0,0,0,1169,0,0,0,0,0,0,0,
0,0,0,1171,0,0,0,0,1169,0,0,0,0,0,0,0,
0,0,0,1171,0,0,0,0,1169,0,0,0,0,0,0,0,
0,0,0,1171,0,0,0,0,1169,0,0,0,0,0,0,0
</chunk>
   <chunk x="-32" y="-16" width="16" height="16">
0,0,0,0,0,0,0,0,0,0,0,0,0,0,0,0,
0,0,0,0,0,0,0,0,0,0,0,0,0,0,0,0,
0,0,0,0,0,0,0,0,0,0,0,0,0,0,0,0,
0,0,0,0,0,0,0,0,0,0,0,0,0,0,0,0,
0,0,0,0,0,0,0,0,0,0,0,0,0,0,0,0,
0,0,0,0,0,0,0,0,0,0,0,0,0,0,0,0,
0,0,0,0,0,0,0,0,0,0,0,0,0,0,0,0,
0,0,0,0,0,0,0,0,0,0,0,1124,1218,1218,1218,1218,
0,0,0,0,0,0,0,0,0,0,0,1171,0,0,0,0,
0,0,0,0,0,0,0,0,0,0,0,1171,0,0,0,0,
0,0,0,0,0,0,0,0,0,0,0,1171,0,0,0,0,
0,0,0,0,0,0,0,0,0,0,0,1171,0,0,0,0,
0,0,0,0,0,0,0,0,0,0,0,1171,0,0,0,0,
0,0,0,0,0,0,0,0,0,0,0,1172,1122,1122,1122,1122,
0,0,0,0,0,0,0,0,0,0,0,0,0,0,0,0,
0,0,0,0,0,0,0,0,0,0,0,0,0,0,0,0
</chunk>
   <chunk x="-16" y="-16" width="16" height="16">
0,0,0,1171,0,0,0,0,1169,0,0,0,0,0,0,0,
0,0,1124,1219,0,0,0,0,1217,1125,0,0,0,0,0,0,
0,1124,1219,0,0,0,0,0,0,1217,1125,0,0,0,0,0,
0,1171,0,0,0,0,0,0,0,0,1169,0,0,0,0,0,
0,1171,0,0,0,0,0,0,0,0,1169,0,0,0,0,0,
0,1171,0,0,0,0,0,0,0,0,1169,0,0,0,0,0,
0,1171,0,0,0,0,0,0,0,0,1169,0,0,0,0,0,
1218,1219,0,0,0,0,0,0,0,0,1169,0,0,0,0,0,
0,0,0,0,0,0,0,0,0,0,1169,0,0,0,0,0,
0,0,0,0,0,0,0,0,0,0,1217,0,0,0,0,0,
0,0,0,0,0,0,0,0,0,0,0,0,0,0,0,0,
0,0,0,0,0,0,0,0,0,0,0,0,0,0,0,0,
0,0,0,0,0,0,0,0,0,0,0,0,0,0,0,0,
1122,1123,0,0,0,0,0,0,0,0,0,0,0,0,0,0,
0,1171,0,0,0,0,0,0,0,0,0,0,0,0,0,0,
0,1171,0,0,0,0,0,0,0,0,0,0,0,0,0,0
</chunk>
   <chunk x="-16" y="0" width="16" height="16">
0,1171,0,0,0,0,0,0,0,0,1121,0,0,0,0,0,
0,1171,0,0,0,0,0,0,0,0,1169,0,0,0,0,0,
0,1172,1122,1122,1122,1122,1122,1122,1122,1122,1173,0,0,0,0,0,
0,0,0,0,0,0,0,0,0,0,0,0,0,0,0,0,
0,0,0,0,0,0,0,0,0,0,0,0,0,0,0,0,
0,0,0,0,0,0,0,0,0,0,0,0,0,0,0,0,
0,0,0,0,0,0,0,0,0,0,0,0,0,0,0,0,
0,0,0,0,0,0,0,0,0,0,0,0,0,0,0,0,
0,0,0,0,0,0,0,0,0,0,0,0,0,0,0,0,
0,0,0,0,0,0,0,0,0,0,0,0,0,0,0,0,
0,0,0,0,0,0,0,0,0,0,0,0,0,0,0,0,
0,0,0,0,0,0,0,0,0,0,0,0,0,0,0,0,
0,0,0,0,0,0,0,0,0,0,0,0,0,0,0,0,
0,0,0,0,0,0,0,0,0,0,0,0,0,0,0,0,
0,0,0,0,0,0,0,0,0,0,0,0,0,0,0,0,
0,0,0,0,0,0,0,0,0,0,0,0,0,0,0,0
</chunk>
  </data>
 </layer>
 <layer id="1" name="Main" width="30" height="20">
  <properties>
   <property name="layer" type="int" value="1"/>
  </properties>
  <data encoding="csv">
   <chunk x="-48" y="-32" width="16" height="16">
0,0,0,0,0,0,0,0,0,0,0,0,0,0,0,0,
0,0,0,0,0,0,0,0,0,0,0,0,0,0,0,0,
0,0,0,0,0,0,0,0,0,0,0,0,0,0,0,0,
0,0,0,0,1064,1064,1064,1064,1064,1064,1064,1064,1064,1064,1064,1064,
0,0,0,0,1064,1064,1064,1064,1064,1064,1064,1064,1064,1064,1064,1064,
0,0,0,0,1064,1064,1064,1064,1064,1064,1064,1064,1064,1064,1064,1064,
0,0,0,0,1064,1064,1064,1064,1064,1064,1064,1064,1064,1064,1064,1064,
0,0,0,0,1064,1064,1064,1064,1064,1064,1064,1064,1064,1064,1064,1064,
0,0,0,0,1064,1064,1064,1064,1064,1064,1064,1064,1064,1064,1064,1064,
0,0,0,0,1064,1064,1064,1064,1064,1064,1064,1064,1064,1064,1064,1064,
0,0,0,0,1064,1064,1064,1064,1064,1064,1064,1064,1064,1064,1064,1064,
0,0,0,0,1064,1064,1064,1064,1064,1064,1064,1064,1064,1064,1064,1064,
0,0,0,0,1064,1064,1064,1064,1064,1064,1064,1064,1064,1064,1064,1064,
0,0,0,0,1064,1064,1064,1064,1064,1064,1064,1064,1064,1064,1064,1064,
0,0,0,0,1064,1064,1064,1064,1064,1064,1064,1064,1064,1064,1064,1064,
0,0,0,0,1064,1064,1064,1064,1064,1064,1064,1064,1064,1064,1064,1064
</chunk>
   <chunk x="-32" y="-32" width="16" height="16">
0,0,0,0,0,0,0,0,0,0,0,0,0,0,0,0,
0,0,0,0,0,0,0,0,0,0,0,0,0,0,0,0,
0,0,0,0,0,0,0,0,0,0,0,0,0,0,0,0,
1064,1064,1064,1064,1064,1064,1064,1064,1064,1064,1064,1064,1064,1064,1064,1064,
1064,1064,1064,1064,1064,1064,1064,1064,1064,1064,1064,1064,1064,1064,1064,1064,
1064,1064,1064,1064,1064,1064,1064,1064,1064,1064,1064,1064,1064,1064,1064,1064,
1064,1064,1064,1064,1064,1064,1064,1064,1064,1064,1064,1064,1064,1064,1064,1064,
1064,1064,1064,1064,1064,1064,1064,1064,1064,1064,1064,1064,1064,1064,1064,1064,
1064,1064,1064,1064,1064,1064,1064,1064,1064,1064,1064,1064,1064,1064,1064,1064,
1064,1064,1064,1064,1064,1064,1064,1064,1064,1064,1064,1064,1064,1064,1064,1064,
1064,1064,1064,1064,1064,1064,1064,1064,1064,1064,1064,1064,1064,1064,1064,1064,
1064,1064,1064,1064,1064,1064,1064,1064,1064,1064,1064,1064,1064,1064,1064,1064,
1064,1064,1064,1064,1064,1064,1064,1064,1064,1064,1064,1064,1064,1064,1064,1064,
1064,1064,1064,1064,1064,1064,1064,1064,1064,1064,1064,1064,1064,1064,1064,1064,
1064,1064,1064,1064,1064,1064,1064,1064,1064,1064,1064,1064,1064,1064,1064,1064,
1064,1064,1064,1064,1064,1064,1064,1064,1064,1064,1064,1064,1064,1064,1064,1064
</chunk>
   <chunk x="-16" y="-32" width="16" height="16">
0,0,0,0,0,0,0,0,0,0,0,0,0,0,0,0,
0,0,0,0,0,0,0,0,0,0,0,0,0,0,0,0,
0,0,0,0,0,0,0,0,0,0,0,0,0,0,0,0,
1064,1064,1064,1064,1064,1064,1064,1064,1064,1064,1064,1064,1064,1064,1064,1064,
1064,1064,1064,1064,1064,1064,1064,1064,1064,1064,1064,1064,1064,1064,1064,1064,
1064,1064,1064,1064,1064,1064,1064,1064,1064,1064,1064,1064,1064,1064,1064,1064,
1064,1064,1064,1064,1064,1064,1064,1064,1064,1064,1064,1064,1064,1064,1064,1064,
1064,1064,1064,1064,1064,1064,1064,1064,1064,1064,1064,1064,1064,1064,1064,1064,
1064,1064,0,1065,0,0,0,0,1063,0,1064,1064,1064,1064,1064,1064,
1064,0,0,1065,0,0,0,0,1063,0,0,1064,1064,1064,1064,1064,
1064,0,1112,1113,0,0,0,0,1111,1112,0,1064,1064,1064,1064,1064,
1064,0,1065,0,0,0,497,500,0,1063,0,1064,1064,1064,1064,1064,
1064,0,1065,0,0,0,496,0,0,1063,0,1064,1064,1064,1064,1064,
1064,0,1065,0,0,497,548,0,0,1063,0,1064,1064,1064,1064,1064,
1064,0,1065,0,0,495,0,0,0,1063,0,1064,1064,1064,1064,1064,
1064,0,1065,0,0,496,0,0,0,1063,0,0,1064,1064,1064,1064
</chunk>
   <chunk x="0" y="-32" width="16" height="16">
0,0,0,0,0,0,0,0,0,0,0,0,0,0,0,0,
0,0,0,0,0,0,0,0,0,0,0,0,0,0,0,0,
0,0,0,0,0,0,0,0,0,0,0,0,0,0,0,0,
1064,1064,1064,1064,1064,1064,1064,1064,1064,1064,1064,1064,1064,1064,1064,1064,
1064,1064,1064,1064,1064,1064,1064,1064,1064,1064,1064,1064,1064,1064,1064,1064,
1064,1064,1064,1064,1064,1064,1064,1064,1064,1064,1064,1064,1064,1064,1064,1064,
1064,1064,1064,1064,1064,1064,1064,1064,1064,1064,1064,1064,1064,1064,1064,1064,
1064,1064,1064,1064,1064,1064,1064,1064,1064,1064,1064,1064,1064,1064,1064,1064,
1064,1064,1064,1064,1064,1064,1064,1064,1064,1064,1064,1064,1064,1064,1064,1064,
1064,1064,1064,1064,1064,1064,1064,1064,1064,1064,1064,1064,1064,1064,1064,1064,
1064,1064,1064,1064,1064,1064,1064,1064,1064,1064,1064,1064,1064,1064,1064,1064,
1064,1064,1064,1064,1064,1064,1064,1064,1064,1064,1064,1064,1064,1064,1064,1064,
1064,1064,1064,1064,1064,1064,1064,1064,1064,1064,1064,1064,1064,1064,1064,1064,
1064,1064,1064,1064,1064,1064,1064,1064,1064,1064,1064,1064,1064,1064,1064,1064,
1064,1064,1064,1064,1064,1064,1064,1064,1064,1064,1064,1064,1064,1064,1064,1064,
1064,1064,1064,1064,1064,1064,1064,1064,1064,1064,1064,1064,1064,1064,1064,1064
</chunk>
   <chunk x="16" y="-32" width="16" height="16">
0,0,0,0,0,0,0,0,0,0,0,0,0,0,0,0,
0,0,0,0,0,0,0,0,0,0,0,0,0,0,0,0,
0,0,0,0,0,0,0,0,0,0,0,0,0,0,0,0,
1064,1064,1064,1064,0,0,0,0,0,0,0,0,0,0,0,0,
1064,1064,1064,1064,0,0,0,0,0,0,0,0,0,0,0,0,
1064,1064,1064,1064,0,0,0,0,0,0,0,0,0,0,0,0,
1064,1064,1064,1064,0,0,0,0,0,0,0,0,0,0,0,0,
1064,1064,1064,1064,0,0,0,0,0,0,0,0,0,0,0,0,
1064,1064,1064,1064,0,0,0,0,0,0,0,0,0,0,0,0,
1064,1064,1064,1064,0,0,0,0,0,0,0,0,0,0,0,0,
1064,1064,1064,1064,0,0,0,0,0,0,0,0,0,0,0,0,
1064,1064,1064,1064,0,0,0,0,0,0,0,0,0,0,0,0,
1064,1064,1064,1064,0,0,0,0,0,0,0,0,0,0,0,0,
1064,1064,1064,1064,0,0,0,0,0,0,0,0,0,0,0,0,
1064,1064,1064,1064,0,0,0,0,0,0,0,0,0,0,0,0,
1064,1064,1064,1064,0,0,0,0,0,0,0,0,0,0,0,0
</chunk>
   <chunk x="-48" y="-16" width="16" height="16">
0,0,0,0,1064,1064,1064,1064,1064,1064,1064,1064,1064,1064,1064,1064,
0,0,0,0,1064,1064,1064,1064,1064,1064,1064,1064,1064,1064,1064,1064,
0,0,0,0,1064,1064,1064,1064,1064,1064,1064,1064,1064,1064,1064,1064,
0,0,0,0,1064,1064,1064,1064,1064,1064,1064,1064,1064,1064,1064,1064,
0,0,0,0,1064,1064,1064,1064,1064,1064,1064,1064,1064,1064,1064,1064,
0,0,0,0,1064,1064,1064,1064,1064,1064,1064,1064,1064,1064,1064,1064,
0,0,0,0,1064,1064,1064,1064,1064,1064,1064,1064,1064,1064,1064,1064,
0,0,0,0,1064,1064,1064,1064,1064,1064,1064,1064,1064,1064,1064,1064,
0,0,0,0,1064,1064,1064,1064,1064,1064,1064,1064,1064,1064,1064,1064,
0,0,0,0,1064,1064,1064,1064,1064,1064,1064,1064,1064,1064,1064,1064,
0,0,0,0,1064,1064,1064,1064,1064,1064,1064,1064,1064,1064,1064,1064,
0,0,0,0,1064,1064,1064,1064,1064,1064,1064,1064,1064,1064,1064,1064,
0,0,0,0,1064,1064,1064,1064,1064,1064,1064,1064,1064,1064,1064,1064,
0,0,0,0,1064,1064,1064,1064,1064,1064,1064,1064,1064,1064,1064,1064,
0,0,0,0,1064,1064,1064,1064,1064,1064,1064,1064,1064,1064,1064,1064,
0,0,0,0,1064,1064,1064,1064,1064,1064,1064,1064,1064,1064,1064,1064
</chunk>
   <chunk x="-32" y="-16" width="16" height="16">
1064,1064,1064,1064,1064,1064,1064,1064,1064,1064,1064,1064,1064,1064,1064,0,
1064,1064,1064,1064,1064,1064,1064,1064,1064,1064,1064,1064,1064,1064,1064,0,
1064,1064,1064,1064,1064,1064,1064,1064,1064,1064,1064,1064,1064,1064,1064,0,
1064,1064,1064,1064,1064,1064,1064,1064,1064,1064,1064,1064,1064,1064,1064,0,
1064,1064,1064,1064,1064,1064,1064,1064,1064,1064,1064,1064,1064,1064,1064,0,
1064,1064,1064,1064,1064,1064,1064,1064,1064,0,0,0,0,0,0,0,
1064,1064,1064,1064,1064,1064,1064,1064,1064,0,1112,1112,1112,1112,1112,1112,
1064,1064,1064,1064,1064,1064,1064,1064,1064,0,1065,0,0,0,0,0,
1064,1064,1064,1064,1064,1064,1064,1064,1064,0,1065,0,0,0,0,0,
1064,1064,1064,1064,1064,1064,1064,1064,1064,0,1065,0,0,0,0,0,
1064,1064,1064,1064,1064,1064,1064,1064,1064,0,1065,0,0,0,0,0,
1064,1064,1064,1064,1064,1064,1064,1064,1064,0,1065,0,0,0,0,0,
1064,1064,1064,1064,1064,1064,1064,1064,1064,0,1065,0,0,0,0,0,
1064,1064,1064,1064,1064,1064,1064,1064,1064,0,1065,0,0,0,0,0,
1064,1064,1064,1064,1064,1064,1064,1064,1064,0,1016,1016,1016,1016,1016,1016,
1064,1064,1064,1064,1064,1064,1064,1064,1064,0,0,0,0,0,0,0
</chunk>
   <chunk x="-16" y="-16" width="16" height="16">
1064,1112,1113,0,0,495,0,497,498,1111,1112,0,0,1064,1064,1064,
1112,1113,0,0,0,495,0,495,0,0,1111,1112,0,1064,1064,1064,
1065,0,0,0,0,495,0,496,0,0,0,1063,0,1064,1064,1064,
1065,0,497,498,498,501,0,495,0,0,0,1063,0,1064,1064,1064,
1065,544,545,0,0,495,0,495,0,0,0,1063,0,1064,1064,1064,
1065,545,0,0,0,496,0,496,0,0,0,1063,0,1064,1064,1064,
1113,0,0,0,0,495,0,495,0,0,0,1063,0,1064,1064,1064,
0,0,0,0,0,497,498,498,498,501,0,1063,0,1064,1064,1064,
0,0,0,0,0,495,0,0,0,592,592,1063,0,1064,1112,1112,
0,0,0,0,0,495,0,0,0,0,0,1111,1112,1112,1113,0,
0,0,0,0,0,496,0,0,0,0,0,0,0,0,0,0,
0,0,0,0,497,498,498,501,0,0,0,0,0,0,0,0,
0,0,0,0,495,0,0,495,0,0,0,0,0,0,0,0,
0,0,0,0,496,0,0,495,0,0,0,0,0,0,0,0,
1017,0,0,0,495,0,0,496,0,0,0,0,0,0,0,0,
1065,0,0,497,500,500,500,501,0,0,0,0,0,0,0,0
</chunk>
   <chunk x="0" y="-16" width="16" height="16">
1064,1064,1064,1064,1064,1064,1064,1064,1064,1064,1064,1064,1064,1064,1064,1064,
1064,1064,1064,1064,1064,1064,1064,1064,1064,1064,1064,1064,1064,1064,1064,1064,
1064,1064,1064,1064,1064,1064,1064,1064,1064,1064,1064,1064,1064,1064,1064,1064,
1064,1064,1064,1064,1064,1064,1064,1064,1064,1064,1064,1064,1064,1064,1064,1064,
1064,1064,1064,1064,1064,1064,1064,1064,1064,1064,1064,1064,1064,1064,1064,1064,
1064,1064,1064,1064,1064,1064,1064,1064,1064,1064,1064,1064,1064,1064,1064,1064,
1064,1064,1064,1064,1064,1064,1064,1064,1064,1064,1064,1064,1064,1064,1064,1064,
1064,1064,1064,1064,1064,1064,1064,1064,1064,1064,1064,1064,1064,1064,1064,1064,
1112,1112,1112,1112,1112,1112,1112,1064,1064,1064,1064,1064,1064,1064,1064,1064,
0,0,0,0,0,0,1111,1112,1112,1112,1064,1064,1064,1064,1064,1064,
0,0,0,0,0,0,0,0,0,0,1064,1064,1064,1064,1064,1064,
0,0,0,0,0,0,0,0,0,0,1064,1064,1064,1064,1064,1064,
0,0,0,0,0,0,0,0,0,0,1064,1064,1064,1064,1064,1064,
0,0,0,0,0,0,0,0,0,0,1064,1064,1064,1064,1064,1064,
0,0,0,0,0,0,0,0,0,0,1064,1064,1064,1064,1064,1064,
0,0,0,0,0,0,0,0,0,0,1064,1064,1064,1064,1064,1064
</chunk>
   <chunk x="16" y="-16" width="16" height="16">
1064,1064,1064,1064,0,0,0,0,0,0,0,0,0,0,0,0,
1064,1064,1064,1064,0,0,0,0,0,0,0,0,0,0,0,0,
1064,1064,1064,1064,0,0,0,0,0,0,0,0,0,0,0,0,
1064,1064,1064,1064,0,0,0,0,0,0,0,0,0,0,0,0,
1064,1064,1064,1064,0,0,0,0,0,0,0,0,0,0,0,0,
1064,1064,1064,1064,0,0,0,0,0,0,0,0,0,0,0,0,
1064,1064,1064,1064,0,0,0,0,0,0,0,0,0,0,0,0,
1064,1064,1064,1064,0,0,0,0,0,0,0,0,0,0,0,0,
1064,1064,1064,1064,0,0,0,0,0,0,0,0,0,0,0,0,
1064,1064,1064,1064,0,0,0,0,0,0,0,0,0,0,0,0,
1064,1064,1064,1064,0,0,0,0,0,0,0,0,0,0,0,0,
1064,1064,1064,1064,0,0,0,0,0,0,0,0,0,0,0,0,
1064,1064,1064,1064,0,0,0,0,0,0,0,0,0,0,0,0,
1064,1064,1064,1064,0,0,0,0,0,0,0,0,0,0,0,0,
1064,1064,1064,1064,0,0,0,0,0,0,0,0,0,0,0,0,
1064,1064,1064,1064,0,0,0,0,0,0,0,0,0,0,0,0
</chunk>
   <chunk x="-48" y="0" width="16" height="16">
0,0,0,0,1064,1064,1064,1064,1064,1064,1064,1064,1064,1064,1064,1064,
0,0,0,0,1064,1064,1064,1064,1064,1064,1064,1064,1064,1064,1064,1064,
0,0,0,0,1064,1064,1064,1064,1064,1064,1064,1064,1064,1064,1064,1064,
0,0,0,0,1064,1064,1064,1064,1064,1064,1064,1064,1064,1064,1064,1064,
0,0,0,0,1064,1064,1064,1064,1064,1064,1064,1064,1064,1064,1064,1064,
0,0,0,0,1064,1064,1064,1064,1064,1064,1064,1064,1064,1064,1064,1064,
0,0,0,0,1064,1064,1064,1064,1064,1064,1064,1064,1064,1064,1064,1064,
0,0,0,0,1064,1064,1064,1064,1064,1064,1064,1064,1064,1064,1064,1064,
0,0,0,0,1064,1064,1064,1064,1064,1064,1064,1064,1064,1064,1064,1064,
0,0,0,0,0,0,0,0,0,0,0,0,0,0,0,0,
0,0,0,0,0,0,0,0,0,0,0,0,0,0,0,0,
0,0,0,0,0,0,0,0,0,0,0,0,0,0,0,0,
0,0,0,0,0,0,0,0,0,0,0,0,0,0,0,0,
0,0,0,0,0,0,0,0,0,0,0,0,0,0,0,0,
0,0,0,0,0,0,0,0,0,0,0,0,0,0,0,0,
0,0,0,0,0,0,0,0,0,0,0,0,0,0,0,0
</chunk>
   <chunk x="-32" y="0" width="16" height="16">
1064,1064,1064,1064,1064,1064,1064,1064,1064,1064,1064,1064,1064,1064,1064,0,
1064,1064,1064,1064,1064,1064,1064,1064,1064,1064,1064,1064,1064,1064,1064,0,
1064,1064,1064,1064,1064,1064,1064,1064,1064,1064,1064,1064,1064,1064,1064,0,
1064,1064,1064,1064,1064,1064,1064,1064,1064,1064,1064,1064,1064,1064,1064,0,
1064,1064,1064,1064,1064,1064,1064,1064,1064,1064,1064,1064,1064,1064,1064,0,
1064,1064,1064,1064,1064,1064,1064,1064,1064,1064,1064,1064,1064,1064,1064,1064,
1064,1064,1064,1064,1064,1064,1064,1064,1064,1064,1064,1064,1064,1064,1064,1064,
1064,1064,1064,1064,1064,1064,1064,1064,1064,1064,1064,1064,1064,1064,1064,1064,
1064,1064,1064,1064,1064,1064,1064,1064,1064,1064,1064,1064,1064,1064,1064,1064,
1064,1064,1064,1064,1064,1064,1064,1064,1064,1064,1064,1064,1064,1064,1064,1064,
0,0,0,0,0,0,0,0,0,0,0,0,0,0,0,0,
0,0,0,0,0,0,0,0,0,0,0,0,0,0,0,0,
0,0,0,0,0,0,0,0,0,0,0,0,0,0,0,0,
0,0,0,0,0,0,0,0,0,0,0,0,0,0,0,0,
0,0,0,0,0,0,0,0,0,0,0,0,0,0,0,0,
0,0,0,0,0,0,0,0,0,0,0,0,0,0,0,0
</chunk>
   <chunk x="-16" y="0" width="16" height="16">
1065,0,0,495,0,0,0,496,0,0,0,1015,1016,1016,1017,0,
1065,0,0,496,0,0,0,495,0,0,0,1063,0,0,1016,1016,
1065,0,0,495,0,0,0,495,0,0,0,1063,0,1064,1064,1064,
1016,1016,1016,1016,1016,1016,1016,1016,1016,1016,1016,1016,0,1064,1064,1064,
0,0,0,0,0,0,0,0,0,0,0,0,0,1064,1064,1064,
1064,1064,1064,1064,1064,1064,1064,1064,1064,1064,1064,1064,1064,1064,1064,1064,
1064,1064,1064,1064,1064,1064,1064,1064,1064,1064,1064,1064,1064,1064,1064,1064,
1064,1064,1064,1064,1064,1064,1064,1064,1064,1064,1064,1064,1064,1064,1064,1064,
1064,1064,1064,1064,1064,1064,1064,1064,1064,1064,1064,1064,1064,1064,1064,1064,
1064,1064,1064,1064,1064,1064,1064,1064,1064,1064,1064,1064,1064,1064,1064,1064,
0,0,0,0,0,0,0,0,0,0,0,0,0,0,0,0,
0,0,0,0,0,0,0,0,0,0,0,0,0,0,0,0,
0,0,0,0,0,0,0,0,0,0,0,0,0,0,0,0,
0,0,0,0,0,0,0,0,0,0,0,0,0,0,0,0,
0,0,0,0,0,0,0,0,0,0,0,0,0,0,0,0,
0,0,0,0,0,0,0,0,0,0,0,0,0,0,0,0
</chunk>
   <chunk x="0" y="0" width="16" height="16">
0,0,0,0,0,0,1015,1016,1016,1016,1064,1064,1064,1064,1064,1064,
1016,1016,1016,1016,1016,1016,1016,0,0,0,1064,1064,1064,1064,1064,1064,
1064,1064,1064,1064,1064,1064,1064,1064,1064,1064,1064,1064,1064,1064,1064,1064,
1064,1064,1064,1064,1064,1064,1064,1064,1064,1064,1064,1064,1064,1064,1064,1064,
1064,1064,1064,1064,1064,1064,1064,1064,1064,1064,1064,1064,1064,1064,1064,1064,
1064,1064,1064,1064,1064,1064,1064,1064,1064,1064,1064,1064,1064,1064,1064,1064,
1064,1064,1064,1064,1064,1064,1064,1064,1064,1064,1064,1064,1064,1064,1064,1064,
1064,1064,1064,1064,1064,1064,1064,1064,1064,1064,1064,1064,1064,1064,1064,1064,
1064,1064,1064,1064,1064,1064,1064,1064,1064,1064,1064,1064,1064,1064,1064,1064,
1064,1064,1064,1064,1064,1064,1064,1064,1064,1064,1064,1064,1064,1064,1064,1064,
0,0,0,0,0,0,0,0,0,0,0,0,0,0,0,0,
0,0,0,0,0,0,0,0,0,0,0,0,0,0,0,0,
0,0,0,0,0,0,0,0,0,0,0,0,0,0,0,0,
0,0,0,0,0,0,0,0,0,0,0,0,0,0,0,0,
0,0,0,0,0,0,0,0,0,0,0,0,0,0,0,0,
0,0,0,0,0,0,0,0,0,0,0,0,0,0,0,0
</chunk>
   <chunk x="16" y="0" width="16" height="16">
1064,1064,1064,1064,0,0,0,0,0,0,0,0,0,0,0,0,
1064,1064,1064,1064,0,0,0,0,0,0,0,0,0,0,0,0,
1064,1064,1064,1064,0,0,0,0,0,0,0,0,0,0,0,0,
1064,1064,1064,1064,0,0,0,0,0,0,0,0,0,0,0,0,
1064,1064,1064,1064,0,0,0,0,0,0,0,0,0,0,0,0,
1064,1064,1064,1064,0,0,0,0,0,0,0,0,0,0,0,0,
1064,1064,1064,1064,0,0,0,0,0,0,0,0,0,0,0,0,
1064,1064,1064,1064,0,0,0,0,0,0,0,0,0,0,0,0,
1064,1064,1064,1064,0,0,0,0,0,0,0,0,0,0,0,0,
1064,1064,1064,1064,0,0,0,0,0,0,0,0,0,0,0,0,
0,0,0,0,0,0,0,0,0,0,0,0,0,0,0,0,
0,0,0,0,0,0,0,0,0,0,0,0,0,0,0,0,
0,0,0,0,0,0,0,0,0,0,0,0,0,0,0,0,
0,0,0,0,0,0,0,0,0,0,0,0,0,0,0,0,
0,0,0,0,0,0,0,0,0,0,0,0,0,0,0,0,
0,0,0,0,0,0,0,0,0,0,0,0,0,0,0,0
</chunk>
  </data>
 </layer>
 <layer id="7" name="Shrubbery" width="30" height="20">
  <properties>
   <property name="layer" type="int" value="2"/>
  </properties>
  <data encoding="csv">
   <chunk x="-32" y="-16" width="16" height="16">
0,0,0,0,0,0,0,0,0,0,0,0,0,0,0,0,
0,0,0,0,0,0,0,0,0,0,0,0,0,0,0,0,
0,0,0,0,0,0,0,0,0,0,0,0,0,0,0,0,
0,0,0,0,0,0,0,0,0,0,0,0,0,0,0,0,
0,0,0,0,0,0,0,0,0,0,0,0,0,0,0,0,
0,0,0,0,0,0,0,0,0,0,0,0,0,0,0,0,
0,0,0,0,0,0,0,0,0,0,0,0,0,0,0,0,
0,0,0,0,0,0,0,0,0,0,0,513,514,0,0,0,
0,0,0,0,0,0,0,0,0,0,0,561,562,0,0,0,
0,0,0,0,0,0,0,0,0,0,0,0,0,0,0,0,
0,0,0,0,0,0,0,0,0,0,0,0,0,0,0,0,
0,0,0,0,0,0,0,0,0,0,0,0,0,0,0,0,
0,0,0,0,0,0,0,0,0,0,0,0,314,315,316,317,
0,0,0,0,0,0,0,0,0,0,0,0,362,363,364,365,
0,0,0,0,0,0,0,0,0,0,0,0,0,0,0,0,
0,0,0,0,0,0,0,0,0,0,0,0,0,0,0,0
</chunk>
   <chunk x="-16" y="-16" width="16" height="16">
0,0,0,0,0,0,0,0,0,0,0,0,0,0,0,0,
0,0,562,0,0,0,0,0,0,0,0,0,0,0,0,0,
0,0,0,0,0,0,0,0,0,511,512,0,0,0,0,0,
0,0,0,0,0,0,0,0,0,559,560,0,0,0,0,0,
0,0,0,0,0,0,0,0,0,0,0,0,0,0,0,0,
0,0,0,0,0,0,0,0,0,0,0,0,0,0,0,0,
0,0,0,0,0,0,0,0,0,0,0,0,0,0,0,0,
0,0,0,0,0,0,0,0,0,0,0,0,0,0,0,0,
0,0,0,0,0,0,0,0,0,0,0,0,0,0,0,0,
0,0,0,0,0,0,0,0,0,0,0,0,0,0,0,0,
0,0,0,0,0,0,0,0,0,0,0,0,0,0,0,0,
0,0,0,0,0,0,0,0,0,0,0,0,0,0,0,0,
0,0,0,0,0,0,0,0,0,0,0,0,0,0,0,0,
0,0,0,314,315,316,317,0,0,0,0,0,0,0,0,0,
0,0,0,362,363,364,365,0,0,0,0,314,315,316,317,0,
0,0,0,0,0,0,0,0,0,0,0,362,363,364,365,314
</chunk>
   <chunk x="0" y="-16" width="16" height="16">
0,0,0,0,0,0,0,0,0,0,0,0,0,0,0,0,
0,0,0,0,0,0,0,0,0,0,0,0,0,0,0,0,
0,0,0,0,0,0,0,0,0,0,0,0,0,0,0,0,
0,0,0,0,0,0,0,0,0,0,0,0,0,0,0,0,
0,0,0,0,0,0,0,0,0,0,0,0,0,0,0,0,
0,0,0,0,0,0,0,0,0,0,0,0,0,0,0,0,
0,0,0,0,0,0,0,0,0,0,0,0,0,0,0,0,
0,0,0,0,0,0,0,0,0,0,0,0,0,0,0,0,
0,0,0,0,0,0,0,0,0,0,0,0,0,0,0,0,
0,0,0,0,0,0,0,0,0,0,0,0,0,0,0,0,
0,0,0,0,0,0,0,0,0,0,0,0,0,0,0,0,
0,0,0,0,0,0,0,0,0,0,0,0,0,0,0,0,
0,0,0,0,0,0,0,0,0,0,0,0,0,0,0,0,
0,0,0,0,0,0,0,0,0,0,0,0,0,0,0,0,
0,0,0,0,0,0,0,0,0,0,0,0,0,0,0,0,
315,316,317,0,314,315,317,0,0,0,0,0,0,0,0,0
</chunk>
   <chunk x="-16" y="0" width="16" height="16">
0,0,0,0,0,0,0,0,0,0,0,0,0,0,0,362,
0,316,317,0,0,0,0,0,0,0,0,0,0,0,0,0,
0,364,365,0,0,0,0,0,0,0,0,0,0,0,0,0,
0,0,0,0,0,0,0,0,0,0,0,0,0,0,0,0,
0,0,0,0,0,0,0,0,0,0,0,0,0,0,0,0,
0,0,0,0,0,0,0,0,0,0,0,0,0,0,0,0,
0,0,0,0,0,0,0,0,0,0,0,0,0,0,0,0,
0,0,0,0,0,0,0,0,0,0,0,0,0,0,0,0,
0,0,0,0,0,0,0,0,0,0,0,0,0,0,0,0,
0,0,0,0,0,0,0,0,0,0,0,0,0,0,0,0,
0,0,0,0,0,0,0,0,0,0,0,0,0,0,0,0,
0,0,0,0,0,0,0,0,0,0,0,0,0,0,0,0,
0,0,0,0,0,0,0,0,0,0,0,0,0,0,0,0,
0,0,0,0,0,0,0,0,0,0,0,0,0,0,0,0,
0,0,0,0,0,0,0,0,0,0,0,0,0,0,0,0,
0,0,0,0,0,0,0,0,0,0,0,0,0,0,0,0
</chunk>
   <chunk x="0" y="0" width="16" height="16">
363,364,365,0,362,363,0,0,0,0,0,0,0,0,0,0,
0,0,0,0,0,0,0,0,0,0,0,0,0,0,0,0,
0,0,0,0,0,0,0,0,0,0,0,0,0,0,0,0,
0,0,0,0,0,0,0,0,0,0,0,0,0,0,0,0,
0,0,0,0,0,0,0,0,0,0,0,0,0,0,0,0,
0,0,0,0,0,0,0,0,0,0,0,0,0,0,0,0,
0,0,0,0,0,0,0,0,0,0,0,0,0,0,0,0,
0,0,0,0,0,0,0,0,0,0,0,0,0,0,0,0,
0,0,0,0,0,0,0,0,0,0,0,0,0,0,0,0,
0,0,0,0,0,0,0,0,0,0,0,0,0,0,0,0,
0,0,0,0,0,0,0,0,0,0,0,0,0,0,0,0,
0,0,0,0,0,0,0,0,0,0,0,0,0,0,0,0,
0,0,0,0,0,0,0,0,0,0,0,0,0,0,0,0,
0,0,0,0,0,0,0,0,0,0,0,0,0,0,0,0,
0,0,0,0,0,0,0,0,0,0,0,0,0,0,0,0,
0,0,0,0,0,0,0,0,0,0,0,0,0,0,0,0
</chunk>
  </data>
 </layer>
 <layer id="5" name="Grass" width="30" height="20">
  <properties>
   <property name="layer" type="int" value="3"/>
  </properties>
  <data encoding="csv">
   <chunk x="-16" y="-32" width="16" height="16">
0,0,0,0,0,0,0,0,0,0,0,0,0,0,0,0,
0,0,0,0,0,0,0,0,0,0,0,0,0,0,0,0,
0,0,0,0,0,0,0,0,0,0,0,0,0,0,0,0,
0,0,0,0,0,0,0,0,0,0,0,0,0,0,0,0,
0,0,0,0,0,0,0,0,0,0,0,0,0,0,0,0,
0,0,0,0,0,0,0,0,0,0,0,0,0,0,0,0,
0,0,0,0,0,0,0,0,0,0,0,0,0,0,0,0,
0,0,0,0,0,0,0,0,0,0,0,0,0,0,0,0,
0,0,116,117,0,0,0,0,160,161,0,0,0,0,0,0,
0,306,212,213,0,0,0,0,208,209,309,0,0,0,0,0,
0,354,304,261,0,0,0,0,256,303,357,0,0,0,0,0,
0,164,165,0,0,0,0,0,0,160,161,0,0,0,0,0,
0,164,165,0,0,0,0,0,0,160,161,0,0,0,0,0,
0,116,117,0,0,0,0,0,0,112,113,0,0,0,0,0,
0,164,165,0,0,0,0,0,0,160,113,0,0,0,0,0,
306,212,213,0,0,0,0,0,0,208,161,309,0,0,0,0
</chunk>
   <chunk x="-32" y="-16" width="16" height="16">
0,0,0,0,0,0,0,0,0,0,0,0,0,0,0,306,
0,0,0,0,0,0,0,0,0,0,0,0,0,0,0,354,
0,0,0,0,0,0,0,0,0,0,0,0,0,0,0,164,
0,0,0,0,0,0,0,0,0,0,0,0,0,0,0,116,
0,0,0,0,0,0,0,0,0,0,0,0,0,0,0,164,
0,0,0,0,0,0,0,0,0,306,307,210,211,210,211,212,
0,0,0,0,0,0,0,0,0,354,355,258,259,258,259,260,
0,0,0,0,0,0,0,0,0,164,165,0,0,0,0,0,
0,0,0,0,0,0,0,0,0,116,117,0,0,0,0,0,
0,0,0,0,0,0,0,0,0,164,165,0,0,0,0,0,
0,0,0,0,0,0,0,0,0,116,117,0,0,0,0,0,
0,0,0,0,0,0,0,0,0,164,165,0,0,0,0,0,
0,0,0,0,0,0,0,0,0,116,117,0,0,0,0,0,
0,0,0,0,0,0,0,0,0,164,165,0,0,0,0,0,
0,0,0,0,0,0,0,0,0,402,403,18,19,18,19,20,
0,0,0,0,0,0,0,0,0,450,451,66,67,66,67,68
</chunk>
   <chunk x="-16" y="-16" width="16" height="16">
354,304,261,0,0,0,0,0,0,256,303,357,309,0,0,0,
304,261,0,0,0,0,0,0,0,0,256,303,357,0,0,0,
165,0,0,0,0,0,0,0,0,0,0,112,113,0,0,0,
117,0,0,0,0,0,0,0,0,0,0,160,161,0,0,0,
165,0,0,0,0,0,0,0,0,0,0,112,113,0,0,0,
213,0,0,0,0,0,0,0,0,0,0,160,161,0,0,0,
261,0,0,0,0,0,0,0,0,0,0,112,113,0,0,0,
0,0,0,0,0,0,0,0,0,0,0,160,161,0,0,0,
0,0,0,0,0,0,0,0,0,0,0,160,209,354,355,258,
0,0,0,0,0,0,0,0,0,0,0,256,257,260,261,0,
0,0,0,0,0,0,0,0,0,0,0,0,0,0,0,0,
0,0,0,0,0,0,0,0,0,0,0,0,0,0,0,0,
0,0,0,0,0,0,0,0,0,0,0,0,0,0,0,0,
0,0,0,0,0,0,0,0,0,0,0,0,0,0,0,0,
21,0,0,0,0,0,0,0,0,0,0,0,0,0,0,0,
69,0,0,0,0,0,0,0,0,0,0,0,0,0,0,0
</chunk>
   <chunk x="0" y="-16" width="16" height="16">
0,0,0,0,0,0,0,0,0,0,0,0,0,0,0,0,
0,0,0,0,0,0,0,0,0,0,0,0,0,0,0,0,
0,0,0,0,0,0,0,0,0,0,0,0,0,0,0,0,
0,0,0,0,0,0,0,0,0,0,0,0,0,0,0,0,
0,0,0,0,0,0,0,0,0,0,0,0,0,0,0,0,
0,0,0,0,0,0,0,0,0,0,0,0,0,0,0,0,
0,0,0,0,0,0,0,0,0,0,0,0,0,0,0,0,
0,0,0,0,0,0,0,0,0,0,0,0,0,0,0,0,
259,258,259,258,259,258,356,162,210,211,0,0,0,0,0,0,
0,0,0,0,0,0,256,257,258,259,0,0,0,0,0,0,
0,0,0,0,0,0,0,0,0,0,0,0,0,0,0,0,
0,0,0,0,0,0,0,0,0,0,0,0,0,0,0,0,
0,0,0,0,0,0,0,0,0,0,0,0,0,0,0,0,
0,0,0,0,0,0,0,0,0,0,0,0,0,0,0,0,
0,0,0,0,0,0,0,0,0,0,0,0,0,0,0,0,
0,0,0,0,0,0,0,311,312,0,0,0,0,0,0,0
</chunk>
   <chunk x="-32" y="0" width="16" height="16">
0,0,0,0,0,0,0,0,0,0,0,0,0,0,0,164,
0,0,0,0,0,0,0,0,0,0,0,0,0,0,0,116,
0,0,0,0,0,0,0,0,0,0,0,0,0,0,0,164,
0,0,0,0,0,0,0,0,0,0,0,0,0,0,0,402,
0,0,0,0,0,0,0,0,0,0,0,0,0,0,0,450,
0,0,0,0,0,0,0,0,0,0,0,0,0,0,0,0,
0,0,0,0,0,0,0,0,0,0,0,0,0,0,0,0,
0,0,0,0,0,0,0,0,0,0,0,0,0,0,0,0,
0,0,0,0,0,0,0,0,0,0,0,0,0,0,0,0,
0,0,0,0,0,0,0,0,0,0,0,0,0,0,0,0,
0,0,0,0,0,0,0,0,0,0,0,0,0,0,0,0,
0,0,0,0,0,0,0,0,0,0,0,0,0,0,0,0,
0,0,0,0,0,0,0,0,0,0,0,0,0,0,0,0,
0,0,0,0,0,0,0,0,0,0,0,0,0,0,0,0,
0,0,0,0,0,0,0,0,0,0,0,0,0,0,0,0,
0,0,0,0,0,0,0,0,0,0,0,0,0,0,0,0
</chunk>
   <chunk x="-16" y="0" width="16" height="16">
165,0,0,0,0,0,0,0,0,0,0,16,17,20,21,0,
117,0,0,0,0,0,0,0,0,0,0,64,65,68,403,18,
165,0,0,0,0,0,0,0,0,0,0,112,113,450,451,66,
403,18,19,18,19,18,19,18,19,18,19,404,405,0,0,0,
451,66,67,66,67,66,67,66,67,66,67,452,453,0,0,0,
0,0,0,0,0,0,0,0,0,0,0,0,0,0,0,0,
0,0,0,0,0,0,0,0,0,0,0,0,0,0,0,0,
0,0,0,0,0,0,0,0,0,0,0,0,0,0,0,0,
0,0,0,0,0,0,0,0,0,0,0,0,0,0,0,0,
0,0,0,0,0,0,0,0,0,0,0,0,0,0,0,0,
0,0,0,0,0,0,0,0,0,0,0,0,0,0,0,0,
0,0,0,0,0,0,0,0,0,0,0,0,0,0,0,0,
0,0,0,0,0,0,0,0,0,0,0,0,0,0,0,0,
0,0,0,0,0,0,0,0,0,0,0,0,0,0,0,0,
0,0,0,0,0,0,0,0,0,0,0,0,0,0,0,0,
0,0,0,0,0,0,0,0,0,0,0,0,0,0,0,0
</chunk>
   <chunk x="0" y="0" width="16" height="16">
0,0,0,312,0,0,16,17,18,19,0,0,0,0,0,0,
19,18,19,18,19,19,404,65,66,67,0,0,0,0,0,0,
67,66,67,66,67,67,452,453,0,0,0,0,0,0,0,0,
0,0,0,0,0,0,0,0,0,0,0,0,0,0,0,0,
0,0,0,0,0,0,0,0,0,0,0,0,0,0,0,0,
0,0,0,0,0,0,0,0,0,0,0,0,0,0,0,0,
0,0,0,0,0,0,0,0,0,0,0,0,0,0,0,0,
0,0,0,0,0,0,0,0,0,0,0,0,0,0,0,0,
0,0,0,0,0,0,0,0,0,0,0,0,0,0,0,0,
0,0,0,0,0,0,0,0,0,0,0,0,0,0,0,0,
0,0,0,0,0,0,0,0,0,0,0,0,0,0,0,0,
0,0,0,0,0,0,0,0,0,0,0,0,0,0,0,0,
0,0,0,0,0,0,0,0,0,0,0,0,0,0,0,0,
0,0,0,0,0,0,0,0,0,0,0,0,0,0,0,0,
0,0,0,0,0,0,0,0,0,0,0,0,0,0,0,0,
0,0,0,0,0,0,0,0,0,0,0,0,0,0,0,0
</chunk>
  </data>
 </layer>
 <layer id="6" name="Flowers" width="30" height="20">
  <properties>
   <property name="layer" type="int" value="4"/>
  </properties>
  <data encoding="csv">
   <chunk x="-16" y="-32" width="16" height="16">
0,0,0,0,0,0,0,0,0,0,0,0,0,0,0,0,
0,0,0,0,0,0,0,0,0,0,0,0,0,0,0,0,
0,0,0,0,0,0,0,0,0,0,0,0,0,0,0,0,
0,0,0,0,0,0,0,0,0,0,0,0,0,0,0,0,
0,0,0,0,0,0,0,0,0,0,0,0,0,0,0,0,
0,0,0,0,0,0,0,0,0,0,0,0,0,0,0,0,
0,0,0,0,0,0,0,0,0,0,0,0,0,0,0,0,
0,0,0,0,0,0,0,0,0,0,0,0,0,0,0,0,
0,0,0,0,0,0,0,0,22,0,0,0,0,0,0,0,
0,0,0,71,0,0,0,0,0,0,0,0,0,0,0,0,
0,0,0,0,0,0,0,0,0,0,0,0,0,0,0,0,
0,0,0,0,0,0,0,0,0,70,0,0,0,0,0,0,
0,0,71,0,0,0,0,0,0,0,0,0,0,0,0,0,
0,0,0,0,0,0,0,0,0,0,0,0,0,0,0,0,
0,0,0,0,0,0,0,0,0,22,0,0,0,0,0,0,
0,0,0,0,0,0,0,0,0,0,0,0,0,0,0,0
</chunk>
   <chunk x="-32" y="-16" width="16" height="16">
0,0,0,0,0,0,0,0,0,0,0,0,0,0,0,0,
0,0,0,0,0,0,0,0,0,0,0,0,0,0,0,0,
0,0,0,0,0,0,0,0,0,0,0,0,0,0,0,0,
0,0,0,0,0,0,0,0,0,0,0,0,0,0,0,0,
0,0,0,0,0,0,0,0,0,0,0,0,0,0,0,0,
0,0,0,0,0,0,0,0,0,0,0,0,0,0,0,0,
0,0,0,0,0,0,0,0,0,0,0,167,0,0,0,119,
0,0,0,0,0,0,0,0,0,0,0,0,0,0,0,0,
0,0,0,0,0,0,0,0,0,0,0,0,0,0,0,0,
0,0,0,0,0,0,0,0,0,0,23,0,0,0,0,0,
0,0,0,0,0,0,0,0,0,0,0,0,0,0,0,0,
0,0,0,0,0,0,0,0,0,0,0,0,0,0,0,0,
0,0,0,0,0,0,0,0,0,0,71,0,0,0,166,0,
0,0,0,0,0,0,0,0,0,0,0,0,0,0,0,0,
0,0,0,0,0,0,0,0,0,0,0,166,0,0,166,0,
0,0,0,0,0,0,0,0,0,0,0,0,0,0,0,0
</chunk>
   <chunk x="-16" y="-16" width="16" height="16">
0,167,0,0,0,0,0,0,0,0,0,0,0,0,0,0,
0,0,0,0,0,0,0,0,0,0,0,0,0,0,0,0,
0,0,0,0,0,0,0,0,0,0,0,0,0,0,0,0,
71,0,0,0,0,0,0,0,0,0,0,0,0,0,0,0,
0,0,0,0,0,0,0,0,0,0,0,22,0,0,0,0,
0,0,0,0,0,0,0,0,0,0,0,0,0,0,0,0,
0,0,0,0,0,0,0,0,0,0,0,0,0,0,0,0,
0,0,0,0,0,0,0,0,0,0,0,22,0,0,0,0,
0,0,0,0,0,0,0,0,0,0,0,0,0,0,0,119,
0,0,0,0,0,0,0,0,0,0,0,0,167,0,0,0,
0,0,0,0,0,0,0,0,0,0,0,0,0,0,0,0,
0,0,0,0,0,0,0,0,0,0,0,0,0,0,0,0,
0,0,0,0,0,0,0,0,0,0,0,0,0,0,0,0,
0,0,0,0,118,0,0,0,0,0,0,0,0,0,0,0,
0,0,0,0,0,0,0,0,0,0,0,0,0,166,0,0,
0,0,0,0,0,0,0,0,0,0,0,0,0,0,0,0
</chunk>
   <chunk x="0" y="-16" width="16" height="16">
0,0,0,0,0,0,0,0,0,0,0,0,0,0,0,0,
0,0,0,0,0,0,0,0,0,0,0,0,0,0,0,0,
0,0,0,0,0,0,0,0,0,0,0,0,0,0,0,0,
0,0,0,0,0,0,0,0,0,0,0,0,0,0,0,0,
0,0,0,0,0,0,0,0,0,0,0,0,0,0,0,0,
0,0,0,0,0,0,0,0,0,0,0,0,0,0,0,0,
0,0,0,0,0,0,0,0,0,0,0,0,0,0,0,0,
0,0,0,0,0,0,0,0,0,0,0,0,0,0,0,0,
0,0,0,167,0,0,0,0,0,0,0,0,0,0,0,0,
0,0,0,0,0,0,0,0,167,0,0,0,0,0,0,0,
0,0,0,0,0,0,0,0,0,0,0,0,0,0,0,0,
0,0,0,0,0,0,0,0,0,0,0,0,0,0,0,0,
0,0,0,0,0,0,0,0,0,0,0,0,0,0,0,0,
0,0,0,0,0,0,0,0,0,0,0,0,0,0,0,0,
0,0,0,0,0,0,0,0,0,0,0,0,0,0,0,0,
0,118,0,0,0,118,0,0,0,0,0,0,0,0,0,0
</chunk>
   <chunk x="-16" y="0" width="16" height="16">
0,0,0,0,0,0,0,0,0,0,0,0,118,0,0,0,
0,0,0,0,0,0,0,0,0,0,0,0,0,0,0,166,
0,0,0,0,0,0,0,0,0,0,0,0,0,0,0,0,
0,0,0,0,118,0,0,0,0,166,0,0,0,0,0,0,
0,0,0,0,0,0,0,0,0,0,0,0,0,0,0,0,
0,0,0,0,0,0,0,0,0,0,0,0,0,0,0,0,
0,0,0,0,0,0,0,0,0,0,0,0,0,0,0,0,
0,0,0,0,0,0,0,0,0,0,0,0,0,0,0,0,
0,0,0,0,0,0,0,0,0,0,0,0,0,0,0,0,
0,0,0,0,0,0,0,0,0,0,0,0,0,0,0,0,
0,0,0,0,0,0,0,0,0,0,0,0,0,0,0,0,
0,0,0,0,0,0,0,0,0,0,0,0,0,0,0,0,
0,0,0,0,0,0,0,0,0,0,0,0,0,0,0,0,
0,0,0,0,0,0,0,0,0,0,0,0,0,0,0,0,
0,0,0,0,0,0,0,0,0,0,0,0,0,0,0,0,
0,0,0,0,0,0,0,0,0,0,0,0,0,0,0,0
</chunk>
   <chunk x="0" y="0" width="16" height="16">
0,0,0,0,0,0,0,0,166,0,0,0,0,0,0,0,
0,0,0,0,166,0,0,0,0,0,0,0,0,0,0,0,
0,0,0,0,0,0,0,0,0,0,0,0,0,0,0,0,
0,0,0,0,0,0,0,0,0,0,0,0,0,0,0,0,
0,0,0,0,0,0,0,0,0,0,0,0,0,0,0,0,
0,0,0,0,0,0,0,0,0,0,0,0,0,0,0,0,
0,0,0,0,0,0,0,0,0,0,0,0,0,0,0,0,
0,0,0,0,0,0,0,0,0,0,0,0,0,0,0,0,
0,0,0,0,0,0,0,0,0,0,0,0,0,0,0,0,
0,0,0,0,0,0,0,0,0,0,0,0,0,0,0,0,
0,0,0,0,0,0,0,0,0,0,0,0,0,0,0,0,
0,0,0,0,0,0,0,0,0,0,0,0,0,0,0,0,
0,0,0,0,0,0,0,0,0,0,0,0,0,0,0,0,
0,0,0,0,0,0,0,0,0,0,0,0,0,0,0,0,
0,0,0,0,0,0,0,0,0,0,0,0,0,0,0,0,
0,0,0,0,0,0,0,0,0,0,0,0,0,0,0,0
</chunk>
  </data>
 </layer>
 <objectgroup id="3" name="Node">
  <object id="92" type=":" x="-480" y="-388" width="640" height="464" visible="0"/>
  <object id="93" type="_" x="-80" y="-16" width="64" height="16"/>
  <object id="96" name="@" x="160" y="-96" width="16" height="96">
   <properties>
    <property name="scene" value="Gardens2"/>
    <property name="target" value="door_3"/>
   </properties>
  </object>
  <object id="97" name="door_1" type="+" x="132" y="-16">
   <point/>
  </object>
  <object id="102" type="_" x="-16" y="0" width="112" height="16"/>
  <object id="103" type="_" x="96" y="-16" width="64" height="16"/>
  <object id="107" name="*" x="-192" y="-384" width="12" height="48"/>
  <object id="108" name="*" x="-192" y="-336" width="8" height="8"/>
  <object id="109" name="*" x="-208" y="-336" width="16" height="16"/>
  <object id="110" name="*" x="-208" y="-320" width="12" height="80"/>
  <object id="111" name="*" x="-208" y="-240" width="8" height="8"/>
  <object id="112" name="*" x="-224" y="-240" width="16" height="16"/>
  <object id="113" name="*" x="-224" y="-224" width="8" height="8"/>
  <object id="114" name="*" x="-240" y="-224" width="16" height="16"/>
  <object id="115" name="*" x="-240" y="-208" width="12" height="64"/>
  <object id="116" name="*" x="-240" y="-144" width="8" height="8"/>
  <object id="117" name="*" x="-320" y="-144" width="80" height="12"/>
  <object id="118" name="*" x="-336" y="-144" width="16" height="16"/>
  <object id="119" name="*" x="-336" y="-128" width="12" height="80"/>
  <object id="120" name="*" x="-336" y="-48" width="16" height="16"/>
  <object id="121" name="*" x="-320" y="-44" width="80" height="12"/>
  <object id="122" name="*" x="-240" y="-40" width="8" height="8"/>
  <object id="123" name="*" x="-240" y="-32" width="12" height="64"/>
  <object id="124" name="*" x="-240" y="32" width="16" height="16"/>
  <object id="125" name="*" x="-224" y="36" width="128" height="12"/>
  <object id="126" name="*" x="-96" y="32" width="16" height="16"/>
  <object id="128" name="*" x="-92" y="16" width="12" height="16"/>
  <object id="129" name="*" x="-88" y="8" width="8" height="8"/>
  <object id="130" name="*" x="-88" y="-112" width="8" height="8"/>
  <object id="131" name="*" x="-92" y="-208" width="12" height="96"/>
  <object id="132" name="*" x="-96" y="-224" width="16" height="16"/>
  <object id="133" name="*" x="-104" y="-224" width="8" height="8"/>
  <object id="134" name="*" x="-112" y="-240" width="16" height="16"/>
  <object id="135" name="*" x="-120" y="-240" width="8" height="8"/>
  <object id="136" name="*" x="-124" y="-320" width="12" height="80"/>
  <object id="137" name="*" x="-128" y="-336" width="16" height="16"/>
  <object id="138" name="*" x="-136" y="-336" width="8" height="8"/>
  <object id="139" name="*" x="-140" y="-384" width="12" height="48"/>
  <object id="142" name="@" x="-192" y="-400" width="64" height="16">
   <properties>
    <property name="scene" value="Gardens12"/>
    <property name="target" value="door_1"/>
   </properties>
  </object>
  <object id="143" name="door_2" type="+" x="-152" y="-352">
   <point/>
  </object>
 </objectgroup>
 <objectgroup id="2" name="Collision">
  <properties>
   <property name="collision" type="bool" value="true"/>
  </properties>
  <object id="70" x="-80" y="0" width="64" height="16"/>
  <object id="71" x="-80" y="16" width="16" height="48"/>
  <object id="72" x="-256" y="48" width="176" height="16"/>
  <object id="73" x="-256" y="-32" width="16" height="80"/>
  <object id="74" x="-352" y="-32" width="96" height="16"/>
  <object id="75" x="-352" y="-160" width="16" height="128"/>
  <object id="76" x="-336" y="-160" width="96" height="16"/>
  <object id="77" x="-256" y="-240" width="16" height="80"/>
  <object id="78" x="-240" y="-256" width="16" height="32"/>
  <object id="79" x="-224" y="-352" width="16" height="112"/>
  <object id="80" x="-208" y="-432" width="16" height="96"/>
  <object id="81" x="-128" y="-432" width="16" height="96"/>
  <object id="82" x="-112" y="-352" width="16" height="112"/>
  <object id="83" x="-96" y="-256" width="16" height="32"/>
  <object id="84" x="-80" y="-240" width="16" height="144"/>
  <object id="85" x="-64" y="-112" width="48" height="16"/>
  <object id="88" x="-208" y="-16" width="80" height="8">
   <properties>
    <property name="one_way" type="bool" value="true"/>
   </properties>
  </object>
  <object id="89" x="-192" y="-80" width="64" height="8">
   <properties>
    <property name="one_way" type="bool" value="true"/>
   </properties>
  </object>
  <object id="90" x="-176" y="-144" width="80" height="8">
   <properties>
    <property name="one_way" type="bool" value="true"/>
   </properties>
  </object>
  <object id="91" x="-224" y="-208" width="64" height="8">
   <properties>
    <property name="one_way" type="bool" value="true"/>
   </properties>
  </object>
  <object id="94" x="192" y="-112" width="16" height="128"/>
  <object id="98" x="-32" y="16" width="144" height="16"/>
  <object id="99" x="96" y="0" width="96" height="16"/>
  <object id="100" x="96" y="-112" width="96" height="16"/>
  <object id="101" x="-32" y="-128" width="144" height="16"/>
  <object id="104" x="-144" y="-256" width="32" height="8">
   <properties>
    <property name="one_way" type="bool" value="true"/>
   </properties>
  </object>
  <object id="105" x="-176" y="-304" width="32" height="8">
   <properties>
    <property name="one_way" type="bool" value="true"/>
   </properties>
  </object>
  <object id="106" x="-160" y="-336" width="32" height="8">
   <properties>
    <property name="one_way" type="bool" value="true"/>
   </properties>
  </object>
  <object id="141" x="-192" y="-432" width="64" height="16"/>
 </objectgroup>
</map>
