<?xml version="1.0" encoding="UTF-8"?>
<map version="1.10" tiledversion="1.12.1" orientation="orthogonal" renderorder="right-down" width="30" height="20" tilewidth="16" tileheight="16" infinite="1" nextlayerid="10" nextobjectid="140">
 <tileset firstgid="1" source="../Atlas.tsx"/>
 <layer id="1" name="Main" width="30" height="20">
  <properties>
   <property name="layer" type="int" value="1"/>
  </properties>
  <data encoding="csv">
   <chunk x="-80" y="-32" width="16" height="16">
0,0,0,0,0,0,0,0,0,0,0,0,0,0,0,0,
0,0,0,0,0,0,0,0,0,0,0,0,0,0,0,0,
0,0,0,0,0,0,0,0,0,0,0,0,0,0,0,0,
0,0,0,0,0,0,0,0,0,0,0,0,0,0,0,0,
0,0,0,0,0,0,0,0,0,0,0,0,0,0,0,0,
0,0,0,0,0,0,0,0,0,0,0,0,0,1064,1064,1064,
0,0,0,0,0,0,0,0,0,0,0,0,0,1064,1064,1064,
0,0,0,0,0,0,0,0,0,0,0,0,0,1064,1064,1064,
0,0,0,0,0,0,0,0,0,0,0,0,0,1064,1064,1064,
0,0,0,0,0,0,0,0,0,0,0,0,0,1064,1064,1064,
0,0,0,0,0,0,0,0,0,0,0,0,0,1064,1064,1064,
0,0,0,0,0,0,0,0,0,0,0,0,0,1064,1064,1064,
0,0,0,0,0,0,0,0,0,0,0,0,0,1064,1064,1064,
0,0,0,0,0,0,0,0,0,0,0,0,0,1064,1064,1064,
0,0,0,0,0,0,0,0,0,0,0,0,0,1064,1064,1064,
0,0,0,0,0,0,0,0,0,0,0,0,0,1064,1064,1064
</chunk>
   <chunk x="-64" y="-32" width="16" height="16">
0,0,0,0,0,0,0,0,0,0,0,0,0,0,0,0,
0,0,0,0,0,0,0,0,0,0,0,0,0,0,0,0,
0,0,0,0,0,0,0,0,0,0,0,0,0,0,0,0,
0,0,0,0,0,0,0,0,0,0,0,0,0,0,0,0,
0,0,0,0,0,0,0,0,0,0,0,0,0,0,0,0,
1064,1064,1064,1064,1064,1064,1064,1064,1064,1064,1064,1064,1064,1064,1064,1064,
1064,1064,1064,1064,1064,1064,1064,1064,1064,1064,1064,1064,1064,1064,1064,1064,
1064,1064,1064,1064,1064,1064,1064,1064,1064,1064,1064,1064,1064,1064,1064,1064,
1064,1064,1064,1064,1064,1064,1064,1064,1064,1064,1064,1064,1064,1064,1064,1064,
1064,1064,1064,1064,1064,1064,1064,1064,1064,1064,1064,1064,1064,1064,1064,1064,
1064,1064,1064,1064,1064,1064,1064,1064,1064,1064,1064,1064,1064,1064,1064,1064,
1064,1064,1064,1064,1064,1064,1064,1064,1064,1064,1064,1064,1064,1064,1064,1064,
1064,1064,1064,1064,1064,1064,1064,1064,1064,1064,1064,1064,1064,1064,1064,1064,
1064,1064,1064,1064,1064,1064,1064,1064,1064,1064,1064,1064,1064,1064,1064,1064,
1064,1064,1064,1064,1064,1064,1064,1064,1064,1064,1064,1064,1064,1064,1064,1064,
1064,1064,1064,1064,1064,1064,1064,1064,1064,1064,1064,1064,1064,1064,1064,1064
</chunk>
   <chunk x="-48" y="-32" width="16" height="16">
0,0,0,0,0,0,0,0,0,0,0,0,0,0,0,0,
0,0,0,0,0,0,0,0,0,0,0,0,0,0,0,0,
0,0,0,0,0,0,0,0,0,0,0,0,0,0,0,0,
0,0,0,0,0,0,0,0,0,0,0,0,0,0,0,0,
0,0,0,0,0,0,0,0,0,0,0,0,0,0,0,0,
1064,1064,1064,1064,1064,1064,1064,1064,1064,1064,1064,1064,1064,1064,1064,1064,
1064,1064,1064,1064,1064,1064,1064,1064,1064,1064,1064,1064,1064,1064,1064,1064,
1064,1064,1064,1064,1064,1064,1064,1064,1064,1064,1064,1064,1064,1064,1064,1064,
1064,1064,1064,1064,1064,1064,1064,1064,1064,1064,1064,1064,1064,1064,1064,1064,
1064,1064,1064,1064,1064,1064,1064,1064,1064,1064,1064,1064,1064,1064,1064,1064,
1064,1064,1064,1064,1064,1064,1064,1064,1064,1064,1064,1064,1064,1064,1064,1064,
1064,1064,1064,1064,1064,1064,1064,1064,1064,1064,1064,1064,1064,1064,1064,1064,
1064,1064,1064,1064,1064,1064,1064,1064,1064,1064,1064,1064,1064,1064,1064,1064,
1064,1064,1064,1064,1064,1064,1064,1064,1064,1064,1064,1064,1064,1064,1064,1064,
1064,1064,1064,1064,1064,1064,1064,1064,1064,1064,1064,1064,1064,1064,1064,1064,
1064,1064,1064,1064,1064,1064,1064,1064,1064,1064,1064,1064,1064,1064,1064,1064
</chunk>
   <chunk x="-32" y="-32" width="16" height="16">
0,0,0,0,0,0,0,0,0,0,0,0,0,0,0,0,
0,0,0,0,0,0,0,0,0,0,0,0,0,0,0,0,
0,0,0,0,0,0,0,0,0,0,0,0,0,0,0,0,
0,0,0,0,0,0,0,0,0,0,0,0,0,0,0,0,
0,0,0,0,0,0,0,0,0,0,0,0,0,0,0,0,
1064,1064,1064,1064,1064,1064,1064,1064,1064,1064,1064,1064,1064,1064,1064,1064,
1064,1064,1064,1064,1064,1064,1064,1064,1064,1064,1064,1064,1064,1064,1064,1064,
1064,1064,1064,1064,1064,1064,1064,1064,1064,1064,1064,1064,1064,1064,1064,1064,
1064,1064,1064,1064,1064,1064,1064,1064,1064,1064,1064,1064,1064,1064,1064,1064,
1064,1064,1064,1064,1064,1064,1064,1064,1064,1064,1064,1064,1064,1064,1064,1064,
1064,1064,1064,1064,1064,1064,1064,1064,1064,1064,1064,1064,1064,1064,1064,1064,
1064,1064,1064,1064,1064,1064,1064,1064,1064,1064,1064,1064,1064,1064,1064,1064,
1064,1064,1064,1064,1064,1064,1064,1064,1064,1064,1064,1064,1064,1064,1064,1064,
1064,1064,1064,1064,1064,1064,1064,1064,1064,1064,1064,1064,1064,1064,1064,1064,
1064,1064,1064,1064,1064,1064,1064,1064,1064,1064,1064,1064,1064,1064,1064,1064,
1064,1064,1064,1064,1064,1064,1064,1064,1064,1064,1064,1064,1064,1064,1064,1064
</chunk>
   <chunk x="-16" y="-32" width="16" height="16">
0,0,0,0,0,0,0,0,0,0,0,0,0,0,0,0,
0,0,0,0,0,0,0,0,0,0,0,0,0,0,0,0,
0,0,0,0,0,0,0,0,0,0,0,0,0,0,0,0,
0,0,0,0,0,0,0,0,0,0,0,0,0,0,0,0,
0,0,0,0,0,0,0,0,0,0,0,0,0,0,0,0,
1064,1064,1064,1064,1064,1064,1064,1064,1064,1064,1064,1064,1064,1064,1064,1064,
1064,1064,1064,1064,1064,1064,1064,1064,1064,1064,1064,1064,1064,1064,1064,1064,
1064,1064,1064,1064,1064,1064,1064,1064,1064,1064,1064,1064,1064,1064,1064,1064,
1064,1064,1064,1064,1064,1064,1064,1064,1064,1064,1064,1064,1064,1064,1064,1064,
1064,1064,1064,1064,1064,1064,1064,1064,1064,1064,1064,1064,1064,1064,1064,1064,
1064,1064,1064,1064,1064,1064,1064,1064,1064,1064,1064,1064,1064,1064,1064,1064,
1064,1064,1064,1064,1064,1064,1064,1064,1064,1064,1064,1064,1064,1064,1064,1064,
1064,1064,1064,1064,1064,1064,1064,1064,1064,1064,1064,1064,1064,1064,1064,1064,
1064,1064,1064,1064,1064,1064,1064,1064,1064,1064,1064,1064,1064,1064,1064,1064,
1064,1064,1064,1064,1064,1064,1064,1064,1064,1064,1064,1064,1064,1064,1064,1064,
1064,1064,1064,1064,1064,1064,1064,1064,1064,1064,1064,1064,1064,1064,1064,1064
</chunk>
   <chunk x="0" y="-32" width="16" height="16">
0,0,0,0,0,0,0,0,0,0,0,0,0,0,0,0,
0,0,0,0,0,0,0,0,0,0,0,0,0,0,0,0,
0,0,0,0,0,0,0,0,0,0,0,0,0,0,0,0,
0,0,0,0,0,0,0,0,0,0,0,0,0,0,0,0,
0,0,0,0,0,0,0,0,0,0,0,0,0,0,0,0,
1064,1064,1064,1064,1064,1064,1064,1064,1064,1064,1064,1064,1064,1064,1064,0,
1064,1064,1064,1064,1064,1064,1064,1064,1064,1064,1064,1064,1064,1064,1064,0,
1064,1064,1064,1064,1064,1064,1064,1064,1064,1064,1064,1064,1064,1064,1064,0,
1064,1064,1064,1064,1064,1064,1064,1064,1064,1064,1064,1064,1064,1064,1064,0,
1064,1064,1064,1064,1064,1064,1064,1064,1064,1064,1064,1064,1064,1064,1064,0,
1064,1064,1064,1064,1064,1064,1064,1064,1064,1064,1064,1064,1064,1064,1064,0,
1064,1064,1064,1064,1064,1064,1064,1064,1064,1064,1064,1064,1064,1064,1064,0,
1064,1064,1064,1064,1064,1064,1064,1064,1064,1064,1064,1064,1064,1064,1064,0,
1064,1064,1064,1064,1064,1064,1064,1064,1064,1064,1064,1064,1064,1064,1064,0,
1064,1064,1064,1064,1064,1064,1064,1064,1064,1064,1064,1064,1064,1064,1064,0,
1064,1064,1064,1064,1064,1064,1064,1064,1064,1064,1064,1064,1064,1064,1064,0
</chunk>
   <chunk x="-80" y="-16" width="16" height="16">
0,0,0,0,0,0,0,0,0,0,0,0,0,1064,1064,1064,
0,0,0,0,0,0,0,0,0,0,0,0,0,1064,1064,1064,
0,0,0,0,0,0,0,0,0,0,0,0,0,1064,1064,1064,
0,0,0,0,0,0,0,0,0,0,0,0,0,1064,1064,1064,
0,0,0,0,0,0,0,0,0,0,0,0,0,1064,1064,1064,
0,0,0,0,0,0,0,0,0,0,0,0,0,1064,1064,1064,
0,0,0,0,0,0,0,0,0,0,0,0,0,1064,1064,1064,
0,0,0,0,0,0,0,0,0,0,0,0,0,1064,1064,1064,
0,0,0,0,0,0,0,0,0,0,0,0,0,1064,1064,1064,
0,0,0,0,0,0,0,0,0,0,0,0,0,1064,1064,1064,
0,0,0,0,0,0,0,0,0,0,0,0,0,1064,1064,1064,
0,0,0,0,0,0,0,0,0,0,0,0,0,1064,1064,1064,
0,0,0,0,0,0,0,0,0,0,0,0,0,1064,1064,1064,
0,0,0,0,0,0,0,0,0,0,0,0,0,1064,1064,1064,
0,0,0,0,0,0,0,0,0,0,0,0,0,1064,1064,1064,
0,0,0,0,0,0,0,0,0,0,0,0,0,1064,1064,1064
</chunk>
   <chunk x="-64" y="-16" width="16" height="16">
1064,1064,1064,1064,1064,1064,1064,1064,1064,1064,1064,1064,1064,1064,1064,1064,
1064,1064,1064,1064,1064,1064,1064,1064,1064,1064,1064,1064,1064,1064,1064,1064,
1064,1064,1064,1064,1064,1064,1064,1064,1064,1064,1064,1064,1064,1064,1064,1064,
1064,1064,1064,1064,1064,1064,1064,1064,1064,1064,1064,1064,1064,1064,1064,1064,
1064,1064,1064,1064,1064,1064,1064,1064,1064,1064,1064,1064,1064,1064,1064,1064,
1064,1064,1064,1064,1064,1064,1064,1064,1064,1064,1064,1064,1064,1064,1064,1064,
1064,1064,1064,1064,1064,1064,1064,1064,1064,1064,1064,1064,1064,1064,1064,1064,
1064,1064,1064,1064,1064,1064,1064,1064,1064,1064,1064,1064,1064,1064,1064,1064,
1064,1064,1064,1064,1064,1064,1064,1064,1064,1064,1064,1064,1064,1064,1064,1064,
1064,1064,1064,1064,1064,1064,1064,1064,1064,1064,1064,1064,1064,1064,1064,1064,
1064,1064,1064,1064,1064,1064,1064,1064,1064,1064,1064,1064,1064,1064,1064,1064,
1064,1064,1064,1064,1064,1064,1064,1064,1064,1064,1064,1064,1064,1064,1064,1064,
1064,1064,1064,1064,1064,1064,1064,1064,1064,1064,1064,1064,1064,1064,1064,1064,
1064,1064,1064,1064,1064,1064,1064,1064,1064,1064,1064,1064,1064,1064,1064,1064,
1064,1064,1064,1064,1064,1064,1064,1064,1064,1064,1064,1064,1064,1064,1064,1064,
1064,1064,1064,1064,1064,1064,1064,1064,1064,1064,1064,1064,1064,1064,1064,1064
</chunk>
   <chunk x="-48" y="-16" width="16" height="16">
1064,1064,1064,1064,1064,1064,1064,1064,1064,1064,1064,1064,1064,1064,1064,1064,
1064,1064,1064,1064,1064,1064,1064,1064,1064,1064,1064,1064,1064,1064,1064,1064,
1064,1064,1064,1064,1064,1064,1064,1064,1064,1064,1064,1064,1064,1064,1064,1064,
1064,1064,1064,1064,1064,1064,1064,1064,1064,1064,1064,1064,1064,1064,1064,1064,
1064,1064,1064,1064,1064,1064,1064,1064,1064,1064,1064,1064,1064,1064,1064,1064,
1064,1064,1064,1064,1064,1064,1064,1064,1064,1064,1064,1064,1064,1064,0,0,
1064,1064,1064,1064,1064,1064,1064,1064,1064,1064,0,0,0,1112,1112,1112,
1064,1064,1064,1064,1064,1064,1064,1064,0,0,0,1112,1112,1113,0,0,
1064,1064,1064,1064,1064,1064,1064,1064,0,1112,1112,1113,0,0,0,0,
1064,1064,1064,1064,1064,1064,1064,1064,0,1065,0,0,0,0,0,0,
1064,1064,1064,1064,1064,1064,1064,1064,0,1065,0,0,0,0,0,0,
1064,1064,1064,1064,1064,1064,1064,1064,0,1065,0,0,0,0,0,0,
1064,1064,1064,1064,1064,1064,1064,1064,0,1065,0,0,0,0,0,0,
1064,1064,1064,1064,1064,1064,1064,1064,0,1065,0,0,0,0,0,0,
1064,1064,1064,1064,1064,1064,1064,1064,0,1065,0,0,0,0,0,0,
1064,1064,1064,1064,1064,1064,1064,1064,0,1065,0,0,0,0,0,0
</chunk>
   <chunk x="-32" y="-16" width="16" height="16">
1064,1064,1064,1064,1064,1064,1064,1064,1064,1064,1064,1064,1064,1064,1064,1064,
1064,1064,1064,1064,1064,1064,1064,1064,1064,1064,1064,1064,1064,1064,1064,1064,
1064,1064,1064,1064,1064,1064,1064,1064,1064,1064,1064,1064,1064,1064,1064,1064,
1064,1064,1064,1064,1064,1064,1064,1064,1064,1064,1064,1064,1064,1064,1064,1064,
0,0,0,0,0,0,0,0,0,0,0,0,1064,1064,1064,1064,
0,1112,1112,1112,1112,1112,1112,1112,1112,1112,1112,0,0,0,0,0,
1112,1113,0,0,0,0,0,0,0,0,1111,1112,1112,1112,1112,0,
0,0,0,0,0,0,0,0,0,0,0,0,0,0,1111,1112,
0,0,0,0,0,0,0,0,0,0,0,0,0,0,0,0,
0,0,0,0,0,0,0,0,0,0,0,0,0,0,0,0,
0,0,0,0,0,1135,1136,0,0,0,0,0,0,0,0,0,
0,0,0,0,0,1183,1184,0,0,0,0,0,0,0,0,0,
0,0,0,0,0,1231,1232,0,0,0,0,0,0,0,0,0,
0,0,0,0,0,1279,1280,0,0,0,0,0,0,0,0,0,
0,1323,1324,1325,1326,1327,1328,1329,1330,1331,1332,0,0,0,0,0,
0,1371,1372,1373,1374,1375,1376,1377,1378,1379,1380,0,0,0,0,0
</chunk>
   <chunk x="-16" y="-16" width="16" height="16">
1064,1064,1064,1064,1064,1064,1064,1064,1064,1064,1064,1064,1064,1064,1064,1064,
1064,1064,1064,1064,1064,1064,1064,1064,1064,1064,1064,1064,1064,1064,1064,1064,
1064,1064,1064,1064,1064,1064,1064,1064,1064,1064,1064,1064,1064,1064,1064,1064,
1064,1064,1064,1064,1064,1064,1064,1064,1064,1064,1064,1064,1064,1064,0,0,
1064,1064,1064,1064,1064,1064,1064,1064,1064,1064,1064,1064,0,0,0,1112,
1064,1064,1064,1064,1064,1064,1064,1064,1064,1064,0,0,0,1112,1112,1113,
0,0,1064,1064,1064,1064,1064,1064,1064,1064,0,1112,1112,1113,0,0,
1112,0,0,0,0,0,0,0,0,0,0,1065,0,0,0,0,
1111,1112,1112,1112,1112,1112,1112,1112,1112,1112,1112,1113,0,0,0,0,
0,0,0,0,0,0,0,0,0,0,0,0,1190,1191,1192,1193,
0,0,0,0,0,0,0,0,0,0,0,0,1238,1239,1240,1241,
0,0,0,0,0,0,0,0,0,0,0,0,1286,1287,1288,1289,
0,0,0,0,0,0,0,0,0,0,0,0,1334,1335,1336,1337,
0,0,0,0,0,0,0,0,0,0,0,0,1382,1383,1384,1385,
0,0,0,0,0,0,0,0,0,0,0,0,1430,1431,1432,1433,
0,0,0,0,0,0,0,0,0,0,0,0,1478,1479,1480,1481
</chunk>
   <chunk x="0" y="-16" width="16" height="16">
1064,1064,1064,1064,1064,1064,1064,1064,1064,1064,1064,1064,1064,1064,1064,0,
1064,1064,1064,1064,1064,1064,1064,1064,1064,1064,1064,1064,1064,1064,1064,0,
1064,1064,1064,1064,1064,1064,1064,1064,1064,1064,1064,1064,1064,1064,1064,0,
0,0,0,1064,1064,1064,1064,1064,1064,1064,1064,0,0,1065,0,0,
1112,1112,0,0,1064,1064,1064,1064,1064,1064,1064,0,1112,1113,0,0,
0,1111,1112,1112,0,0,0,1064,1064,0,0,0,1065,0,0,0,
0,0,0,1111,1112,1112,0,1064,1064,0,1112,1112,1113,0,0,0,
0,0,0,0,0,1063,0,0,0,0,1065,0,0,0,0,0,
0,0,0,0,0,1111,1112,1112,1112,1112,1113,0,0,0,0,0,
1194,1195,1196,1197,1198,0,0,0,0,0,0,0,0,0,0,0,
1242,1243,1244,1245,1246,0,0,0,0,0,0,0,0,0,0,0,
1290,1291,1292,1293,1294,0,0,0,0,0,0,0,0,0,0,0,
1338,1339,1340,1341,1342,0,0,0,0,0,0,0,0,0,0,0,
1386,1387,1388,1389,1390,0,0,0,0,0,0,0,0,0,0,0,
1434,1435,1436,1437,1438,0,0,0,0,0,0,0,0,0,0,0,
1482,1483,1484,1485,1486,0,0,0,0,0,0,0,0,0,0,0
</chunk>
   <chunk x="-80" y="0" width="16" height="16">
0,0,0,0,0,0,0,0,0,0,0,0,0,1064,1064,1064,
0,0,0,0,0,0,0,0,0,0,0,0,0,1064,1064,1064,
0,0,0,0,0,0,0,0,0,0,0,0,0,1064,1064,1064,
0,0,0,0,0,0,0,0,0,0,0,0,0,1064,1064,1064,
0,0,0,0,0,0,0,0,0,0,0,0,0,1064,1064,1064,
0,0,0,0,0,0,0,0,0,0,0,0,0,1064,1064,1064,
0,0,0,0,0,0,0,0,0,0,0,0,0,1064,1064,1064,
0,0,0,0,0,0,0,0,0,0,0,0,0,1064,1064,1064,
0,0,0,0,0,0,0,0,0,0,0,0,0,1064,1064,1064,
0,0,0,0,0,0,0,0,0,0,0,0,0,1064,1064,1064,
0,0,0,0,0,0,0,0,0,0,0,0,0,1064,1064,1064,
0,0,0,0,0,0,0,0,0,0,0,0,0,1064,1064,1064,
0,0,0,0,0,0,0,0,0,0,0,0,0,1064,1064,1064,
0,0,0,0,0,0,0,0,0,0,0,0,0,1064,1064,1064,
0,0,0,0,0,0,0,0,0,0,0,0,0,1064,1064,1064,
0,0,0,0,0,0,0,0,0,0,0,0,0,1064,1064,1064
</chunk>
   <chunk x="-64" y="0" width="16" height="16">
1064,1064,1064,1064,1064,1064,1064,1064,1064,1064,1064,1064,1064,1064,1064,1064,
1064,1064,1064,1064,1064,1064,1064,1064,1064,1064,1064,1064,1064,1064,1064,1064,
1064,1064,1064,1064,1064,1064,1064,1064,1064,1064,1064,1064,1064,1064,1064,1064,
1064,1064,1064,1064,1064,1064,1064,1064,1064,1064,1064,1064,1064,1064,1064,1064,
1064,1064,1064,1064,1064,1064,1064,1064,1064,1064,1064,1064,1064,1064,1064,1064,
1064,1064,1064,1064,1064,1064,1064,1064,1064,1064,1064,1064,1064,1064,1064,1064,
1064,1064,1064,1064,1064,1064,1064,1064,1064,1064,1064,1064,1064,1064,1064,1064,
1064,1064,1064,1064,1064,1064,1064,1064,1064,1064,1064,1064,1064,1064,1064,1064,
1064,1064,1064,1064,1064,1064,1064,1064,1064,1064,1064,1064,1064,1064,1064,1064,
1064,1064,1064,1064,1064,1064,1064,1064,1064,1064,1064,1064,1064,1064,1064,1064,
1064,1064,1064,1064,1064,1064,1064,1064,1064,1064,1064,1064,1064,1064,1064,1064,
1064,1064,1064,1064,1064,1064,1064,1064,1064,1064,1064,1064,1064,1064,1064,1064,
1064,1064,1064,1064,1064,1064,1064,1064,1064,1064,1064,1064,1064,1064,1064,1064,
1064,1064,1064,1064,1064,1064,1064,1064,1064,1064,1064,1064,1064,1064,1064,1064,
1064,1064,1064,1064,1064,1064,1064,1064,1064,1064,1064,1064,1064,1064,1064,1064,
1064,1064,1064,1064,1064,1064,1064,1064,1064,1064,1064,1064,1064,1064,1064,1064
</chunk>
   <chunk x="-48" y="0" width="16" height="16">
1064,1064,1064,1064,1064,1064,1064,1064,0,1016,1016,1017,0,0,0,0,
1064,1064,1064,1064,1064,1064,1064,1064,0,0,0,1016,1016,1017,0,0,
1064,1064,1064,1064,1064,1064,1064,1064,1064,1064,0,0,0,1016,1016,1016,
1064,1064,1064,1064,1064,1064,1064,1064,1064,1064,1064,1064,0,0,0,0,
1064,1064,1064,1064,1064,1064,1064,1064,1064,1064,1064,1064,1064,1064,1064,1064,
1064,1064,1064,1064,1064,1064,1064,1064,1064,1064,1064,1064,1064,1064,1064,1064,
1064,1064,1064,1064,1064,1064,1064,1064,1064,1064,1064,1064,1064,1064,1064,1064,
1064,1064,1064,1064,1064,1064,1064,1064,1064,1064,1064,1064,1064,1064,1064,1064,
1064,1064,1064,1064,1064,1064,1064,1064,1064,1064,1064,1064,1064,1064,1064,1064,
1064,1064,1064,1064,1064,1064,1064,1064,1064,1064,1064,1064,1064,1064,1064,1064,
1064,1064,1064,1064,1064,1064,1064,1064,1064,1064,1064,1064,1064,1064,1064,1064,
1064,1064,1064,1064,1064,1064,1064,1064,1064,1064,1064,1064,1064,1064,1064,1064,
1064,1064,1064,1064,1064,1064,1064,1064,1064,1064,1064,1064,1064,1064,1064,1064,
1064,1064,1064,1064,1064,1064,1064,1064,1064,1064,1064,1064,1064,1064,1064,1064,
1064,1064,1064,1064,1064,1064,1064,1064,1064,1064,1064,1064,1064,1064,1064,1064,
1064,1064,1064,1064,1064,1064,1064,1064,1064,1064,1064,1064,1064,1064,1064,1064
</chunk>
   <chunk x="-32" y="0" width="16" height="16">
0,1419,1420,1421,1422,1423,1424,1425,1426,1427,1428,0,0,0,0,0,
0,1467,1468,1469,1470,1471,1472,1473,1474,1475,1476,0,0,0,1015,1016,
1016,1016,1016,1016,1016,1016,1016,1016,1016,1016,1016,1016,1016,1016,1016,0,
0,0,0,0,0,0,0,0,0,0,0,0,0,0,0,0,
1064,1064,1064,1064,1064,1064,1064,1064,1064,1064,1064,1064,1064,1064,1064,1064,
1064,1064,1064,1064,1064,1064,1064,1064,1064,1064,1064,1064,1064,1064,1064,1064,
1064,1064,1064,1064,1064,1064,1064,1064,1064,1064,1064,1064,1064,1064,1064,1064,
1064,1064,1064,1064,1064,1064,1064,1064,1064,1064,1064,1064,1064,1064,1064,1064,
1064,1064,1064,1064,1064,1064,1064,1064,1064,1064,1064,1064,1064,1064,1064,1064,
1064,1064,1064,1064,1064,1064,1064,1064,1064,1064,1064,1064,1064,1064,1064,1064,
1064,1064,1064,1064,1064,1064,1064,1064,1064,1064,1064,1064,1064,1064,1064,1064,
1064,1064,1064,1064,1064,1064,1064,1064,1064,1064,1064,1064,1064,1064,1064,1064,
1064,1064,1064,1064,1064,1064,1064,1064,1064,1064,1064,1064,1064,1064,1064,1064,
1064,1064,1064,1064,1064,1064,1064,1064,1064,1064,1064,1064,1064,1064,1064,1064,
1064,1064,1064,1064,1064,1064,1064,1064,1064,1064,1064,1064,1064,1064,1064,1064,
1064,1064,1064,1064,1064,1064,1064,1064,1064,1064,1064,1064,1064,1064,1064,1064
</chunk>
   <chunk x="-16" y="0" width="16" height="16">
1015,1016,1017,0,0,0,547,0,0,0,1015,1016,1016,1016,1016,1016,
1016,0,1065,0,0,0,495,0,0,0,1063,0,0,0,0,0,
0,0,1065,0,0,1015,1016,1017,0,0,1063,0,1064,1064,1064,1064,
1064,0,1016,1016,1016,1016,1016,1016,1016,1016,1016,0,1064,1064,1064,1064,
1064,0,0,0,0,0,0,0,0,0,0,0,1064,1064,1064,1064,
1064,1064,1064,1064,1064,1064,1064,1064,1064,1064,1064,1064,1064,1064,1064,1064,
1064,1064,1064,1064,1064,1064,1064,1064,1064,1064,1064,1064,1064,1064,1064,1064,
1064,1064,1064,1064,1064,1064,1064,1064,1064,1064,1064,1064,1064,1064,1064,1064,
1064,1064,1064,1064,1064,1064,1064,1064,1064,1064,1064,1064,1064,1064,1064,1064,
1064,1064,1064,1064,1064,1064,1064,1064,1064,1064,1064,1064,1064,1064,1064,1064,
1064,1064,1064,1064,1064,1064,1064,1064,1064,1064,1064,1064,1064,1064,1064,1064,
1064,1064,1064,1064,1064,1064,1064,1064,1064,1064,1064,1064,1064,1064,1064,1064,
1064,1064,1064,1064,1064,1064,1064,1064,1064,1064,1064,1064,1064,1064,1064,1064,
1064,1064,1064,1064,1064,1064,1064,1064,1064,1064,1064,1064,1064,1064,1064,1064,
1064,1064,1064,1064,1064,1064,1064,1064,1064,1064,1064,1064,1064,1064,1064,1064,
1064,1064,1064,1064,1064,1064,1064,1064,1064,1064,1064,1064,1064,1064,1064,1064
</chunk>
   <chunk x="0" y="0" width="16" height="16">
1016,1016,1016,1016,1016,1016,1016,1016,1016,1017,0,0,0,0,0,0,
0,0,0,0,0,0,0,0,0,1065,0,0,0,0,0,0,
1064,1064,1064,1064,1064,1064,0,1112,1112,1113,0,0,0,0,0,0,
1064,1064,1064,1064,1064,1064,0,1065,0,0,0,0,0,0,0,0,
1064,1064,1064,1064,1064,1064,0,1065,0,0,0,0,0,0,0,0,
1064,1064,1064,1064,0,0,0,1065,0,0,0,0,0,0,0,0,
1064,1064,1064,1064,0,1112,1112,1113,0,0,0,0,0,0,0,0,
1064,1064,1064,1064,0,1065,0,0,0,0,0,0,0,0,0,0,
1064,1064,1064,1064,0,1065,0,0,0,0,0,0,0,0,0,0,
1064,1064,1064,1064,0,1065,0,0,0,0,0,0,0,0,0,0,
1064,1064,1064,1064,1064,0,0,0,0,0,0,0,0,0,0,0,
1064,1064,1064,1064,1064,0,0,0,0,0,0,0,0,0,0,0,
1064,1064,1064,1064,1064,0,0,0,0,0,0,0,0,0,0,0,
1064,1064,1064,1064,1064,0,0,0,0,0,0,0,0,0,0,0,
1064,1064,1064,1064,1064,0,0,0,0,0,0,0,0,0,0,0,
1064,1064,1064,1064,1064,0,0,0,0,0,0,0,0,0,0,0
</chunk>
   <chunk x="-80" y="16" width="16" height="16">
0,0,0,0,0,0,0,0,0,0,0,0,0,1064,1064,1064,
0,0,0,0,0,0,0,0,0,0,0,0,0,1064,1064,1064,
0,0,0,0,0,0,0,0,0,0,0,0,0,1064,1064,1064,
0,0,0,0,0,0,0,0,0,0,0,0,0,0,0,0,
0,0,0,0,0,0,0,0,0,0,0,0,0,0,0,0,
0,0,0,0,0,0,0,0,0,0,0,0,0,0,0,0,
0,0,0,0,0,0,0,0,0,0,0,0,0,0,0,0,
0,0,0,0,0,0,0,0,0,0,0,0,0,0,0,0,
0,0,0,0,0,0,0,0,0,0,0,0,0,0,0,0,
0,0,0,0,0,0,0,0,0,0,0,0,0,0,0,0,
0,0,0,0,0,0,0,0,0,0,0,0,0,0,0,0,
0,0,0,0,0,0,0,0,0,0,0,0,0,0,0,0,
0,0,0,0,0,0,0,0,0,0,0,0,0,0,0,0,
0,0,0,0,0,0,0,0,0,0,0,0,0,0,0,0,
0,0,0,0,0,0,0,0,0,0,0,0,0,0,0,0,
0,0,0,0,0,0,0,0,0,0,0,0,0,0,0,0
</chunk>
   <chunk x="-64" y="16" width="16" height="16">
1064,1064,1064,1064,1064,1064,1064,1064,1064,1064,1064,1064,1064,1064,1064,1064,
1064,1064,1064,1064,1064,1064,1064,1064,1064,1064,1064,1064,1064,1064,1064,1064,
1064,1064,1064,1064,1064,1064,1064,1064,1064,1064,1064,1064,1064,1064,1064,1064,
0,0,0,0,0,0,0,0,0,0,0,0,0,0,0,0,
0,0,0,0,0,0,0,0,0,0,0,0,0,0,0,0,
0,0,0,0,0,0,0,0,0,0,0,0,0,0,0,0,
0,0,0,0,0,0,0,0,0,0,0,0,0,0,0,0,
0,0,0,0,0,0,0,0,0,0,0,0,0,0,0,0,
0,0,0,0,0,0,0,0,0,0,0,0,0,0,0,0,
0,0,0,0,0,0,0,0,0,0,0,0,0,0,0,0,
0,0,0,0,0,0,0,0,0,0,0,0,0,0,0,0,
0,0,0,0,0,0,0,0,0,0,0,0,0,0,0,0,
0,0,0,0,0,0,0,0,0,0,0,0,0,0,0,0,
0,0,0,0,0,0,0,0,0,0,0,0,0,0,0,0,
0,0,0,0,0,0,0,0,0,0,0,0,0,0,0,0,
0,0,0,0,0,0,0,0,0,0,0,0,0,0,0,0
</chunk>
   <chunk x="-48" y="16" width="16" height="16">
1064,1064,1064,1064,1064,1064,1064,1064,1064,1064,1064,1064,1064,1064,1064,1064,
1064,1064,1064,1064,1064,1064,1064,1064,1064,1064,1064,1064,1064,1064,1064,1064,
1064,1064,1064,1064,1064,1064,1064,1064,1064,1064,1064,1064,1064,1064,1064,1064,
0,0,0,0,0,0,0,0,0,0,0,0,0,0,0,0,
0,0,0,0,0,0,0,0,0,0,0,0,0,0,0,0,
0,0,0,0,0,0,0,0,0,0,0,0,0,0,0,0,
0,0,0,0,0,0,0,0,0,0,0,0,0,0,0,0,
0,0,0,0,0,0,0,0,0,0,0,0,0,0,0,0,
0,0,0,0,0,0,0,0,0,0,0,0,0,0,0,0,
0,0,0,0,0,0,0,0,0,0,0,0,0,0,0,0,
0,0,0,0,0,0,0,0,0,0,0,0,0,0,0,0,
0,0,0,0,0,0,0,0,0,0,0,0,0,0,0,0,
0,0,0,0,0,0,0,0,0,0,0,0,0,0,0,0,
0,0,0,0,0,0,0,0,0,0,0,0,0,0,0,0,
0,0,0,0,0,0,0,0,0,0,0,0,0,0,0,0,
0,0,0,0,0,0,0,0,0,0,0,0,0,0,0,0
</chunk>
   <chunk x="-32" y="16" width="16" height="16">
1064,1064,1064,1064,1064,1064,1064,1064,1064,1064,1064,1064,1064,1064,1064,1064,
1064,1064,1064,1064,1064,1064,1064,1064,1064,1064,1064,1064,1064,1064,1064,1064,
1064,1064,1064,1064,1064,1064,1064,1064,1064,1064,1064,1064,1064,1064,1064,1064,
0,0,0,0,0,0,0,0,0,0,0,0,0,0,0,0,
0,0,0,0,0,0,0,0,0,0,0,0,0,0,0,0,
0,0,0,0,0,0,0,0,0,0,0,0,0,0,0,0,
0,0,0,0,0,0,0,0,0,0,0,0,0,0,0,0,
0,0,0,0,0,0,0,0,0,0,0,0,0,0,0,0,
0,0,0,0,0,0,0,0,0,0,0,0,0,0,0,0,
0,0,0,0,0,0,0,0,0,0,0,0,0,0,0,0,
0,0,0,0,0,0,0,0,0,0,0,0,0,0,0,0,
0,0,0,0,0,0,0,0,0,0,0,0,0,0,0,0,
0,0,0,0,0,0,0,0,0,0,0,0,0,0,0,0,
0,0,0,0,0,0,0,0,0,0,0,0,0,0,0,0,
0,0,0,0,0,0,0,0,0,0,0,0,0,0,0,0,
0,0,0,0,0,0,0,0,0,0,0,0,0,0,0,0
</chunk>
   <chunk x="-16" y="16" width="16" height="16">
1064,1064,1064,1064,1064,1064,1064,1064,1064,1064,1064,1064,1064,1064,1064,1064,
1064,1064,1064,1064,1064,1064,1064,1064,1064,1064,1064,1064,1064,1064,1064,1064,
1064,1064,1064,1064,1064,1064,1064,1064,1064,1064,1064,1064,1064,1064,1064,1064,
0,0,0,0,0,0,0,0,0,0,0,0,0,0,0,0,
0,0,0,0,0,0,0,0,0,0,0,0,0,0,0,0,
0,0,0,0,0,0,0,0,0,0,0,0,0,0,0,0,
0,0,0,0,0,0,0,0,0,0,0,0,0,0,0,0,
0,0,0,0,0,0,0,0,0,0,0,0,0,0,0,0,
0,0,0,0,0,0,0,0,0,0,0,0,0,0,0,0,
0,0,0,0,0,0,0,0,0,0,0,0,0,0,0,0,
0,0,0,0,0,0,0,0,0,0,0,0,0,0,0,0,
0,0,0,0,0,0,0,0,0,0,0,0,0,0,0,0,
0,0,0,0,0,0,0,0,0,0,0,0,0,0,0,0,
0,0,0,0,0,0,0,0,0,0,0,0,0,0,0,0,
0,0,0,0,0,0,0,0,0,0,0,0,0,0,0,0,
0,0,0,0,0,0,0,0,0,0,0,0,0,0,0,0
</chunk>
   <chunk x="0" y="16" width="16" height="16">
1064,1064,1064,1064,1064,0,0,0,0,0,0,0,0,0,0,0,
1064,1064,1064,1064,1064,0,0,0,0,0,0,0,0,0,0,0,
1064,1064,1064,1064,1064,0,0,0,0,0,0,0,0,0,0,0,
0,0,0,0,0,0,0,0,0,0,0,0,0,0,0,0,
0,0,0,0,0,0,0,0,0,0,0,0,0,0,0,0,
0,0,0,0,0,0,0,0,0,0,0,0,0,0,0,0,
0,0,0,0,0,0,0,0,0,0,0,0,0,0,0,0,
0,0,0,0,0,0,0,0,0,0,0,0,0,0,0,0,
0,0,0,0,0,0,0,0,0,0,0,0,0,0,0,0,
0,0,0,0,0,0,0,0,0,0,0,0,0,0,0,0,
0,0,0,0,0,0,0,0,0,0,0,0,0,0,0,0,
0,0,0,0,0,0,0,0,0,0,0,0,0,0,0,0,
0,0,0,0,0,0,0,0,0,0,0,0,0,0,0,0,
0,0,0,0,0,0,0,0,0,0,0,0,0,0,0,0,
0,0,0,0,0,0,0,0,0,0,0,0,0,0,0,0,
0,0,0,0,0,0,0,0,0,0,0,0,0,0,0,0
</chunk>
  </data>
 </layer>
 <layer id="8" name="Spikes" width="30" height="20">
  <properties>
   <property name="Spikes" type="int" value="1"/>
  </properties>
  <data encoding="csv">
   <chunk x="0" y="-16" width="16" height="16">
0,0,0,0,0,0,0,0,0,0,0,0,0,0,0,0,
0,0,0,0,0,0,0,0,0,0,0,0,0,0,0,0,
0,0,0,0,0,0,0,0,0,0,0,0,0,0,0,0,
0,0,0,0,0,0,0,0,0,0,0,0,0,0,1171,0,
0,0,0,0,0,0,0,0,0,0,0,0,0,0,1171,0,
0,0,0,0,0,0,0,0,0,0,0,0,0,1124,1219,0,
0,0,0,0,0,0,0,0,0,0,0,0,0,1171,0,0,
0,0,0,0,0,0,0,0,0,0,0,1124,1218,1219,0,0,
0,0,0,0,0,0,0,0,0,0,0,1171,0,0,0,0,
0,0,0,0,0,0,0,1217,1218,1218,1218,1219,0,0,0,0,
0,0,0,0,0,0,0,0,0,0,0,0,0,0,0,0,
0,0,0,0,0,0,0,0,0,0,0,0,0,0,0,0,
0,0,0,0,0,0,0,0,0,0,0,0,0,0,0,0,
0,0,0,0,0,0,0,0,0,0,0,0,0,0,0,0,
0,0,0,0,0,0,0,0,0,0,0,0,0,0,0,0,
0,0,0,0,0,0,0,0,0,0,0,0,0,0,0,0
</chunk>
   <chunk x="-16" y="0" width="16" height="16">
0,0,0,1123,0,0,0,0,0,1121,694,0,0,0,0,0,
0,0,0,1171,1121,1122,1122,1122,1123,1169,742,0,0,0,0,0,
0,0,0,1172,1173,0,0,0,1172,1173,746,0,0,0,0,0,
0,0,0,0,0,0,0,0,0,0,0,0,0,0,0,0,
0,0,0,0,0,0,0,0,0,0,0,0,0,0,0,0,
0,0,0,0,0,0,0,0,0,0,0,0,0,0,0,0,
0,0,0,0,0,0,0,0,0,0,0,0,0,0,0,0,
0,0,0,0,0,0,0,0,0,0,0,0,0,0,0,0,
0,0,0,0,0,0,0,0,0,0,0,0,0,0,0,0,
0,0,0,0,0,0,0,0,0,0,0,0,0,0,0,0,
0,0,0,0,0,0,0,0,0,0,0,0,0,0,0,0,
0,0,0,0,0,0,0,0,0,0,0,0,0,0,0,0,
0,0,0,0,0,0,0,0,0,0,0,0,0,0,0,0,
0,0,0,0,0,0,0,0,0,0,0,0,0,0,0,0,
0,0,0,0,0,0,0,0,0,0,0,0,0,0,0,0,
0,0,0,0,0,0,0,0,0,0,0,0,0,0,0,0
</chunk>
   <chunk x="0" y="0" width="16" height="16">
0,0,0,0,0,0,0,0,0,0,1123,0,0,0,0,0,
0,0,0,0,0,0,0,0,0,0,1171,0,0,0,0,0,
0,0,0,0,0,0,0,0,0,0,1171,0,0,0,0,0,
0,0,0,0,0,0,0,0,1124,1218,1219,0,0,0,0,0,
0,0,0,0,0,0,0,0,1171,0,0,0,0,0,0,0,
0,0,0,0,0,0,0,0,1171,0,0,0,0,0,0,0,
0,0,0,0,0,0,0,0,1171,0,0,0,0,0,0,0,
0,0,0,0,0,0,1124,1218,1219,0,0,0,0,0,0,0,
0,0,0,0,0,0,1171,0,0,0,0,0,0,0,0,0,
0,0,0,0,0,0,1171,0,0,0,0,0,0,0,0,0,
0,0,0,0,0,0,0,0,0,0,0,0,0,0,0,0,
0,0,0,0,0,0,0,0,0,0,0,0,0,0,0,0,
0,0,0,0,0,0,0,0,0,0,0,0,0,0,0,0,
0,0,0,0,0,0,0,0,0,0,0,0,0,0,0,0,
0,0,0,0,0,0,0,0,0,0,0,0,0,0,0,0,
0,0,0,0,0,0,0,0,0,0,0,0,0,0,0,0
</chunk>
  </data>
 </layer>
 <layer id="7" name="Shrubbery" width="30" height="20">
  <properties>
   <property name="layer" type="int" value="2"/>
  </properties>
  <data encoding="csv">
   <chunk x="-48" y="-16" width="16" height="16">
0,0,0,0,0,0,0,0,0,0,0,0,0,0,0,0,
0,0,0,0,0,0,0,0,0,0,0,0,0,0,0,0,
0,0,0,0,0,0,0,0,0,0,0,0,0,0,0,0,
0,0,0,0,0,0,0,0,0,0,0,0,0,0,0,0,
0,0,0,0,0,0,0,0,0,0,0,0,0,0,0,0,
0,0,0,0,0,0,0,0,0,0,0,0,0,0,0,0,
0,0,0,0,0,0,0,0,0,0,0,0,0,0,0,0,
0,0,0,0,0,0,0,0,0,0,0,0,0,0,562,0,
0,0,0,0,0,0,0,0,0,0,0,0,562,0,0,0,
0,0,0,0,0,0,0,0,0,0,0,0,0,0,0,0,
0,0,0,0,0,0,0,0,0,0,0,0,0,0,0,0,
0,0,0,0,0,0,0,0,0,0,0,0,0,0,0,0,
0,0,0,0,0,0,0,0,0,0,0,0,0,0,0,0,
0,0,0,0,0,0,0,0,0,0,0,0,0,0,0,0,
0,0,0,0,0,0,0,0,0,0,316,317,0,0,0,0,
0,0,0,0,0,0,0,0,0,0,364,365,0,0,0,0
</chunk>
   <chunk x="-32" y="-16" width="16" height="16">
0,0,0,0,0,0,0,0,0,0,0,0,0,0,0,0,
0,0,0,0,0,0,0,0,0,0,0,0,0,0,0,0,
0,0,0,0,0,0,0,0,0,0,0,0,0,0,0,0,
0,0,0,0,0,0,0,0,0,0,0,0,0,0,0,0,
0,0,0,0,0,0,0,0,0,0,0,0,0,0,0,0,
0,0,0,0,0,0,0,0,0,0,0,0,0,0,0,0,
0,0,562,0,0,0,0,0,0,0,0,0,0,0,0,0,
0,0,0,0,0,0,0,0,0,0,0,0,511,512,0,0,
0,0,0,0,0,0,0,0,0,0,0,0,559,560,562,0,
0,0,0,0,0,0,0,0,0,0,0,0,0,0,0,0,
0,0,0,0,0,0,0,0,0,0,0,0,0,0,0,0,
0,0,0,0,0,0,0,0,0,0,0,0,0,0,0,0,
0,0,0,0,0,0,0,0,0,0,0,0,0,0,0,0,
0,0,0,0,0,0,0,0,0,0,0,0,0,0,0,0,
0,0,0,0,0,0,0,0,0,0,0,0,0,0,0,0,
0,0,0,0,0,0,0,0,0,0,0,0,0,0,0,0
</chunk>
   <chunk x="-16" y="-16" width="16" height="16">
0,0,0,0,0,0,0,0,0,0,0,0,0,0,0,0,
0,0,0,0,0,0,0,0,0,0,0,0,0,0,0,0,
0,0,0,0,0,0,0,0,0,0,0,0,0,0,0,0,
0,0,0,0,0,0,0,0,0,0,0,0,0,0,0,0,
0,0,0,0,0,0,0,0,0,0,0,0,0,0,0,0,
0,0,0,0,0,0,0,0,0,0,0,0,0,0,0,0,
0,0,0,0,0,0,0,0,0,0,0,0,0,0,562,559,
0,0,0,0,0,0,0,0,0,0,0,0,562,0,0,0,
0,0,0,0,0,0,0,0,0,0,0,0,0,0,0,0,
0,0,0,0,0,0,0,0,0,0,0,0,0,0,0,0,
0,0,0,0,0,0,0,0,0,0,0,0,0,0,0,0,
0,0,0,0,0,0,0,0,0,0,0,0,0,0,0,0,
0,0,0,0,0,0,0,0,0,0,0,0,0,0,0,0,
0,0,0,0,0,0,0,0,0,0,0,0,0,0,0,0,
314,315,317,0,0,0,0,0,0,0,0,0,0,0,0,0,
362,363,365,0,0,0,0,0,0,0,0,0,0,0,0,0
</chunk>
   <chunk x="0" y="-16" width="16" height="16">
0,0,0,0,0,0,0,0,0,0,0,0,0,0,0,0,
0,0,0,0,0,0,0,0,0,0,0,0,0,0,0,0,
0,0,0,0,0,0,0,0,0,0,0,0,0,0,0,0,
0,0,0,0,0,0,0,0,0,0,0,0,0,0,0,0,
0,0,0,0,0,0,0,0,0,0,0,0,0,0,0,0,
513,0,0,0,0,0,0,0,0,0,0,0,0,0,0,0,
561,562,0,0,0,0,0,0,0,0,0,0,0,0,0,0,
0,0,0,511,512,0,0,0,0,0,0,0,0,0,0,0,
0,0,0,559,560,0,0,0,0,0,0,0,0,0,0,0,
0,0,0,0,0,0,0,0,0,0,0,0,0,0,0,0,
0,0,0,0,0,0,0,0,0,0,0,0,0,0,0,0,
0,0,0,0,0,0,0,0,0,0,0,0,0,0,0,0,
0,0,0,0,0,0,0,0,0,0,0,0,0,0,0,0,
0,0,0,0,0,0,0,0,0,0,0,0,0,0,0,0,
0,0,0,0,0,314,315,316,317,0,0,0,0,0,0,0,
0,0,0,0,0,362,363,364,365,0,0,0,0,0,0,0
</chunk>
   <chunk x="-48" y="0" width="16" height="16">
0,0,0,0,0,0,0,0,0,0,0,0,0,0,314,315,
0,0,0,0,0,0,0,0,0,0,0,0,0,0,362,363,
0,0,0,0,0,0,0,0,0,0,0,0,0,0,0,0,
0,0,0,0,0,0,0,0,0,0,0,0,0,0,0,0,
0,0,0,0,0,0,0,0,0,0,0,0,0,0,0,0,
0,0,0,0,0,0,0,0,0,0,0,0,0,0,0,0,
0,0,0,0,0,0,0,0,0,0,0,0,0,0,0,0,
0,0,0,0,0,0,0,0,0,0,0,0,0,0,0,0,
0,0,0,0,0,0,0,0,0,0,0,0,0,0,0,0,
0,0,0,0,0,0,0,0,0,0,0,0,0,0,0,0,
0,0,0,0,0,0,0,0,0,0,0,0,0,0,0,0,
0,0,0,0,0,0,0,0,0,0,0,0,0,0,0,0,
0,0,0,0,0,0,0,0,0,0,0,0,0,0,0,0,
0,0,0,0,0,0,0,0,0,0,0,0,0,0,0,0,
0,0,0,0,0,0,0,0,0,0,0,0,0,0,0,0,
0,0,0,0,0,0,0,0,0,0,0,0,0,0,0,0
</chunk>
   <chunk x="-32" y="0" width="16" height="16">
316,317,0,0,0,0,0,0,0,0,314,315,316,317,0,0,
364,365,0,0,0,0,0,0,0,0,362,363,364,365,0,0,
0,0,0,0,0,0,0,0,0,0,0,0,0,0,0,0,
0,0,0,0,0,0,0,0,0,0,0,0,0,0,0,0,
0,0,0,0,0,0,0,0,0,0,0,0,0,0,0,0,
0,0,0,0,0,0,0,0,0,0,0,0,0,0,0,0,
0,0,0,0,0,0,0,0,0,0,0,0,0,0,0,0,
0,0,0,0,0,0,0,0,0,0,0,0,0,0,0,0,
0,0,0,0,0,0,0,0,0,0,0,0,0,0,0,0,
0,0,0,0,0,0,0,0,0,0,0,0,0,0,0,0,
0,0,0,0,0,0,0,0,0,0,0,0,0,0,0,0,
0,0,0,0,0,0,0,0,0,0,0,0,0,0,0,0,
0,0,0,0,0,0,0,0,0,0,0,0,0,0,0,0,
0,0,0,0,0,0,0,0,0,0,0,0,0,0,0,0,
0,0,0,0,0,0,0,0,0,0,0,0,0,0,0,0,
0,0,0,0,0,0,0,0,0,0,0,0,0,0,0,0
</chunk>
  </data>
 </layer>
 <layer id="5" name="Grass" width="30" height="20">
  <properties>
   <property name="layer" type="int" value="3"/>
  </properties>
  <data encoding="csv">
   <chunk x="-48" y="-16" width="16" height="16">
0,0,0,0,0,0,0,0,0,0,0,0,0,0,0,0,
0,0,0,0,0,0,0,0,0,0,0,0,0,0,0,0,
0,0,0,0,0,0,0,0,0,0,0,0,0,0,0,0,
0,0,0,0,0,0,0,0,0,0,0,0,0,0,0,0,
0,0,0,0,0,0,0,0,0,0,0,0,0,0,0,0,
0,0,0,0,0,0,0,0,0,0,0,0,306,307,210,211,
0,0,0,0,0,0,0,0,0,0,306,307,354,355,258,259,
0,0,0,0,0,0,0,0,306,307,354,355,260,261,0,0,
0,0,0,0,0,0,0,0,354,355,260,261,0,0,0,0,
0,0,0,0,0,0,0,0,116,117,0,0,0,0,0,0,
0,0,0,0,0,0,0,0,116,117,0,0,0,0,0,0,
0,0,0,0,0,0,0,0,164,165,0,0,0,0,0,0,
0,0,0,0,0,0,0,0,116,117,0,0,0,0,0,0,
0,0,0,0,0,0,0,0,164,165,0,0,0,0,0,0,
0,0,0,0,0,0,0,0,116,117,0,0,0,0,0,0,
0,0,0,0,0,0,0,0,164,165,0,0,0,0,0,0
</chunk>
   <chunk x="-32" y="-16" width="16" height="16">
0,0,0,0,0,0,0,0,0,0,0,0,0,0,0,0,
0,0,0,0,0,0,0,0,0,0,0,0,0,0,0,0,
0,0,0,0,0,0,0,0,0,0,0,0,0,0,0,0,
0,0,0,0,0,0,0,0,0,0,0,0,0,0,0,0,
306,307,210,210,211,210,211,210,211,211,308,309,0,0,0,0,
354,355,258,258,259,258,259,258,259,259,356,357,210,211,308,309,
260,261,0,0,0,0,0,0,0,0,256,257,258,259,356,357,
0,0,0,0,0,0,0,0,0,0,0,0,0,0,256,257,
0,0,0,0,0,0,0,0,0,0,0,0,0,0,0,0,
0,0,0,0,0,0,0,0,0,0,0,0,0,0,0,0,
0,0,0,0,0,0,0,0,0,0,0,0,0,0,0,0,
0,0,0,0,0,0,0,0,0,0,0,0,0,0,0,0,
0,0,0,0,0,0,0,0,0,0,0,0,0,0,0,0,
0,0,0,0,0,0,0,0,0,0,0,0,0,0,0,0,
0,0,0,0,0,0,0,0,0,0,0,0,0,0,0,0,
0,0,0,0,0,0,0,0,0,0,0,0,0,0,0,0
</chunk>
   <chunk x="-16" y="-16" width="16" height="16">
0,0,0,0,0,0,0,0,0,0,0,0,0,0,0,0,
0,0,0,0,0,0,0,0,0,0,0,0,0,0,0,0,
0,0,0,0,0,0,0,0,0,0,0,0,0,0,0,0,
0,0,0,0,0,0,0,0,0,0,0,0,0,0,306,307,
0,0,0,0,0,0,0,0,0,0,0,0,306,307,354,355,
0,0,0,0,0,0,0,0,0,0,306,307,354,355,260,261,
308,309,0,0,0,0,0,0,0,0,354,355,260,261,0,0,
356,357,210,210,210,211,210,211,210,211,212,213,0,0,0,0,
256,257,258,258,258,259,258,259,258,259,260,261,0,0,0,0,
0,0,0,0,0,0,0,0,0,0,0,0,0,0,0,0,
0,0,0,0,0,0,0,0,0,0,0,0,0,0,0,0,
0,0,0,0,0,0,0,0,0,0,0,0,0,0,0,0,
0,0,0,0,0,0,0,0,0,0,0,0,0,0,0,0,
0,0,0,0,0,0,0,0,0,0,0,0,0,0,0,0,
0,0,0,0,0,0,0,0,0,0,0,0,0,0,0,0,
0,0,0,0,0,0,0,0,0,0,0,0,0,0,0,0
</chunk>
   <chunk x="0" y="-16" width="16" height="16">
0,0,0,0,0,0,0,0,0,0,0,0,0,0,0,0,
0,0,0,0,0,0,0,0,0,0,0,0,0,0,0,0,
0,0,0,0,0,0,0,0,0,0,0,0,0,0,0,0,
210,308,309,0,0,0,0,0,0,0,0,306,212,213,0,0,
258,356,357,308,309,0,0,0,0,0,0,354,355,261,0,0,
0,256,257,356,357,308,309,0,0,306,307,212,213,0,0,0,
0,0,0,256,257,356,357,0,0,354,355,260,261,0,0,0,
0,0,0,0,0,208,209,211,210,212,213,0,0,0,0,0,
0,0,0,0,0,256,257,259,258,260,261,0,0,0,0,0,
0,0,0,0,0,0,0,0,0,0,0,0,0,0,0,0,
0,0,0,0,0,0,0,0,0,0,0,0,0,0,0,0,
0,0,0,0,0,0,0,0,0,0,0,0,0,0,0,0,
0,0,0,0,0,0,0,0,0,0,0,0,0,0,0,0,
0,0,0,0,0,0,0,0,0,0,0,0,0,0,0,0,
0,0,0,0,0,0,0,0,0,0,0,0,0,0,0,0,
0,0,0,0,0,0,0,0,0,0,0,0,0,0,0,0
</chunk>
   <chunk x="-48" y="0" width="16" height="16">
0,0,0,0,0,0,0,0,402,403,20,21,0,0,0,0,
0,0,0,0,0,0,0,0,450,451,68,403,20,21,0,0,
0,0,0,0,0,0,0,0,0,0,450,451,68,403,18,18,
0,0,0,0,0,0,0,0,0,0,0,0,450,451,66,66,
0,0,0,0,0,0,0,0,0,0,0,0,0,0,0,0,
0,0,0,0,0,0,0,0,0,0,0,0,0,0,0,0,
0,0,0,0,0,0,0,0,0,0,0,0,0,0,0,0,
0,0,0,0,0,0,0,0,0,0,0,0,0,0,0,0,
0,0,0,0,0,0,0,0,0,0,0,0,0,0,0,0,
0,0,0,0,0,0,0,0,0,0,0,0,0,0,0,0,
0,0,0,0,0,0,0,0,0,0,0,0,0,0,0,0,
0,0,0,0,0,0,0,0,0,0,0,0,0,0,0,0,
0,0,0,0,0,0,0,0,0,0,0,0,0,0,0,0,
0,0,0,0,0,0,0,0,0,0,0,0,0,0,0,0,
0,0,0,0,0,0,0,0,0,0,0,0,0,0,0,0,
0,0,0,0,0,0,0,0,0,0,0,0,0,0,0,0
</chunk>
   <chunk x="-32" y="0" width="16" height="16">
0,0,0,0,0,0,0,0,0,0,0,0,0,0,0,0,
0,0,0,0,0,0,0,0,0,0,0,0,0,0,16,17,
19,19,18,19,18,19,18,19,18,19,18,19,18,19,404,65,
67,67,66,67,66,67,66,67,66,67,66,67,66,67,452,453,
0,0,0,0,0,0,0,0,0,0,0,0,0,0,0,0,
0,0,0,0,0,0,0,0,0,0,0,0,0,0,0,0,
0,0,0,0,0,0,0,0,0,0,0,0,0,0,0,0,
0,0,0,0,0,0,0,0,0,0,0,0,0,0,0,0,
0,0,0,0,0,0,0,0,0,0,0,0,0,0,0,0,
0,0,0,0,0,0,0,0,0,0,0,0,0,0,0,0,
0,0,0,0,0,0,0,0,0,0,0,0,0,0,0,0,
0,0,0,0,0,0,0,0,0,0,0,0,0,0,0,0,
0,0,0,0,0,0,0,0,0,0,0,0,0,0,0,0,
0,0,0,0,0,0,0,0,0,0,0,0,0,0,0,0,
0,0,0,0,0,0,0,0,0,0,0,0,0,0,0,0,
0,0,0,0,0,0,0,0,0,0,0,0,0,0,0,0
</chunk>
   <chunk x="-16" y="0" width="16" height="16">
16,20,21,0,0,0,0,0,0,0,16,17,19,19,18,19,
404,352,69,0,0,0,0,0,0,0,64,65,67,67,66,67,
452,164,165,0,0,16,17,21,0,0,160,161,0,0,0,0,
0,402,403,18,18,404,352,403,18,19,404,405,0,0,0,0,
0,450,451,66,66,452,450,451,66,67,452,453,453,0,0,0,
0,0,0,0,0,0,0,0,0,0,0,0,0,0,0,0,
0,0,0,0,0,0,0,0,0,0,0,0,0,0,0,0,
0,0,0,0,0,0,0,0,0,0,0,0,0,0,0,0,
0,0,0,0,0,0,0,0,0,0,0,0,0,0,0,0,
0,0,0,0,0,0,0,0,0,0,0,0,0,0,0,0,
0,0,0,0,0,0,0,0,0,0,0,0,0,0,0,0,
0,0,0,0,0,0,0,0,0,0,0,0,0,0,0,0,
0,0,0,0,0,0,0,0,0,0,0,0,0,0,0,0,
0,0,0,0,0,0,0,0,0,0,0,0,0,0,0,0,
0,0,0,0,0,0,0,0,0,0,0,0,0,0,0,0,
0,0,0,0,0,0,0,0,0,0,0,0,0,0,0,0
</chunk>
   <chunk x="0" y="0" width="16" height="16">
18,19,18,19,18,19,18,19,20,21,0,0,0,0,0,0,
66,67,66,67,66,67,66,67,68,213,0,0,0,0,0,0,
0,0,0,0,0,0,354,355,260,261,0,0,0,0,0,0,
0,0,0,0,0,0,116,117,0,0,0,0,0,0,0,0,
0,0,0,0,0,0,164,165,0,0,0,0,0,0,0,0,
0,0,0,0,306,307,212,213,0,0,0,0,0,0,0,0,
0,0,0,0,354,355,260,261,0,0,0,0,0,0,0,0,
0,0,0,0,116,117,0,0,0,0,0,0,0,0,0,0,
0,0,0,0,164,165,0,0,0,0,0,0,0,0,0,0,
0,0,0,0,116,117,0,0,0,0,0,0,0,0,0,0,
0,0,0,0,0,0,0,0,0,0,0,0,0,0,0,0,
0,0,0,0,0,0,0,0,0,0,0,0,0,0,0,0,
0,0,0,0,0,0,0,0,0,0,0,0,0,0,0,0,
0,0,0,0,0,0,0,0,0,0,0,0,0,0,0,0,
0,0,0,0,0,0,0,0,0,0,0,0,0,0,0,0,
0,0,0,0,0,0,0,0,0,0,0,0,0,0,0,0
</chunk>
  </data>
 </layer>
 <layer id="6" name="Flowers" width="30" height="20">
  <properties>
   <property name="layer" type="int" value="4"/>
  </properties>
  <data encoding="csv">
   <chunk x="-48" y="-16" width="16" height="16">
0,0,0,0,0,0,0,0,0,0,0,0,0,0,0,0,
0,0,0,0,0,0,0,0,0,0,0,0,0,0,0,0,
0,0,0,0,0,0,0,0,0,0,0,0,0,0,0,0,
0,0,0,0,0,0,0,0,0,0,0,0,0,0,0,0,
0,0,0,0,0,0,0,0,0,0,0,0,0,0,0,0,
0,0,0,0,0,0,0,0,0,0,0,0,0,0,0,0,
0,0,0,0,0,0,0,0,0,0,0,0,0,0,0,119,
0,0,0,0,0,0,0,0,0,0,0,0,167,0,0,0,
0,0,0,0,0,0,0,0,0,167,0,0,0,0,0,0,
0,0,0,0,0,0,0,0,0,0,0,0,0,0,0,0,
0,0,0,0,0,0,0,0,0,23,0,0,0,0,0,0,
0,0,0,0,0,0,0,0,0,0,0,0,0,0,0,0,
0,0,0,0,0,0,0,0,0,0,0,0,0,0,0,0,
0,0,0,0,0,0,0,0,0,71,0,0,0,0,0,0,
0,0,0,0,0,0,0,0,0,0,118,0,0,0,0,0,
0,0,0,0,0,0,0,0,0,0,0,0,0,0,0,0
</chunk>
   <chunk x="-32" y="-16" width="16" height="16">
0,0,0,0,0,0,0,0,0,0,0,0,0,0,0,0,
0,0,0,0,0,0,0,0,0,0,0,0,0,0,0,0,
0,0,0,0,0,0,0,0,0,0,0,0,0,0,0,0,
0,0,0,0,0,0,0,0,0,0,0,0,0,0,0,0,
0,0,0,0,0,0,0,0,0,0,0,0,0,0,0,0,
0,0,0,0,167,0,167,0,0,0,0,0,0,0,0,0,
0,0,0,0,0,0,0,0,0,0,0,0,167,0,0,0,
0,0,0,0,0,0,0,0,0,0,0,0,0,118,0,0,
0,0,0,0,0,0,0,0,0,0,0,0,0,0,0,0,
0,0,0,0,0,0,0,0,0,0,0,0,0,0,0,0,
0,0,0,0,0,0,0,0,0,0,0,0,0,0,0,0,
0,0,0,0,0,0,0,0,0,0,0,0,0,0,0,0,
0,0,0,0,0,0,0,0,0,0,0,0,0,0,0,0,
0,0,0,0,0,0,0,0,0,0,0,0,0,0,0,0,
0,0,0,0,0,0,0,0,0,0,0,0,0,0,0,0,
0,0,0,0,0,0,0,0,0,0,0,0,0,0,0,0
</chunk>
   <chunk x="-16" y="-16" width="16" height="16">
0,0,0,0,0,0,0,0,0,0,0,0,0,0,0,0,
0,0,0,0,0,0,0,0,0,0,0,0,0,0,0,0,
0,0,0,0,0,0,0,0,0,0,0,0,0,0,0,0,
0,0,0,0,0,0,0,0,0,0,0,0,0,0,0,0,
0,0,0,0,0,0,0,0,0,0,0,0,0,0,0,0,
0,0,0,0,0,0,0,0,0,0,0,0,0,0,0,0,
0,0,0,0,0,0,0,0,0,0,0,0,119,0,0,0,
0,0,0,0,0,0,0,0,0,0,0,0,0,0,0,0,
0,0,167,0,0,0,0,0,0,119,0,0,0,0,0,0,
0,0,0,0,0,0,0,0,0,0,0,0,0,0,0,0,
0,0,0,0,0,0,0,0,0,0,0,0,0,0,0,0,
0,0,0,0,0,0,0,0,0,0,0,0,0,0,0,0,
0,0,0,0,0,0,0,0,0,0,0,0,0,0,0,0,
0,0,0,0,0,0,0,0,0,0,0,0,0,0,0,0,
0,118,0,0,0,0,0,0,0,0,0,0,0,0,0,0,
0,0,0,0,0,0,0,0,0,0,0,0,0,0,0,0
</chunk>
   <chunk x="0" y="-16" width="16" height="16">
0,0,0,0,0,0,0,0,0,0,0,0,0,0,0,0,
0,0,0,0,0,0,0,0,0,0,0,0,0,0,0,0,
0,0,0,0,0,0,0,0,0,0,0,0,0,0,0,0,
0,0,0,0,0,0,0,0,0,0,0,0,0,71,0,0,
167,0,0,0,0,0,0,0,0,0,0,0,0,0,0,0,
118,0,0,0,0,0,0,0,0,0,0,0,0,0,0,0,
0,0,0,0,0,0,0,0,0,0,0,119,0,0,0,0,
0,0,0,0,0,0,0,0,0,0,23,0,0,0,0,0,
0,0,0,0,0,0,0,167,0,0,0,0,0,0,0,0,
0,0,0,0,0,0,0,0,0,0,0,0,0,0,0,0,
0,0,0,0,0,0,0,0,0,0,0,0,0,0,0,0,
0,0,0,0,0,0,0,0,0,0,0,0,0,0,0,0,
0,0,0,0,0,0,0,0,0,0,0,0,0,0,0,0,
0,0,0,0,0,0,0,0,0,0,0,0,0,0,0,0,
0,0,0,0,0,0,0,118,0,0,0,0,0,0,0,0,
0,0,0,0,0,0,0,0,0,0,0,0,0,0,0,0
</chunk>
   <chunk x="-48" y="0" width="16" height="16">
0,0,0,0,0,0,0,0,0,0,118,0,0,0,0,0,
0,0,0,0,0,0,0,0,0,0,0,0,0,0,0,0,
0,0,0,0,0,0,0,0,0,0,0,0,0,0,118,0,
0,0,0,0,0,0,0,0,0,0,0,0,0,0,0,0,
0,0,0,0,0,0,0,0,0,0,0,0,0,0,0,0,
0,0,0,0,0,0,0,0,0,0,0,0,0,0,0,0,
0,0,0,0,0,0,0,0,0,0,0,0,0,0,0,0,
0,0,0,0,0,0,0,0,0,0,0,0,0,0,0,0,
0,0,0,0,0,0,0,0,0,0,0,0,0,0,0,0,
0,0,0,0,0,0,0,0,0,0,0,0,0,0,0,0,
0,0,0,0,0,0,0,0,0,0,0,0,0,0,0,0,
0,0,0,0,0,0,0,0,0,0,0,0,0,0,0,0,
0,0,0,0,0,0,0,0,0,0,0,0,0,0,0,0,
0,0,0,0,0,0,0,0,0,0,0,0,0,0,0,0,
0,0,0,0,0,0,0,0,0,0,0,0,0,0,0,0,
0,0,0,0,0,0,0,0,0,0,0,0,0,0,0,0
</chunk>
   <chunk x="-32" y="0" width="16" height="16">
118,0,0,0,0,0,0,0,0,0,0,0,118,0,0,0,
0,0,0,0,0,0,0,0,0,0,0,0,0,0,0,0,
0,0,166,0,118,0,0,0,166,0,0,0,166,0,0,0,
0,0,0,0,0,0,0,0,0,0,0,0,0,0,0,0,
0,0,0,0,0,0,0,0,0,0,0,0,0,0,0,0,
0,0,0,0,0,0,0,0,0,0,0,0,0,0,0,0,
0,0,0,0,0,0,0,0,0,0,0,0,0,0,0,0,
0,0,0,0,0,0,0,0,0,0,0,0,0,0,0,0,
0,0,0,0,0,0,0,0,0,0,0,0,0,0,0,0,
0,0,0,0,0,0,0,0,0,0,0,0,0,0,0,0,
0,0,0,0,0,0,0,0,0,0,0,0,0,0,0,0,
0,0,0,0,0,0,0,0,0,0,0,0,0,0,0,0,
0,0,0,0,0,0,0,0,0,0,0,0,0,0,0,0,
0,0,0,0,0,0,0,0,0,0,0,0,0,0,0,0,
0,0,0,0,0,0,0,0,0,0,0,0,0,0,0,0,
0,0,0,0,0,0,0,0,0,0,0,0,0,0,0,0
</chunk>
   <chunk x="-16" y="0" width="16" height="16">
0,166,0,0,0,0,0,0,0,0,0,0,0,0,0,0,
166,0,0,0,0,0,0,0,0,0,0,0,0,0,0,0,
0,0,71,0,0,0,118,0,0,0,70,0,0,0,0,0,
0,0,0,0,166,0,0,0,0,0,0,0,0,0,0,0,
0,0,0,0,0,0,0,0,0,0,0,0,0,0,0,0,
0,0,0,0,0,0,0,0,0,0,0,0,0,0,0,0,
0,0,0,0,0,0,0,0,0,0,0,0,0,0,0,0,
0,0,0,0,0,0,0,0,0,0,0,0,0,0,0,0,
0,0,0,0,0,0,0,0,0,0,0,0,0,0,0,0,
0,0,0,0,0,0,0,0,0,0,0,0,0,0,0,0,
0,0,0,0,0,0,0,0,0,0,0,0,0,0,0,0,
0,0,0,0,0,0,0,0,0,0,0,0,0,0,0,0,
0,0,0,0,0,0,0,0,0,0,0,0,0,0,0,0,
0,0,0,0,0,0,0,0,0,0,0,0,0,0,0,0,
0,0,0,0,0,0,0,0,0,0,0,0,0,0,0,0,
0,0,0,0,0,0,0,0,0,0,0,0,0,0,0,0
</chunk>
   <chunk x="0" y="0" width="16" height="16">
0,0,0,0,0,0,0,0,0,0,0,0,0,0,0,0,
0,0,0,0,0,0,0,0,0,71,0,0,0,0,0,0,
0,0,0,0,0,0,0,0,0,0,0,0,0,0,0,0,
0,0,0,0,0,0,0,71,0,0,0,0,0,0,0,0,
0,0,0,0,0,0,0,0,0,0,0,0,0,0,0,0,
0,0,0,0,0,0,0,23,0,0,0,0,0,0,0,0,
0,0,0,0,0,0,0,0,0,0,0,0,0,0,0,0,
0,0,0,0,0,0,0,0,0,0,0,0,0,0,0,0,
0,0,0,0,0,23,0,0,0,0,0,0,0,0,0,0,
0,0,0,0,0,0,0,0,0,0,0,0,0,0,0,0,
0,0,0,0,0,0,0,0,0,0,0,0,0,0,0,0,
0,0,0,0,0,0,0,0,0,0,0,0,0,0,0,0,
0,0,0,0,0,0,0,0,0,0,0,0,0,0,0,0,
0,0,0,0,0,0,0,0,0,0,0,0,0,0,0,0,
0,0,0,0,0,0,0,0,0,0,0,0,0,0,0,0,
0,0,0,0,0,0,0,0,0,0,0,0,0,0,0,0
</chunk>
  </data>
 </layer>
 <objectgroup id="3" name="Node">
  <object id="71" type=":" x="-640" y="-208" width="880" height="360"/>
  <object id="117" name="*" x="-208" y="8" width="16" height="40"/>
  <object id="118" name="*" x="-192" y="32" width="16" height="16"/>
  <object id="120" name="*" x="-184" y="24" width="64" height="8"/>
  <object id="121" name="*" x="-128" y="32" width="32" height="16"/>
  <object id="122" name="*" x="-112" y="8" width="16" height="24"/>
  <object id="123" name="*" x="160" y="8" width="16" height="48"/>
  <object id="124" name="*" x="128" y="48" width="32" height="16"/>
  <object id="125" name="*" x="128" y="64" width="16" height="56"/>
  <object id="126" name="*" x="96" y="112" width="32" height="16"/>
  <object id="127" name="*" x="96" y="128" width="16" height="32"/>
  <object id="128" name="*" x="120" y="-112" width="64" height="16"/>
  <object id="129" name="*" x="176" y="-144" width="16" height="32"/>
  <object id="130" name="*" x="192" y="-144" width="24" height="16"/>
  <object id="131" name="*" x="208" y="-176" width="16" height="32"/>
  <object id="132" name="*" x="224" y="-208" width="16" height="40"/>
  <object id="134" type="_" x="-96" y="-16" width="120" height="16"/>
  <object id="135" type="_" x="24" y="-16" width="136" height="16"/>
  <object id="136" type="_" x="-256" y="-16" width="48" height="16"/>
  <object id="137" name="door_0" type="+" x="16" y="-24">
   <properties>
    <property name="dir" value="_"/>
   </properties>
   <point/>
  </object>
  <object id="139" name="*" x="96" y="144" width="288" height="16"/>
 </objectgroup>
 <objectgroup id="2" name="Collision" visible="0">
  <properties>
   <property name="collision" type="bool" value="true"/>
  </properties>
  <object id="73" x="144" y="0" width="16" height="48"/>
  <object id="74" x="112" y="32" width="32" height="16"/>
  <object id="75" x="112" y="48" width="16" height="64"/>
  <object id="76" x="80" y="96" width="32" height="16"/>
  <object id="77" x="80" y="112" width="16" height="48"/>
  <object id="78" x="-96" y="0" width="240" height="16"/>
  <object id="79" x="-96" y="16" width="16" height="48"/>
  <object id="81" x="-144" y="48" width="48" height="16"/>
  <object id="82" x="-176" y="32" width="48" height="16"/>
  <object id="84" x="-224" y="48" width="64" height="16"/>
  <object id="85" x="-224" y="0" width="16" height="48"/>
  <object id="86" x="-256" y="0" width="32" height="16"/>
  <object id="87" x="-288" y="16" width="48" height="16"/>
  <object id="88" x="-560" y="32" width="288" height="16"/>
  <object id="89" x="-592" y="16" width="48" height="16"/>
  <object id="90" x="-624" y="0" width="48" height="16"/>
  <object id="91" x="-624" y="-128" width="16" height="128"/>
  <object id="92" x="-608" y="-128" width="32" height="16"/>
  <object id="94" x="-592" y="-144" width="48" height="16"/>
  <object id="96" x="-560" y="-160" width="80" height="16"/>
  <object id="97" x="-496" y="-176" width="160" height="16"/>
  <object id="98" x="-352" y="-160" width="80" height="16"/>
  <object id="99" x="-288" y="-144" width="48" height="16"/>
  <object id="100" x="-256" y="-128" width="192" height="16"/>
  <object id="103" x="-80" y="-160" width="16" height="32"/>
  <object id="104" x="-64" y="-160" width="32" height="16"/>
  <object id="105" x="-48" y="-176" width="48" height="16"/>
  <object id="106" x="-16" y="-192" width="48" height="16"/>
  <object id="107" x="16" y="-176" width="48" height="16"/>
  <object id="108" x="48" y="-160" width="48" height="16"/>
  <object id="109" x="80" y="-144" width="16" height="32"/>
  <object id="110" x="96" y="-128" width="80" height="16"/>
  <object id="111" x="160" y="-160" width="16" height="32"/>
  <object id="113" x="176" y="-160" width="32" height="16"/>
  <object id="114" x="192" y="-192" width="16" height="32"/>
  <object id="115" x="208" y="-208" width="16" height="32"/>
  <object id="133" x="-164" y="0" width="24" height="8">
   <properties>
    <property name="one_way" type="bool" value="true"/>
   </properties>
  </object>
 </objectgroup>
</map>
