<?xml version="1.0" encoding="UTF-8"?>
<map version="1.10" tiledversion="1.12.1" orientation="orthogonal" renderorder="right-down" width="30" height="20" tilewidth="16" tileheight="16" infinite="1" nextlayerid="10" nextobjectid="119">
 <tileset firstgid="1" source="../Atlas.tsx"/>
 <layer id="1" name="Main" width="30" height="20">
  <properties>
   <property name="layer" type="int" value="1"/>
  </properties>
  <data encoding="csv">
   <chunk x="-32" y="-32" width="16" height="16">
0,0,0,0,0,0,0,0,0,0,0,0,0,0,0,0,
0,0,0,0,0,0,0,0,0,0,0,0,0,0,0,0,
0,0,0,0,0,0,0,0,0,0,0,0,0,0,0,0,
0,0,0,0,0,0,0,0,0,0,0,0,0,0,0,0,
0,0,0,0,0,0,0,0,0,0,0,0,0,0,0,0,
0,0,0,0,0,0,0,0,0,0,0,0,0,0,0,0,
0,0,0,0,0,0,0,0,0,0,0,0,0,0,0,0,
0,0,0,0,0,0,0,0,0,0,0,0,0,0,0,0,
0,0,0,0,0,0,0,0,0,0,0,0,0,0,0,0,
0,0,0,0,0,0,0,0,0,0,0,0,1064,1064,1064,1064,
0,0,0,0,0,0,0,0,0,0,0,0,1064,1064,1064,1064,
0,0,0,0,0,0,0,0,0,0,0,0,1064,1064,1064,1064,
0,0,0,0,0,0,0,0,0,0,0,0,1064,1064,1064,1064,
0,0,0,0,0,0,0,0,0,0,0,0,1064,1064,1064,1064,
0,0,0,0,0,0,0,0,0,0,0,0,1064,1064,1064,1064,
0,0,0,0,0,0,0,0,0,0,0,0,1064,1064,1064,1064
</chunk>
   <chunk x="-16" y="-32" width="16" height="16">
0,0,0,0,0,0,0,0,0,0,0,0,0,0,0,0,
0,0,0,0,0,0,0,0,0,0,0,0,0,0,0,0,
0,0,0,0,0,0,0,0,0,0,0,0,0,0,0,0,
0,0,0,0,0,0,0,0,0,0,0,0,0,0,0,0,
0,0,0,0,0,0,0,0,0,0,0,0,0,0,0,0,
0,0,0,0,0,0,0,0,0,0,0,0,0,0,0,0,
0,0,0,0,0,0,0,0,0,0,0,0,0,0,0,0,
0,0,0,0,0,0,0,0,0,0,0,0,0,0,0,0,
0,0,0,0,0,0,0,0,0,0,0,0,0,0,0,0,
1064,1064,1064,1064,1064,1064,1064,1064,1064,1064,1064,1064,1064,1064,1064,1064,
1064,1064,1064,1064,1064,1064,1064,1064,1064,1064,1064,1064,1064,1064,1064,1064,
1064,1064,1064,1064,1064,1064,1064,1064,1064,1064,1064,1064,1064,1064,1064,1064,
1064,1064,1064,1064,1064,1064,1064,1064,1064,1064,1064,1064,1064,1064,1064,1064,
1064,1064,1064,1064,1064,1064,1064,1064,1064,1064,1064,1064,1064,1064,1064,1064,
1064,1064,1064,1064,1064,1064,1064,1064,1064,1064,1064,1064,1064,1064,1064,1064,
1064,1064,1064,1064,1064,1064,1064,1064,1064,1064,1064,1064,1064,1064,1064,1064
</chunk>
   <chunk x="0" y="-32" width="16" height="16">
0,0,0,0,0,0,0,0,0,0,0,0,0,0,0,0,
0,0,0,0,0,0,0,0,0,0,0,0,0,0,0,0,
0,0,0,0,0,0,0,0,0,0,0,0,0,0,0,0,
0,0,0,0,0,0,0,0,0,0,0,0,0,0,0,0,
0,0,0,0,0,0,0,0,0,0,0,0,0,0,0,0,
0,0,0,0,0,0,0,0,0,0,0,0,0,0,0,0,
0,0,0,0,0,0,0,0,0,0,0,0,0,0,0,0,
0,0,0,0,0,0,0,0,0,0,0,0,0,0,0,0,
0,0,0,0,0,0,0,0,0,0,0,0,0,0,0,0,
1064,1064,1064,1064,1064,1064,1064,1064,1064,1064,1064,1064,1064,1064,1064,1064,
1064,1064,1064,1064,1064,1064,1064,1064,1064,1064,1064,1064,1064,1064,1064,1064,
1064,1064,1064,1064,1064,1064,1064,1064,1064,1064,1064,1064,1064,1064,1064,1064,
1064,1064,1064,1064,1064,1064,1064,1064,1064,1064,1064,1064,1064,1064,1064,1064,
1064,1064,1064,1064,1064,1064,1064,1064,1064,1064,1064,1064,1064,1064,1064,1064,
1064,1064,1064,1064,1064,1064,1064,1064,1064,1064,1064,1064,1064,1064,1064,1064,
1064,1064,1064,1064,1064,1064,1064,1064,1064,1064,1064,1064,1064,1064,1064,1064
</chunk>
   <chunk x="16" y="-32" width="16" height="16">
0,0,0,0,0,0,0,0,0,0,0,0,0,0,0,0,
0,0,0,0,0,0,0,0,0,0,0,0,0,0,0,0,
0,0,0,0,0,0,0,0,0,0,0,0,0,0,0,0,
0,0,0,0,0,0,0,0,0,0,0,0,0,0,0,0,
0,0,0,0,0,0,0,0,0,0,0,0,0,0,0,0,
0,0,0,0,0,0,0,0,0,0,0,0,0,0,0,0,
0,0,0,0,0,0,0,0,0,0,0,0,0,0,0,0,
0,0,0,0,0,0,0,0,0,0,0,0,0,0,0,0,
0,0,0,0,0,0,0,0,0,0,0,0,0,0,0,0,
1064,1064,1064,1064,1064,1064,0,0,0,0,0,0,0,0,0,0,
1064,1064,1064,1064,1064,1064,0,0,0,0,0,0,0,0,0,0,
1064,1064,1064,1064,1064,1064,0,0,0,0,0,0,0,0,0,0,
1064,1064,1064,1064,1064,1064,0,0,0,0,0,0,0,0,0,0,
1064,1064,1064,1064,1064,1064,0,0,0,0,0,0,0,0,0,0,
1064,1064,1064,1064,1064,1064,0,0,0,0,0,0,0,0,0,0,
1064,1064,1064,1064,1064,1064,0,0,0,0,0,0,0,0,0,0
</chunk>
   <chunk x="-32" y="-16" width="16" height="16">
0,0,0,0,0,0,0,0,0,0,0,0,1064,1064,1064,1064,
0,0,0,0,0,0,0,0,0,0,0,0,1064,1064,1064,1064,
0,0,0,0,0,0,0,0,0,0,0,0,1064,1064,1064,1064,
0,0,0,0,0,0,0,0,0,0,0,0,1064,1064,1064,1064,
0,0,0,0,0,0,0,0,0,0,0,0,1064,1064,1064,1064,
0,0,0,0,0,0,0,0,0,0,0,0,1064,1064,1064,1064,
0,0,0,0,0,0,0,0,0,0,0,0,1064,1064,1064,1064,
0,0,0,0,0,0,0,0,0,0,0,0,1064,1064,1064,1064,
0,0,0,0,0,0,0,0,0,0,0,0,1064,1064,1064,1064,
0,0,0,0,0,0,0,0,0,0,0,0,1064,1064,1064,1064,
0,0,0,0,0,0,0,0,0,0,0,0,1064,1064,1064,1064,
0,0,0,0,0,0,0,0,0,0,0,0,1064,1064,1064,1064,
0,0,0,0,0,0,0,0,0,0,0,0,1064,1064,1064,1064,
0,0,0,0,0,0,0,0,0,0,0,0,1064,1064,1064,1064,
0,0,0,0,0,0,0,0,0,0,0,0,1064,1064,1064,1064,
0,0,0,0,0,0,0,0,0,0,0,0,1064,1064,1064,1064
</chunk>
   <chunk x="-16" y="-16" width="16" height="16">
1064,1064,1064,1064,1064,1064,1064,1064,1064,1064,1064,1064,1064,1064,1064,1064,
1064,1064,1064,1064,1064,1064,1064,1064,1064,1064,1064,1064,1064,1064,1064,1064,
1064,1064,1064,1064,1064,1064,1064,1064,1064,1064,1064,1064,1064,1064,1064,1064,
1064,1064,1064,1064,1064,1064,1064,1064,1064,1064,1064,1064,1064,1064,1064,1064,
1064,1064,1064,1064,1064,1064,1064,1064,1064,1064,1064,1064,1064,1064,1064,1064,
1064,1064,1064,1064,1064,1064,1064,1064,1064,1064,1064,1064,1064,1064,1064,1064,
1064,1064,1064,1064,1064,1064,1064,1064,1064,1064,1064,1064,1064,1064,1064,1064,
1064,1064,1064,1064,1064,1064,1064,1064,1064,1064,1064,1064,1064,1064,1064,1064,
1064,1064,1064,1064,1064,1064,1064,1064,1064,1064,1064,1064,0,0,0,0,
1064,1064,1064,1064,1064,1064,1064,1064,1064,1064,1064,1064,0,1112,1112,1112,
1064,1064,1064,1064,1064,1064,1064,1064,1064,1064,0,0,0,1065,0,0,
1064,1064,1064,1064,1064,1064,1064,1064,0,0,0,1112,1112,1113,0,0,
1064,1064,1064,1064,1064,1064,1064,1064,0,1112,1112,1113,0,0,0,0,
1064,1064,1064,1064,1064,1064,1064,1064,0,1065,0,0,0,0,0,0,
1064,1064,1064,1064,1064,1064,1064,1064,0,1065,0,0,0,0,0,0,
1064,1064,1064,1064,1064,1064,1064,1064,0,1065,0,0,0,497,498,501
</chunk>
   <chunk x="0" y="-16" width="16" height="16">
1064,1064,1064,1064,1064,1064,1064,1064,1064,1064,1064,1064,1064,1064,1064,1064,
1064,1064,1064,1064,1064,1064,1064,1064,1064,1064,1064,1064,1064,1064,1064,1064,
1064,1064,1064,1064,1064,1064,1064,1064,1064,1064,1064,1064,1064,1064,1064,1064,
1064,1064,1064,1064,1064,1064,1064,1064,1064,1064,1064,1064,1064,1064,1064,1064,
1064,1064,1064,1064,1064,1064,1064,1064,1064,1064,1064,1064,1064,1064,1064,1064,
1064,1064,1064,1064,1064,1064,1064,1064,1064,1064,1064,1064,1064,1064,1064,1064,
1064,1064,1064,1064,1064,1064,1064,1064,1064,1064,1064,1064,1064,1064,1064,1064,
1064,1064,1064,1064,1064,1064,1064,1064,1064,1064,1064,1064,1064,1064,1064,1064,
0,0,0,0,0,0,1064,1064,1064,1064,1064,1064,1064,1064,1064,1064,
1112,1112,1112,1112,1112,0,1064,1064,1064,1064,1064,1064,1064,1064,1064,1064,
0,0,0,0,1063,0,0,0,1064,1064,1064,1064,1064,1064,1064,1064,
0,0,0,0,1111,1112,1112,0,0,0,1064,1064,1064,1064,1064,1064,
0,0,0,0,0,0,1111,1112,1112,0,1064,1064,1064,1064,1064,1064,
0,0,0,0,0,0,0,0,1063,0,1064,1064,1064,1064,1064,1064,
0,0,0,0,0,0,0,0,1063,0,1064,1064,1064,1064,1064,1064,
0,0,0,0,0,0,0,0,1063,0,1064,1064,1064,1064,1064,1064
</chunk>
   <chunk x="16" y="-16" width="16" height="16">
1064,1064,1064,1064,1064,1064,0,0,0,0,0,0,0,0,0,0,
1064,1064,1064,1064,1064,1064,0,0,0,0,0,0,0,0,0,0,
1064,1064,1064,1064,1064,1064,0,0,0,0,0,0,0,0,0,0,
1064,1064,1064,1064,1064,1064,0,0,0,0,0,0,0,0,0,0,
1064,1064,1064,1064,1064,1064,0,0,0,0,0,0,0,0,0,0,
1064,1064,1064,1064,1064,1064,0,0,0,0,0,0,0,0,0,0,
1064,1064,1064,1064,1064,1064,0,0,0,0,0,0,0,0,0,0,
1064,1064,1064,1064,1064,1064,0,0,0,0,0,0,0,0,0,0,
1064,1064,1064,1064,1064,1064,0,0,0,0,0,0,0,0,0,0,
1064,1064,1064,1064,1064,1064,0,0,0,0,0,0,0,0,0,0,
1064,1064,1064,1064,1064,1064,0,0,0,0,0,0,0,0,0,0,
1064,1064,1064,1064,1064,1064,0,0,0,0,0,0,0,0,0,0,
1064,1064,1064,1064,1064,1064,0,0,0,0,0,0,0,0,0,0,
1064,1064,1064,1064,1064,1064,0,0,0,0,0,0,0,0,0,0,
1064,1064,1064,1064,1064,1064,0,0,0,0,0,0,0,0,0,0,
1064,1064,1064,1064,1064,1064,0,0,0,0,0,0,0,0,0,0
</chunk>
   <chunk x="-32" y="0" width="16" height="16">
0,0,0,0,0,0,0,0,0,0,0,0,1064,1064,1064,1064,
0,0,0,0,0,0,0,0,0,0,0,0,1064,1064,1064,1064,
0,0,0,0,0,0,0,0,0,0,0,0,1064,1064,1064,1064,
0,0,0,0,0,0,0,0,0,0,0,0,1064,1064,1064,1064,
0,0,0,0,0,0,0,0,0,0,0,0,1064,1064,1064,1064,
0,0,0,0,0,0,0,0,0,0,0,0,1064,1064,1064,1064,
0,0,0,0,0,0,0,0,0,0,0,0,1064,1064,1064,1064,
0,0,0,0,0,0,0,0,0,0,0,0,1064,1064,1064,1064,
0,0,0,0,0,0,0,0,0,0,0,0,1064,1064,1064,1064,
0,0,0,0,0,0,0,0,0,0,0,0,1064,1064,1064,1064,
0,0,0,0,0,0,0,0,0,0,0,0,0,0,0,0,
0,0,0,0,0,0,0,0,0,0,0,0,0,0,0,0,
0,0,0,0,0,0,0,0,0,0,0,0,0,0,0,0,
0,0,0,0,0,0,0,0,0,0,0,0,0,0,0,0,
0,0,0,0,0,0,0,0,0,0,0,0,0,0,0,0,
0,0,0,0,0,0,0,0,0,0,0,0,0,0,0,0
</chunk>
   <chunk x="-16" y="0" width="16" height="16">
1064,1064,1064,1064,1064,1064,1064,1064,0,1016,1016,1017,0,496,0,495,
1064,1064,1064,1064,1064,1064,1064,1064,0,0,0,1016,1016,1016,1017,545,
1064,1064,1064,1064,1064,1064,1064,1064,1064,1064,0,0,0,0,1065,0,
1064,1064,1064,1064,1064,1064,1064,1064,1064,1064,1064,1064,1064,1064,0,0,
1064,1064,1064,1064,1064,1064,1064,1064,1064,1064,1064,1064,1064,1064,0,0,
1064,1064,1064,1064,1064,1064,1064,1064,1064,1064,1064,1064,1064,1064,0,0,
1064,1064,1064,1064,1064,1064,1064,1064,1064,1064,1064,1064,1064,1064,1064,1064,
1064,1064,1064,1064,1064,1064,1064,1064,1064,1064,1064,1064,1064,1064,1064,1064,
1064,1064,1064,1064,1064,1064,1064,1064,1064,1064,1064,1064,1064,1064,1064,1064,
1064,1064,1064,1064,1064,1064,1064,1064,1064,1064,1064,1064,1064,1064,1064,1064,
0,0,0,0,0,0,0,0,0,0,0,0,0,0,0,0,
0,0,0,0,0,0,0,0,0,0,0,0,0,0,0,0,
0,0,0,0,0,0,0,0,0,0,0,0,0,0,0,0,
0,0,0,0,0,0,0,0,0,0,0,0,0,0,0,0,
0,0,0,0,0,0,0,0,0,0,0,0,0,0,0,0,
0,0,0,0,0,0,0,0,0,0,0,0,0,0,0,0
</chunk>
   <chunk x="0" y="0" width="16" height="16">
0,0,547,0,0,0,1015,1016,1016,0,1064,1064,1064,1064,1064,1064,
0,0,592,1015,1016,1016,1016,0,0,0,1064,1064,1064,1064,1064,1064,
0,0,0,1063,0,0,0,0,1064,1064,1064,1064,1064,1064,1064,1064,
0,0,0,0,1064,1064,1064,1064,1064,1064,1064,1064,1064,1064,1064,1064,
0,0,0,0,1064,1064,1064,1064,1064,1064,1064,1064,1064,1064,1064,1064,
0,0,0,0,1064,1064,1064,1064,1064,1064,1064,1064,1064,1064,1064,1064,
1064,1064,1064,1064,1064,1064,1064,1064,1064,1064,1064,1064,1064,1064,1064,1064,
1064,1064,1064,1064,1064,1064,1064,1064,1064,1064,1064,1064,1064,1064,1064,1064,
1064,1064,1064,1064,1064,1064,1064,1064,1064,1064,1064,1064,1064,1064,1064,1064,
1064,1064,1064,1064,1064,1064,1064,1064,1064,1064,1064,1064,1064,1064,1064,1064,
0,0,0,0,0,0,0,0,0,0,0,0,0,0,0,0,
0,0,0,0,0,0,0,0,0,0,0,0,0,0,0,0,
0,0,0,0,0,0,0,0,0,0,0,0,0,0,0,0,
0,0,0,0,0,0,0,0,0,0,0,0,0,0,0,0,
0,0,0,0,0,0,0,0,0,0,0,0,0,0,0,0,
0,0,0,0,0,0,0,0,0,0,0,0,0,0,0,0
</chunk>
   <chunk x="16" y="0" width="16" height="16">
1064,1064,1064,1064,1064,1064,0,0,0,0,0,0,0,0,0,0,
1064,1064,1064,1064,1064,1064,0,0,0,0,0,0,0,0,0,0,
1064,1064,1064,1064,1064,1064,0,0,0,0,0,0,0,0,0,0,
1064,1064,1064,1064,1064,1064,0,0,0,0,0,0,0,0,0,0,
1064,1064,1064,1064,1064,1064,0,0,0,0,0,0,0,0,0,0,
1064,1064,1064,1064,1064,1064,0,0,0,0,0,0,0,0,0,0,
1064,1064,1064,1064,1064,1064,0,0,0,0,0,0,0,0,0,0,
1064,1064,1064,1064,1064,1064,0,0,0,0,0,0,0,0,0,0,
1064,1064,1064,1064,1064,1064,0,0,0,0,0,0,0,0,0,0,
1064,1064,1064,1064,1064,1064,0,0,0,0,0,0,0,0,0,0,
0,0,0,0,0,0,0,0,0,0,0,0,0,0,0,0,
0,0,0,0,0,0,0,0,0,0,0,0,0,0,0,0,
0,0,0,0,0,0,0,0,0,0,0,0,0,0,0,0,
0,0,0,0,0,0,0,0,0,0,0,0,0,0,0,0,
0,0,0,0,0,0,0,0,0,0,0,0,0,0,0,0,
0,0,0,0,0,0,0,0,0,0,0,0,0,0,0,0
</chunk>
  </data>
 </layer>
 <layer id="8" name="Spikes" width="30" height="20">
  <properties>
   <property name="Spikes" type="int" value="1"/>
  </properties>
  <data encoding="csv">
   <chunk x="-16" y="-16" width="16" height="16">
0,0,0,0,0,0,0,0,0,0,0,0,0,0,0,0,
0,0,0,0,0,0,0,0,0,0,0,0,0,0,0,0,
0,0,0,0,0,0,0,0,0,0,0,0,0,0,0,0,
0,0,0,0,0,0,0,0,0,0,0,0,0,0,0,0,
0,0,0,0,0,0,0,0,0,0,0,0,0,0,0,0,
0,0,0,0,0,0,0,0,0,0,0,0,0,0,0,0,
0,0,0,0,0,0,0,0,0,0,0,0,0,0,0,0,
0,0,0,0,0,0,0,0,0,0,0,0,0,0,0,0,
0,0,0,0,0,0,0,0,0,0,0,0,0,0,0,0,
0,0,0,0,0,0,0,0,0,0,0,0,0,0,0,0,
0,0,0,0,0,0,0,0,0,0,0,0,0,0,1124,1218,
0,0,0,0,0,0,0,0,0,0,0,0,0,0,1171,0,
0,0,0,0,0,0,0,0,0,0,0,0,1124,1218,1219,0,
0,0,0,0,0,0,0,0,0,0,1124,1218,1219,0,0,0,
0,0,0,0,0,0,0,0,0,0,1171,0,0,0,0,0,
0,0,0,0,0,0,0,0,0,0,1172,1122,1123,0,0,0
</chunk>
   <chunk x="0" y="-16" width="16" height="16">
0,0,0,0,0,0,0,0,0,0,0,0,0,0,0,0,
0,0,0,0,0,0,0,0,0,0,0,0,0,0,0,0,
0,0,0,0,0,0,0,0,0,0,0,0,0,0,0,0,
0,0,0,0,0,0,0,0,0,0,0,0,0,0,0,0,
0,0,0,0,0,0,0,0,0,0,0,0,0,0,0,0,
0,0,0,0,0,0,0,0,0,0,0,0,0,0,0,0,
0,0,0,0,0,0,0,0,0,0,0,0,0,0,0,0,
0,0,0,0,0,0,0,0,0,0,0,0,0,0,0,0,
0,0,0,0,0,0,0,0,0,0,0,0,0,0,0,0,
0,0,0,0,0,0,0,0,0,0,0,0,0,0,0,0,
1218,1218,1218,1125,0,0,0,0,0,0,0,0,0,0,0,0,
0,0,0,1169,0,0,0,0,0,0,0,0,0,0,0,0,
0,0,0,1217,1218,1125,0,0,0,0,0,0,0,0,0,0,
0,0,0,0,0,1217,1218,1125,0,0,0,0,0,0,0,0,
0,0,0,0,0,0,0,1169,0,0,0,0,0,0,0,0,
0,0,0,0,0,1121,1122,1173,0,0,0,0,0,0,0,0
</chunk>
   <chunk x="-16" y="0" width="16" height="16">
0,0,0,0,0,0,0,0,0,0,0,0,1172,1122,1122,1123,
0,0,0,0,0,0,0,0,0,0,0,0,0,0,0,1171,
0,0,0,0,0,0,0,0,0,0,0,0,0,0,0,1171,
0,0,0,0,0,0,0,0,0,0,0,0,0,0,0,0,
0,0,0,0,0,0,0,0,0,0,0,0,0,0,0,0,
0,0,0,0,0,0,0,0,0,0,0,0,0,0,0,0,
0,0,0,0,0,0,0,0,0,0,0,0,0,0,0,0,
0,0,0,0,0,0,0,0,0,0,0,0,0,0,0,0,
0,0,0,0,0,0,0,0,0,0,0,0,0,0,0,0,
0,0,0,0,0,0,0,0,0,0,0,0,0,0,0,0,
0,0,0,0,0,0,0,0,0,0,0,0,0,0,0,0,
0,0,0,0,0,0,0,0,0,0,0,0,0,0,0,0,
0,0,0,0,0,0,0,0,0,0,0,0,0,0,0,0,
0,0,0,0,0,0,0,0,0,0,0,0,0,0,0,0,
0,0,0,0,0,0,0,0,0,0,0,0,0,0,0,0,
0,0,0,0,0,0,0,0,0,0,0,0,0,0,0,0
</chunk>
   <chunk x="0" y="0" width="16" height="16">
0,0,1121,1122,1122,1173,0,0,0,0,0,0,0,0,0,0,
0,0,1169,0,0,0,0,0,0,0,0,0,0,0,0,0,
0,0,1169,0,0,0,0,0,0,0,0,0,0,0,0,0,
0,0,0,0,0,0,0,0,0,0,0,0,0,0,0,0,
0,0,0,0,0,0,0,0,0,0,0,0,0,0,0,0,
0,0,0,0,0,0,0,0,0,0,0,0,0,0,0,0,
0,0,0,0,0,0,0,0,0,0,0,0,0,0,0,0,
0,0,0,0,0,0,0,0,0,0,0,0,0,0,0,0,
0,0,0,0,0,0,0,0,0,0,0,0,0,0,0,0,
0,0,0,0,0,0,0,0,0,0,0,0,0,0,0,0,
0,0,0,0,0,0,0,0,0,0,0,0,0,0,0,0,
0,0,0,0,0,0,0,0,0,0,0,0,0,0,0,0,
0,0,0,0,0,0,0,0,0,0,0,0,0,0,0,0,
0,0,0,0,0,0,0,0,0,0,0,0,0,0,0,0,
0,0,0,0,0,0,0,0,0,0,0,0,0,0,0,0,
0,0,0,0,0,0,0,0,0,0,0,0,0,0,0,0
</chunk>
  </data>
 </layer>
 <layer id="7" name="Shrubbery" width="30" height="20">
  <properties>
   <property name="layer" type="int" value="2"/>
  </properties>
  <data encoding="csv"/>
 </layer>
 <layer id="5" name="Grass" width="30" height="20">
  <properties>
   <property name="layer" type="int" value="3"/>
  </properties>
  <data encoding="csv">
   <chunk x="-16" y="-16" width="16" height="16">
0,0,0,0,0,0,0,0,0,0,0,0,0,0,0,0,
0,0,0,0,0,0,0,0,0,0,0,0,0,0,0,0,
0,0,0,0,0,0,0,0,0,0,0,0,0,0,0,0,
0,0,0,0,0,0,0,0,0,0,0,0,0,0,0,0,
0,0,0,0,0,0,0,0,0,0,0,0,0,0,0,0,
0,0,0,0,0,0,0,0,0,0,0,0,0,0,0,0,
0,0,0,0,0,0,0,0,0,0,0,0,0,0,0,0,
0,0,0,0,0,0,0,0,0,0,0,0,0,0,0,0,
0,0,0,0,0,0,0,0,0,0,0,0,306,307,210,211,
0,0,0,0,0,0,0,0,0,0,0,0,354,355,258,259,
0,0,0,0,0,0,0,0,0,0,306,307,212,213,0,0,
0,0,0,0,0,0,0,0,306,307,354,355,260,261,0,0,
0,0,0,0,0,0,0,0,354,355,260,261,0,0,0,0,
0,0,0,0,0,0,0,0,116,117,0,0,0,0,0,0,
0,0,0,0,0,0,0,0,164,165,0,0,0,0,0,0,
0,0,0,0,0,0,0,0,164,165,0,0,0,0,0,0
</chunk>
   <chunk x="0" y="-16" width="16" height="16">
0,0,0,0,0,0,0,0,0,0,0,0,0,0,0,0,
0,0,0,0,0,0,0,0,0,0,0,0,0,0,0,0,
0,0,0,0,0,0,0,0,0,0,0,0,0,0,0,0,
0,0,0,0,0,0,0,0,0,0,0,0,0,0,0,0,
0,0,0,0,0,0,0,0,0,0,0,0,0,0,0,0,
0,0,0,0,0,0,0,0,0,0,0,0,0,0,0,0,
0,0,0,0,0,0,0,0,0,0,0,0,0,0,0,0,
0,0,0,0,0,0,0,0,0,0,0,0,0,0,0,0,
210,211,210,211,308,309,0,0,0,0,0,0,0,0,0,0,
258,259,258,259,356,357,0,0,0,0,0,0,0,0,0,0,
0,0,0,0,208,209,308,309,0,0,0,0,0,0,0,0,
0,0,0,0,256,257,356,357,308,309,0,0,0,0,0,0,
0,0,0,0,0,0,256,257,356,357,0,0,0,0,0,0,
0,0,0,0,0,0,0,0,160,161,0,0,0,0,0,0,
0,0,0,0,0,0,0,0,112,113,0,0,0,0,0,0,
0,0,0,0,0,0,0,0,160,161,0,0,0,0,0,0
</chunk>
   <chunk x="-16" y="0" width="16" height="16">
0,0,0,0,0,0,0,0,402,403,20,21,0,0,0,0,
0,0,0,0,0,0,0,0,450,451,68,403,18,20,21,0,
0,0,0,0,0,0,0,0,0,0,450,451,66,68,69,0,
0,0,0,0,0,0,0,0,0,0,0,0,0,0,0,0,
0,0,0,0,0,0,0,0,0,0,0,0,0,0,0,0,
0,0,0,0,0,0,0,0,0,0,0,0,0,0,0,0,
0,0,0,0,0,0,0,0,0,0,0,0,0,0,0,0,
0,0,0,0,0,0,0,0,0,0,0,0,0,0,0,0,
0,0,0,0,0,0,0,0,0,0,0,0,0,0,0,0,
0,0,0,0,0,0,0,0,0,0,0,0,0,0,0,0,
0,0,0,0,0,0,0,0,0,0,0,0,0,0,0,0,
0,0,0,0,0,0,0,0,0,0,0,0,0,0,0,0,
0,0,0,0,0,0,0,0,0,0,0,0,0,0,0,0,
0,0,0,0,0,0,0,0,0,0,0,0,0,0,0,0,
0,0,0,0,0,0,0,0,0,0,0,0,0,0,0,0,
0,0,0,0,0,0,0,0,0,0,0,0,0,0,0,0
</chunk>
   <chunk x="0" y="0" width="16" height="16">
0,0,0,0,0,0,16,17,404,405,0,0,0,0,0,0,
0,0,0,16,17,19,404,65,452,453,0,0,0,0,0,0,
0,0,0,64,65,67,452,453,0,0,0,0,0,0,0,0,
0,0,0,0,0,0,0,0,0,0,0,0,0,0,0,0,
0,0,0,0,0,0,0,0,0,0,0,0,0,0,0,0,
0,0,0,0,0,0,0,0,0,0,0,0,0,0,0,0,
0,0,0,0,0,0,0,0,0,0,0,0,0,0,0,0,
0,0,0,0,0,0,0,0,0,0,0,0,0,0,0,0,
0,0,0,0,0,0,0,0,0,0,0,0,0,0,0,0,
0,0,0,0,0,0,0,0,0,0,0,0,0,0,0,0,
0,0,0,0,0,0,0,0,0,0,0,0,0,0,0,0,
0,0,0,0,0,0,0,0,0,0,0,0,0,0,0,0,
0,0,0,0,0,0,0,0,0,0,0,0,0,0,0,0,
0,0,0,0,0,0,0,0,0,0,0,0,0,0,0,0,
0,0,0,0,0,0,0,0,0,0,0,0,0,0,0,0,
0,0,0,0,0,0,0,0,0,0,0,0,0,0,0,0
</chunk>
  </data>
 </layer>
 <layer id="6" name="Flowers" width="30" height="20">
  <properties>
   <property name="layer" type="int" value="4"/>
  </properties>
  <data encoding="csv"/>
 </layer>
 <objectgroup id="3" name="Node">
  <object id="70" name="*" x="-16" y="12" width="8" height="36"/>
  <object id="71" name="*" x="-64" y="4" width="48" height="12"/>
  <object id="73" name="*" x="-96" y="-8" width="32" height="8"/>
  <object id="74" name="*" x="-96" y="-48" width="12" height="40"/>
  <object id="75" name="*" x="-84" y="-48" width="20" height="12"/>
  <object id="76" name="*" x="-64" y="-64" width="8" height="24"/>
  <object id="77" name="*" x="-56" y="-64" width="24" height="12"/>
  <object id="79" name="*" x="-32" y="-96" width="12" height="40"/>
  <object id="80" name="*" x="-20" y="-96" width="84" height="12"/>
  <object id="81" name="*" x="52" y="-84" width="12" height="24"/>
  <object id="82" name="*" x="64" y="-64" width="32" height="12"/>
  <object id="84" name="*" x="88" y="-52" width="8" height="8"/>
  <object id="85" name="*" x="96" y="-48" width="32" height="12"/>
  <object id="86" name="*" x="116" y="-36" width="12" height="36"/>
  <object id="87" name="*" x="96" y="-12" width="20" height="12"/>
  <object id="88" name="*" x="88" y="-4" width="8" height="20"/>
  <object id="89" name="*" x="52" y="4" width="36" height="12"/>
  <object id="92" name="*" x="40" y="12" width="8" height="36"/>
  <object id="93" name="*" x="-64" y="-4" width="8" height="8"/>
  <object id="97" name="*" x="48" y="8" width="4" height="8"/>
  <object id="113" name="door_1" type="+" x="40" y="-24">
   <point/>
  </object>
  <object id="115" name="@" x="-16" y="48" width="64" height="16">
   <properties>
    <property name="scene" value="Gardens11"/>
    <property name="target" value="door_2"/>
   </properties>
  </object>
  <object id="116" type=":" x="-300" y="-312" width="640" height="360"/>
  <object id="117" type="_" x="-48" y="-32" width="48" height="16"/>
  <object id="118" type="_" x="32" y="-16" width="16" height="16"/>
 </objectgroup>
 <objectgroup id="2" name="Collision">
  <properties>
   <property name="collision" type="bool" value="true"/>
  </properties>
  <object id="94" x="-48" y="-16" width="48" height="8">
   <properties>
    <property name="one_way" type="bool" value="true"/>
   </properties>
  </object>
  <object id="95" x="32" y="0" width="16" height="8">
   <properties>
    <property name="one_way" type="bool" value="true"/>
   </properties>
  </object>
  <object id="98" x="-112" y="0" width="48" height="16"/>
  <object id="99" x="-80" y="16" width="64" height="16"/>
  <object id="100" x="-32" y="32" width="16" height="64"/>
  <object id="101" x="48" y="16" width="16" height="80"/>
  <object id="102" x="64" y="16" width="48" height="16"/>
  <object id="103" x="96" y="0" width="48" height="16"/>
  <object id="104" x="128" y="-64" width="16" height="64"/>
  <object id="105" x="96" y="-64" width="32" height="16"/>
  <object id="106" x="64" y="-80" width="48" height="16"/>
  <object id="107" x="64" y="-112" width="16" height="32"/>
  <object id="108" x="-48" y="-112" width="112" height="16"/>
  <object id="109" x="-48" y="-96" width="16" height="32"/>
  <object id="110" x="-80" y="-80" width="32" height="16"/>
  <object id="111" x="-112" y="-64" width="48" height="16"/>
  <object id="112" x="-112" y="-48" width="16" height="48"/>
  <object id="114" x="-16" y="80" width="64" height="16"/>
 </objectgroup>
</map>
